;FLAVOR:Marlin
;TIME:30895
;Filament used: 22.9257m
;Layer height: 0.2
;MINX:11.3
;MINY:49.4
;MINZ:0.2
;MAXX:208.7
;MAXY:170.6
;MAXZ:3.2
;Generated with Cura_SteamEngine 4.11.0
M140 S50
M105
M190 S50
M104 S200
M105
M109 S200
M82 ;absolute extrusion mode
; Ender 3 Custom Start G-code
G92 E0 ; Reset Extruder
G28 ; Home all axes
G29 ; Auto bed-level (BL-Touch)
G1 Z2.0 F3000 ; Move Z Axis up little to prevent scratching of Heat Bed
G1 X0.1 Y20 Z0.3 F5000.0 ; Move to start position
G1 X0.1 Y200.0 Z0.3 F1500.0 E15 ; Draw the first line
G1 X0.4 Y200.0 Z0.3 F5000.0 ; Move to side a little
G1 X0.4 Y20 Z0.3 F1500.0 E30 ; Draw the second line
G92 E0 ; Reset Extruder
G1 Z2.0 F3000 ; Move Z Axis up little to prevent scratching of Heat Bed
G1 X5 Y20 Z0.3 F5000.0 ; Move over to prevent blob squish
G92 E0
G92 E0
G1 F2700 E-5
;LAYER_COUNT:16
;LAYER:0
M107
G0 F6000 X18.15 Y49.855 Z0.2
;TYPE:SKIRT
G1 F2700 E0
G1 F1200 X19.005 Y49.627 E0.02943
G1 X19.878 Y49.477 E0.05889
G1 X21.1 Y49.4 E0.09962
G1 X198.9 Y49.4 E6.01327
G1 X199.784 Y49.44 E6.0427
G1 X200.661 Y49.56 E6.07214
G1 X201.524 Y49.758 E6.10159
G1 X202.365 Y50.033 E6.13102
G1 X203.178 Y50.383 E6.16046
G1 X203.957 Y50.805 E6.18993
G1 X204.693 Y51.296 E6.21935
G1 X205.383 Y51.851 E6.24881
G1 X206.02 Y52.466 E6.27826
G1 X206.598 Y53.136 E6.30769
G1 X207.114 Y53.855 E6.33712
G1 X207.563 Y54.618 E6.36657
G1 X207.941 Y55.419 E6.39603
G1 X208.245 Y56.25 E6.42546
G1 X208.473 Y57.105 E6.45489
G1 X208.623 Y57.978 E6.48435
G1 X208.7 Y59.2 E6.52507
G1 X208.7 Y160.8 E9.9043
G1 X208.66 Y161.684 E9.93374
G1 X208.54 Y162.561 E9.96318
G1 X208.342 Y163.424 E9.99263
G1 X208.067 Y164.265 E10.02206
G1 X207.717 Y165.078 E10.0515
G1 X207.295 Y165.857 E10.08096
G1 X206.804 Y166.593 E10.11039
G1 X206.249 Y167.283 E10.13984
G1 X205.634 Y167.92 E10.16929
G1 X204.964 Y168.498 E10.19872
G1 X204.245 Y169.014 E10.22816
G1 X203.482 Y169.463 E10.2576
G1 X202.681 Y169.841 E10.28706
G1 X201.85 Y170.145 E10.31649
G1 X200.995 Y170.373 E10.34592
G1 X200.122 Y170.523 E10.37538
G1 X198.9 Y170.6 E10.41611
G1 X21.1 Y170.6 E16.32976
G1 X20.216 Y170.56 E16.35919
G1 X19.339 Y170.44 E16.38863
G1 X18.476 Y170.242 E16.41808
G1 X17.635 Y169.967 E16.44751
G1 X16.822 Y169.617 E16.47695
G1 X16.043 Y169.195 E16.50642
G1 X15.307 Y168.704 E16.53585
G1 X14.617 Y168.149 E16.5653
G1 X13.98 Y167.534 E16.59475
G1 X13.402 Y166.864 E16.62418
G1 X12.886 Y166.145 E16.65361
G1 X12.437 Y165.382 E16.68306
G1 X12.059 Y164.581 E16.71252
G1 X11.755 Y163.75 E16.74195
G1 X11.527 Y162.895 E16.77138
G1 X11.377 Y162.022 E16.80084
G1 X11.3 Y160.8 E16.84157
G1 X11.3 Y59.2 E20.2208
G1 X11.34 Y58.316 E20.25023
G1 X11.46 Y57.439 E20.27967
G1 X11.658 Y56.576 E20.30912
G1 X11.933 Y55.735 E20.33855
G1 X12.283 Y54.922 E20.36799
G1 X12.705 Y54.143 E20.39745
G1 X13.196 Y53.407 E20.42688
G1 X13.751 Y52.717 E20.45633
G1 X14.366 Y52.08 E20.48578
G1 X15.036 Y51.502 E20.51521
G1 X15.755 Y50.986 E20.54465
G1 X16.518 Y50.537 E20.57409
G1 X17.319 Y50.159 E20.60355
G1 X18.15 Y49.855 E20.63298
G0 F6000 X18.51 Y50.164
G1 F1200 X19.354 Y49.964 E20.66183
G1 X20.212 Y49.842 E20.69066
G1 X21.1 Y49.8 E20.72022
G1 X198.9 Y49.8 E26.63388
G1 X199.766 Y49.84 E26.66271
G1 X200.625 Y49.96 E26.69156
G1 X201.469 Y50.158 E26.72039
G1 X202.291 Y50.433 E26.74922
G1 X203.084 Y50.783 E26.77805
G1 X203.842 Y51.204 E26.80689
G1 X204.557 Y51.693 E26.8357
G1 X205.225 Y52.246 E26.86454
G1 X205.839 Y52.859 E26.8934
G1 X206.394 Y53.525 E26.92224
G1 X206.884 Y54.239 E26.95104
G1 X207.308 Y54.996 E26.9799
G1 X207.659 Y55.789 E27.00874
G1 X207.936 Y56.61 E27.03756
G1 X208.136 Y57.454 E27.06641
G1 X208.258 Y58.312 E27.09523
G1 X208.3 Y59.2 E27.1248
G1 X208.3 Y160.8 E30.50403
G1 X208.26 Y161.666 E30.53286
G1 X208.14 Y162.525 E30.56171
G1 X207.942 Y163.369 E30.59054
G1 X207.667 Y164.191 E30.61937
G1 X207.317 Y164.984 E30.6482
G1 X206.896 Y165.742 E30.67704
G1 X206.407 Y166.457 E30.70585
G1 X205.854 Y167.125 E30.7347
G1 X205.241 Y167.739 E30.76355
G1 X204.575 Y168.294 E30.79239
G1 X203.861 Y168.784 E30.82119
G1 X203.104 Y169.208 E30.85005
G1 X202.311 Y169.559 E30.87889
G1 X201.49 Y169.836 E30.90771
G1 X200.646 Y170.036 E30.93656
G1 X199.788 Y170.158 E30.96538
G1 X198.9 Y170.2 E30.99495
G1 X21.1 Y170.2 E36.9086
G1 X20.234 Y170.16 E36.93744
G1 X19.375 Y170.04 E36.96629
G1 X18.531 Y169.842 E36.99512
G1 X17.709 Y169.567 E37.02395
G1 X16.916 Y169.217 E37.05278
G1 X16.158 Y168.796 E37.08162
G1 X15.443 Y168.307 E37.11043
G1 X14.775 Y167.754 E37.13927
G1 X14.161 Y167.141 E37.16813
G1 X13.606 Y166.475 E37.19696
G1 X13.116 Y165.761 E37.22577
G1 X12.692 Y165.004 E37.25462
G1 X12.341 Y164.211 E37.28347
G1 X12.064 Y163.39 E37.31229
G1 X11.864 Y162.546 E37.34114
G1 X11.742 Y161.688 E37.36996
G1 X11.7 Y160.8 E37.39953
G1 X11.7 Y59.2 E40.77876
G1 X11.74 Y58.334 E40.80759
G1 X11.86 Y57.475 E40.83644
G1 X12.058 Y56.631 E40.86527
G1 X12.333 Y55.809 E40.8941
G1 X12.683 Y55.016 E40.92293
G1 X13.104 Y54.258 E40.95177
G1 X13.593 Y53.543 E40.98058
G1 X14.146 Y52.875 E41.00942
G1 X14.759 Y52.261 E41.03828
G1 X15.425 Y51.706 E41.06712
G1 X16.139 Y51.216 E41.09592
G1 X16.896 Y50.792 E41.12478
G1 X17.689 Y50.441 E41.15362
G1 X18.51 Y50.164 E41.18244
G0 F6000 X18.056 Y50.73
G1 F1200 X18.867 Y50.481 E41.21066
G1 X19.698 Y50.31 E41.23887
G1 X20.541 Y50.217 E41.26708
G1 X21.1 Y50.2 E41.28568
G1 X198.9 Y50.2 E47.19934
G1 X199.747 Y50.24 E47.22754
G1 X200.587 Y50.36 E47.25576
G1 X201.412 Y50.558 E47.28398
G1 X202.215 Y50.833 E47.31221
G1 X202.988 Y51.182 E47.34042
G1 X203.724 Y51.602 E47.3686
G1 X204.418 Y52.09 E47.39682
G1 X205.063 Y52.641 E47.42504
G1 X205.653 Y53.251 E47.45326
G1 X206.183 Y53.913 E47.48147
G1 X206.649 Y54.622 E47.50969
G1 X207.045 Y55.372 E47.5379
G1 X207.37 Y56.156 E47.56612
G1 X207.619 Y56.967 E47.59434
G1 X207.79 Y57.798 E47.62256
G1 X207.883 Y58.641 E47.65077
G1 X207.9 Y59.2 E47.66937
G1 X207.9 Y160.8 E51.0486
G1 X207.86 Y161.647 E51.0768
G1 X207.74 Y162.487 E51.10502
G1 X207.542 Y163.312 E51.13324
G1 X207.267 Y164.115 E51.16147
G1 X206.918 Y164.888 E51.18968
G1 X206.498 Y165.624 E51.21787
G1 X206.01 Y166.318 E51.24608
G1 X205.459 Y166.963 E51.2743
G1 X204.849 Y167.553 E51.30252
G1 X204.187 Y168.083 E51.33073
G1 X203.478 Y168.549 E51.35895
G1 X202.728 Y168.945 E51.38716
G1 X201.944 Y169.27 E51.41539
G1 X201.133 Y169.519 E51.4436
G1 X200.302 Y169.69 E51.47182
G1 X199.459 Y169.783 E51.50003
G1 X198.9 Y169.8 E51.51863
G1 X21.1 Y169.8 E57.43228
G1 X20.253 Y169.76 E57.46048
G1 X19.413 Y169.64 E57.48871
G1 X18.588 Y169.442 E57.51693
G1 X17.785 Y169.167 E57.54516
G1 X17.012 Y168.818 E57.57336
G1 X16.276 Y168.398 E57.60155
G1 X15.582 Y167.91 E57.62977
G1 X14.937 Y167.359 E57.65798
G1 X14.347 Y166.749 E57.68621
G1 X13.817 Y166.087 E57.71441
G1 X13.351 Y165.378 E57.74263
G1 X12.955 Y164.628 E57.77084
G1 X12.63 Y163.844 E57.79907
G1 X12.381 Y163.033 E57.82729
G1 X12.21 Y162.202 E57.8555
G1 X12.117 Y161.359 E57.88371
G1 X12.1 Y160.8 E57.90231
G1 X12.1 Y59.2 E61.28154
G1 X12.14 Y58.353 E61.30975
G1 X12.26 Y57.513 E61.33797
G1 X12.458 Y56.688 E61.36619
G1 X12.733 Y55.885 E61.39442
G1 X13.082 Y55.112 E61.42263
G1 X13.502 Y54.376 E61.45081
G1 X13.99 Y53.682 E61.47903
G1 X14.541 Y53.037 E61.50724
G1 X15.151 Y52.447 E61.53547
G1 X15.813 Y51.917 E61.56368
G1 X16.522 Y51.451 E61.59189
G1 X17.272 Y51.055 E61.6201
G1 X18.056 Y50.73 E61.64833
G0 F6000 X18.421 Y51.028
G1 F1200 X19.22 Y50.808 E61.67589
G1 X20.037 Y50.666 E61.70348
G1 X21.1 Y50.6 E61.7389
G1 X198.9 Y50.6 E67.65255
G1 X199.728 Y50.64 E67.68012
G1 X200.549 Y50.76 E67.70772
G1 X201.354 Y50.958 E67.73529
G1 X202.136 Y51.232 E67.76285
G1 X202.889 Y51.581 E67.79046
G1 X203.604 Y52.001 E67.81804
G1 X204.275 Y52.487 E67.84559
G1 X204.897 Y53.036 E67.87319
G1 X205.463 Y53.642 E67.90077
G1 X205.968 Y54.3 E67.92835
G1 X206.407 Y55.003 E67.95592
G1 X206.776 Y55.746 E67.98351
G1 X207.072 Y56.521 E68.01111
G1 X207.292 Y57.32 E68.03867
G1 X207.434 Y58.137 E68.06625
G1 X207.5 Y59.2 E68.10167
G1 X207.5 Y160.8 E71.4809
G1 X207.46 Y161.628 E71.50847
G1 X207.34 Y162.449 E71.53607
G1 X207.142 Y163.254 E71.56364
G1 X206.868 Y164.036 E71.5912
G1 X206.519 Y164.789 E71.61881
G1 X206.099 Y165.504 E71.64639
G1 X205.613 Y166.175 E71.67394
G1 X205.064 Y166.797 E71.70154
G1 X204.458 Y167.363 E71.72912
G1 X203.8 Y167.868 E71.75671
G1 X203.097 Y168.307 E71.78427
G1 X202.354 Y168.676 E71.81186
G1 X201.579 Y168.972 E71.83946
G1 X200.78 Y169.192 E71.86702
G1 X199.963 Y169.334 E71.8946
G1 X198.9 Y169.4 E71.93002
G1 X21.1 Y169.4 E77.84368
G1 X20.272 Y169.36 E77.87125
G1 X19.451 Y169.24 E77.89885
G1 X18.646 Y169.042 E77.92642
G1 X17.864 Y168.768 E77.95398
G1 X17.111 Y168.419 E77.98158
G1 X16.396 Y167.999 E78.00916
G1 X15.725 Y167.513 E78.03672
G1 X15.103 Y166.964 E78.06431
G1 X14.537 Y166.358 E78.09189
G1 X14.032 Y165.7 E78.11948
G1 X13.593 Y164.997 E78.14705
G1 X13.224 Y164.254 E78.17464
G1 X12.928 Y163.479 E78.20223
G1 X12.708 Y162.68 E78.22979
G1 X12.566 Y161.863 E78.25738
G1 X12.5 Y160.8 E78.2928
G1 X12.5 Y59.2 E81.67203
G1 X12.54 Y58.372 E81.6996
G1 X12.66 Y57.551 E81.7272
G1 X12.858 Y56.746 E81.75477
G1 X13.132 Y55.964 E81.78233
G1 X13.481 Y55.211 E81.80993
G1 X13.901 Y54.496 E81.83751
G1 X14.387 Y53.825 E81.86507
G1 X14.936 Y53.203 E81.89266
G1 X15.542 Y52.637 E81.92024
G1 X16.2 Y52.132 E81.94783
G1 X16.903 Y51.693 E81.9754
G1 X17.646 Y51.324 E82.00299
G1 X18.421 Y51.028 E82.03058
G0 F6000 X18.782 Y51.335
G1 F1200 X19.569 Y51.144 E82.05752
G1 X20.371 Y51.032 E82.08445
G1 X21.1 Y51 E82.10872
G1 X198.9 Y51 E88.02237
G1 X199.709 Y51.04 E88.04931
G1 X200.51 Y51.16 E88.07625
G1 X201.295 Y51.357 E88.10317
G1 X202.056 Y51.632 E88.13008
G1 X202.787 Y51.98 E88.15701
G1 X203.481 Y52.399 E88.18397
G1 X204.129 Y52.884 E88.2109
G1 X204.726 Y53.43 E88.2378
G1 X205.267 Y54.033 E88.26475
G1 X205.746 Y54.686 E88.29168
G1 X206.157 Y55.383 E88.3186
G1 X206.499 Y56.117 E88.34553
G1 X206.765 Y56.882 E88.37247
G1 X206.956 Y57.669 E88.3994
G1 X207.068 Y58.471 E88.42634
G1 X207.1 Y59.2 E88.45061
G1 X207.1 Y160.8 E91.82984
G1 X207.06 Y161.609 E91.85678
G1 X206.94 Y162.41 E91.88372
G1 X206.743 Y163.195 E91.91063
G1 X206.468 Y163.956 E91.93755
G1 X206.12 Y164.687 E91.96447
G1 X205.701 Y165.381 E91.99144
G1 X205.216 Y166.029 E92.01836
G1 X204.67 Y166.626 E92.04527
G1 X204.067 Y167.167 E92.07221
G1 X203.414 Y167.646 E92.09915
G1 X202.717 Y168.057 E92.12606
G1 X201.983 Y168.399 E92.15299
G1 X201.218 Y168.665 E92.17993
G1 X200.431 Y168.856 E92.20687
G1 X199.629 Y168.968 E92.2338
G1 X198.9 Y169 E92.25807
G1 X21.1 Y169 E98.17172
G1 X20.291 Y168.96 E98.19866
G1 X19.49 Y168.84 E98.2256
G1 X18.705 Y168.643 E98.25252
G1 X17.944 Y168.368 E98.27943
G1 X17.213 Y168.02 E98.30636
G1 X16.519 Y167.601 E98.33332
G1 X15.871 Y167.116 E98.36024
G1 X15.274 Y166.57 E98.38715
G1 X14.733 Y165.967 E98.4141
G1 X14.254 Y165.314 E98.44103
G1 X13.843 Y164.617 E98.46795
G1 X13.501 Y163.883 E98.49488
G1 X13.235 Y163.118 E98.52182
G1 X13.044 Y162.331 E98.54875
G1 X12.932 Y161.529 E98.57569
G1 X12.9 Y160.8 E98.59996
G1 X12.9 Y59.2 E101.97919
G1 X12.94 Y58.391 E102.00613
G1 X13.06 Y57.59 E102.03306
G1 X13.257 Y56.805 E102.05998
G1 X13.532 Y56.044 E102.0869
G1 X13.88 Y55.313 E102.11382
G1 X14.299 Y54.619 E102.14079
G1 X14.784 Y53.971 E102.16771
G1 X15.33 Y53.374 E102.19462
G1 X15.933 Y52.833 E102.22156
G1 X16.586 Y52.354 E102.2485
G1 X17.283 Y51.943 E102.27541
G1 X18.017 Y51.601 E102.30234
G1 X18.782 Y51.335 E102.32928
G0 F6000 X18.386 Y51.887
G1 F1200 X19.139 Y51.65 E102.35554
G1 X19.913 Y51.491 E102.38182
G1 X20.698 Y51.41 E102.40807
G1 X21.1 Y51.4 E102.42144
G1 X198.9 Y51.4 E108.33509
G1 X199.689 Y51.44 E108.36137
G1 X200.469 Y51.559 E108.38761
G1 X201.234 Y51.757 E108.41389
G1 X201.974 Y52.031 E108.44014
G1 X202.683 Y52.379 E108.46641
G1 X203.354 Y52.797 E108.4927
G1 X203.978 Y53.28 E108.51895
G1 X204.551 Y53.823 E108.5452
G1 X205.066 Y54.422 E108.57148
G1 X205.517 Y55.07 E108.59774
G1 X205.901 Y55.761 E108.62403
G1 X206.213 Y56.486 E108.65028
G1 X206.45 Y57.239 E108.67654
G1 X206.609 Y58.013 E108.70282
G1 X206.69 Y58.798 E108.72907
G1 X206.7 Y59.2 E108.74244
G1 X206.7 Y160.8 E112.12167
G1 X206.66 Y161.589 E112.14795
G1 X206.541 Y162.369 E112.17419
G1 X206.343 Y163.134 E112.20047
G1 X206.069 Y163.874 E112.22672
G1 X205.721 Y164.583 E112.25299
G1 X205.303 Y165.254 E112.27928
G1 X204.82 Y165.878 E112.30552
G1 X204.277 Y166.451 E112.33178
G1 X203.678 Y166.966 E112.35805
G1 X203.03 Y167.417 E112.38431
G1 X202.339 Y167.801 E112.41061
G1 X201.614 Y168.113 E112.43686
G1 X200.861 Y168.35 E112.46311
G1 X200.087 Y168.509 E112.4894
G1 X199.302 Y168.59 E112.51564
G1 X198.9 Y168.6 E112.52902
G1 X21.1 Y168.6 E118.44267
G1 X20.311 Y168.56 E118.46895
G1 X19.531 Y168.441 E118.49519
G1 X18.766 Y168.243 E118.52147
G1 X18.026 Y167.969 E118.54772
G1 X17.317 Y167.621 E118.57399
G1 X16.646 Y167.203 E118.60028
G1 X16.022 Y166.72 E118.62652
G1 X15.449 Y166.177 E118.65278
G1 X14.934 Y165.578 E118.67905
G1 X14.483 Y164.93 E118.70531
G1 X14.099 Y164.239 E118.73161
G1 X13.787 Y163.514 E118.75786
G1 X13.55 Y162.761 E118.78411
G1 X13.391 Y161.987 E118.8104
G1 X13.31 Y161.202 E118.83664
G1 X13.3 Y160.8 E118.85002
G1 X13.3 Y59.2 E122.22925
G1 X13.34 Y58.411 E122.25552
G1 X13.459 Y57.631 E122.28177
G1 X13.657 Y56.866 E122.30805
G1 X13.931 Y56.126 E122.33429
G1 X14.279 Y55.417 E122.36056
G1 X14.697 Y54.746 E122.38686
G1 X15.18 Y54.122 E122.4131
G1 X15.723 Y53.549 E122.43936
G1 X16.322 Y53.034 E122.46563
G1 X16.97 Y52.583 E122.49189
G1 X17.661 Y52.199 E122.51818
G1 X18.386 Y51.887 E122.54444
G0 F6000 X18.751 Y52.183
G1 F1200 X19.493 Y51.977 E122.57005
G1 X20.251 Y51.849 E122.59562
G1 X21.1 Y51.8 E122.6239
G1 X198.9 Y51.8 E128.53755
G1 X199.668 Y51.84 E128.56313
G1 X200.428 Y51.959 E128.58872
G1 X201.171 Y52.157 E128.61429
G1 X201.89 Y52.431 E128.63988
G1 X202.576 Y52.778 E128.66545
G1 X203.223 Y53.194 E128.69104
G1 X203.823 Y53.675 E128.71661
G1 X204.37 Y54.216 E128.7422
G1 X204.858 Y54.811 E128.7678
G1 X205.281 Y55.453 E128.79337
G1 X205.636 Y56.136 E128.81897
G1 X205.917 Y56.851 E128.84452
G1 X206.123 Y57.593 E128.87013
G1 X206.251 Y58.351 E128.8957
G1 X206.3 Y59.2 E128.92399
G1 X206.3 Y160.8 E132.30322
G1 X206.26 Y161.568 E132.3288
G1 X206.141 Y162.328 E132.35438
G1 X205.943 Y163.071 E132.37996
G1 X205.669 Y163.79 E132.40555
G1 X205.322 Y164.476 E132.43112
G1 X204.906 Y165.123 E132.4567
G1 X204.425 Y165.723 E132.48228
G1 X203.884 Y166.27 E132.50787
G1 X203.289 Y166.758 E132.53346
G1 X202.647 Y167.181 E132.55903
G1 X201.964 Y167.536 E132.58463
G1 X201.249 Y167.817 E132.61019
G1 X200.507 Y168.023 E132.6358
G1 X199.749 Y168.151 E132.66137
G1 X198.9 Y168.2 E132.68965
G1 X21.1 Y168.2 E138.6033
G1 X20.332 Y168.16 E138.62888
G1 X19.572 Y168.041 E138.65447
G1 X18.829 Y167.843 E138.68004
G1 X18.11 Y167.569 E138.70563
G1 X17.424 Y167.222 E138.7312
G1 X16.777 Y166.806 E138.75679
G1 X16.177 Y166.325 E138.78236
G1 X15.63 Y165.784 E138.80795
G1 X15.142 Y165.189 E138.83355
G1 X14.719 Y164.547 E138.85912
G1 X14.364 Y163.864 E138.88472
G1 X14.083 Y163.149 E138.91027
G1 X13.877 Y162.407 E138.93588
G1 X13.749 Y161.649 E138.96145
G1 X13.7 Y160.8 E138.98974
G1 X13.7 Y59.2 E142.36897
G1 X13.74 Y58.432 E142.39454
G1 X13.859 Y57.672 E142.42013
G1 X14.057 Y56.929 E142.4457
G1 X14.331 Y56.21 E142.4713
G1 X14.678 Y55.524 E142.49687
G1 X15.094 Y54.877 E142.52245
G1 X15.575 Y54.277 E142.54803
G1 X16.116 Y53.73 E142.57361
G1 X16.711 Y53.242 E142.59921
G1 X17.353 Y52.819 E142.62478
G1 X18.036 Y52.464 E142.65038
G1 X18.751 Y52.183 E142.67593
G0 F6000 X19.113 Y52.488
G1 F1200 X19.841 Y52.314 E142.70083
G1 X20.583 Y52.219 E142.72571
G1 X21.1 Y52.2 E142.74292
G1 X198.9 Y52.2 E148.65657
G1 X199.647 Y52.24 E148.68145
G1 X200.385 Y52.359 E148.70631
G1 X201.107 Y52.557 E148.73121
G1 X201.803 Y52.83 E148.75608
G1 X202.466 Y53.177 E148.78097
G1 X203.089 Y53.592 E148.80587
G1 X203.663 Y54.071 E148.83073
G1 X204.184 Y54.608 E148.85562
G1 X204.643 Y55.198 E148.88048
G1 X205.038 Y55.834 E148.90538
G1 X205.362 Y56.508 E148.93025
G1 X205.612 Y57.213 E148.95513
G1 X205.786 Y57.941 E148.98003
G1 X205.881 Y58.683 E149.00491
G1 X205.9 Y59.2 E149.02212
G1 X205.9 Y160.8 E152.40135
G1 X205.86 Y161.547 E152.42623
