;FLAVOR:Marlin
;TIME:23409
;Filament used: 17.0774m
;Layer height: 0.2
;MINX:52.575
;MINY:36.7
;MINZ:0.2
;MAXX:167.425
;MAXY:183.3
;MAXZ:6.4
;Generated with Cura_SteamEngine 4.11.0
M140 S50
M105
M190 S50
M104 S200
M105
M109 S200
M82 ;absolute extrusion mode
; Ender 3 Custom Start G-code
G92 E0 ; Reset Extruder
G28 ; Home all axes
G29 ; Auto bed-level (BL-Touch)
G1 Z2.0 F3000 ; Move Z Axis up little to prevent scratching of Heat Bed
G1 X0.1 Y20 Z0.3 F5000.0 ; Move to start position
G1 X0.1 Y200.0 Z0.3 F1500.0 E15 ; Draw the first line
G1 X0.4 Y200.0 Z0.3 F5000.0 ; Move to side a little
G1 X0.4 Y20 Z0.3 F1500.0 E30 ; Draw the second line
G92 E0 ; Reset Extruder
G1 Z2.0 F3000 ; Move Z Axis up little to prevent scratching of Heat Bed
G1 X5 Y20 Z0.3 F5000.0 ; Move over to prevent blob squish
G92 E0
G92 E0
G1 F2700 E-5
;LAYER_COUNT:32
;LAYER:0
M107
G0 F6000 X54.471 Y40.707 Z0.2
;TYPE:SKIRT
G1 F2700 E0
G1 F1200 X55.026 Y40.017 E0.02945
G1 X55.641 Y39.38 E0.0589
G1 X56.311 Y38.802 E0.08833
G1 X57.03 Y38.286 E0.11777
G1 X57.793 Y37.837 E0.14721
G1 X58.594 Y37.459 E0.17667
G1 X59.425 Y37.155 E0.2061
G1 X60.28 Y36.927 E0.23553
G1 X61.153 Y36.777 E0.265
G1 X62.375 Y36.7 E0.30572
G1 X157.625 Y36.7 E3.47375
G1 X158.509 Y36.74 E3.50318
G1 X159.386 Y36.86 E3.53262
G1 X160.249 Y37.058 E3.56207
G1 X161.09 Y37.333 E3.5915
G1 X161.903 Y37.683 E3.62094
G1 X162.682 Y38.105 E3.65041
G1 X163.418 Y38.596 E3.67983
G1 X164.108 Y39.151 E3.70928
G1 X164.745 Y39.766 E3.73873
G1 X165.323 Y40.436 E3.76817
G1 X165.839 Y41.155 E3.7976
G1 X166.288 Y41.918 E3.82705
G1 X166.666 Y42.719 E3.8565
G1 X166.97 Y43.55 E3.88594
G1 X167.198 Y44.405 E3.91537
G1 X167.348 Y45.278 E3.94483
G1 X167.425 Y46.5 E3.98555
G1 X167.425 Y173.5 E8.20959
G1 X167.385 Y174.384 E8.23902
G1 X167.265 Y175.261 E8.26846
G1 X167.067 Y176.124 E8.29791
G1 X166.792 Y176.965 E8.32734
G1 X166.442 Y177.778 E8.35678
G1 X166.02 Y178.557 E8.38625
G1 X165.529 Y179.293 E8.41567
G1 X164.974 Y179.983 E8.44513
G1 X164.359 Y180.62 E8.47458
G1 X163.689 Y181.198 E8.50401
G1 X162.97 Y181.714 E8.53344
G1 X162.207 Y182.163 E8.56289
G1 X161.406 Y182.541 E8.59235
G1 X160.575 Y182.845 E8.62178
G1 X159.72 Y183.073 E8.65121
G1 X158.847 Y183.223 E8.68067
G1 X157.625 Y183.3 E8.72139
G1 X62.375 Y183.3 E11.88942
G1 X61.491 Y183.26 E11.91885
G1 X60.614 Y183.14 E11.9483
G1 X59.751 Y182.942 E11.97774
G1 X58.91 Y182.667 E12.00717
G1 X58.097 Y182.317 E12.03661
G1 X57.318 Y181.895 E12.06608
G1 X56.582 Y181.404 E12.09551
G1 X55.892 Y180.849 E12.12496
G1 X55.255 Y180.234 E12.15441
G1 X54.677 Y179.564 E12.18384
G1 X54.161 Y178.845 E12.21328
G1 X53.712 Y178.082 E12.24272
G1 X53.334 Y177.281 E12.27218
G1 X53.03 Y176.45 E12.30161
G1 X52.802 Y175.595 E12.33104
G1 X52.652 Y174.722 E12.3605
G1 X52.575 Y173.5 E12.40123
G1 X52.575 Y46.5 E16.62526
G1 X52.615 Y45.616 E16.6547
G1 X52.735 Y44.739 E16.68414
G1 X52.933 Y43.876 E16.71359
G1 X53.208 Y43.035 E16.74302
G1 X53.558 Y42.222 E16.77246
G1 X53.98 Y41.443 E16.80192
G1 X54.471 Y40.707 E16.83135
G0 F6000 X54.868 Y40.843
G1 F1200 X55.421 Y40.175 E16.86019
G1 X56.034 Y39.561 E16.88905
G1 X56.7 Y39.006 E16.91788
G1 X57.414 Y38.516 E16.94669
G1 X58.171 Y38.092 E16.97554
G1 X58.964 Y37.741 E17.00439
G1 X59.785 Y37.464 E17.03321
G1 X60.629 Y37.264 E17.06206
G1 X61.487 Y37.142 E17.09088
G1 X62.375 Y37.1 E17.12045
G1 X157.625 Y37.1 E20.28848
G1 X158.491 Y37.14 E20.31731
G1 X159.35 Y37.26 E20.34616
G1 X160.194 Y37.458 E20.37499
G1 X161.016 Y37.733 E20.40382
G1 X161.809 Y38.083 E20.43265
G1 X162.567 Y38.504 E20.46149
G1 X163.282 Y38.993 E20.4903
G1 X163.95 Y39.546 E20.51914
G1 X164.564 Y40.159 E20.548
G1 X165.119 Y40.825 E20.57684
G1 X165.609 Y41.539 E20.60564
G1 X166.033 Y42.296 E20.6345
G1 X166.384 Y43.089 E20.66334
G1 X166.661 Y43.91 E20.69216
G1 X166.861 Y44.754 E20.72101
G1 X166.983 Y45.612 E20.74983
G1 X167.025 Y46.5 E20.7794
G1 X167.025 Y173.5 E25.00344
G1 X166.985 Y174.366 E25.03227
G1 X166.865 Y175.225 E25.06112
G1 X166.667 Y176.069 E25.08995
G1 X166.392 Y176.891 E25.11878
G1 X166.042 Y177.684 E25.14761
G1 X165.621 Y178.442 E25.17645
G1 X165.132 Y179.157 E25.20526
G1 X164.579 Y179.825 E25.2341
G1 X163.966 Y180.439 E25.26296
G1 X163.3 Y180.994 E25.2918
G1 X162.586 Y181.484 E25.3206
G1 X161.829 Y181.908 E25.34946
G1 X161.036 Y182.259 E25.3783
G1 X160.215 Y182.536 E25.40712
G1 X159.371 Y182.736 E25.43597
G1 X158.513 Y182.858 E25.46479
G1 X157.625 Y182.9 E25.49436
G1 X62.375 Y182.9 E28.66239
G1 X61.509 Y182.86 E28.69122
G1 X60.65 Y182.74 E28.72007
G1 X59.806 Y182.542 E28.7489
G1 X58.984 Y182.267 E28.77773
G1 X58.191 Y181.917 E28.80656
G1 X57.433 Y181.496 E28.8354
G1 X56.718 Y181.007 E28.86421
G1 X56.05 Y180.454 E28.89306
G1 X55.436 Y179.841 E28.92191
G1 X54.881 Y179.175 E28.95075
G1 X54.391 Y178.461 E28.97955
G1 X53.967 Y177.704 E29.00841
G1 X53.616 Y176.911 E29.03725
G1 X53.339 Y176.09 E29.06607
G1 X53.139 Y175.246 E29.09492
G1 X53.017 Y174.388 E29.12374
G1 X52.975 Y173.5 E29.15331
G1 X52.975 Y46.5 E33.37735
G1 X53.015 Y45.634 E33.40618
G1 X53.135 Y44.775 E33.43503
G1 X53.333 Y43.931 E33.46386
G1 X53.608 Y43.109 E33.49269
G1 X53.958 Y42.316 E33.52152
G1 X54.379 Y41.558 E33.55036
G1 X54.868 Y40.843 E33.57917
G0 F6000 X55.265 Y40.982
G1 F1200 X55.816 Y40.337 E33.60739
G1 X56.426 Y39.747 E33.63561
G1 X57.088 Y39.217 E33.66382
G1 X57.797 Y38.751 E33.69204
G1 X58.547 Y38.355 E33.72025
G1 X59.331 Y38.03 E33.74847
G1 X60.142 Y37.781 E33.77669
G1 X60.973 Y37.61 E33.80491
G1 X61.816 Y37.517 E33.83312
G1 X62.375 Y37.5 E33.85172
G1 X157.625 Y37.5 E37.01975
G1 X158.472 Y37.54 E37.04795
G1 X159.312 Y37.66 E37.07617
G1 X160.137 Y37.858 E37.10439
G1 X160.94 Y38.133 E37.13262
G1 X161.713 Y38.482 E37.16083
G1 X162.449 Y38.902 E37.18901
G1 X163.143 Y39.39 E37.21723
G1 X163.788 Y39.941 E37.24545
G1 X164.378 Y40.551 E37.27367
G1 X164.908 Y41.213 E37.30188
G1 X165.374 Y41.922 E37.3301
G1 X165.77 Y42.672 E37.35831
G1 X166.095 Y43.456 E37.38653
G1 X166.344 Y44.267 E37.41475
G1 X166.515 Y45.098 E37.44297
G1 X166.608 Y45.941 E37.47118
G1 X166.625 Y46.5 E37.48978
G1 X166.625 Y173.5 E41.71382
G1 X166.585 Y174.347 E41.74202
G1 X166.465 Y175.187 E41.77024
G1 X166.267 Y176.012 E41.79846
G1 X165.992 Y176.815 E41.82669
G1 X165.643 Y177.588 E41.8549
G1 X165.223 Y178.324 E41.88308
G1 X164.735 Y179.018 E41.9113
G1 X164.184 Y179.663 E41.93952
G1 X163.574 Y180.253 E41.96774
G1 X162.912 Y180.783 E41.99595
G1 X162.203 Y181.249 E42.02417
G1 X161.453 Y181.645 E42.05238
G1 X160.669 Y181.97 E42.0806
G1 X159.858 Y182.219 E42.10882
G1 X159.027 Y182.39 E42.13704
G1 X158.184 Y182.483 E42.16525
G1 X157.625 Y182.5 E42.18385
G1 X62.375 Y182.5 E45.35188
G1 X61.528 Y182.46 E45.38008
G1 X60.688 Y182.34 E45.4083
G1 X59.863 Y182.142 E45.43652
G1 X59.06 Y181.867 E45.46475
G1 X58.287 Y181.518 E45.49296
G1 X57.551 Y181.098 E45.52114
G1 X56.857 Y180.61 E45.54936
G1 X56.212 Y180.059 E45.57758
G1 X55.622 Y179.449 E45.6058
G1 X55.092 Y178.787 E45.63401
G1 X54.626 Y178.078 E45.66223
G1 X54.23 Y177.328 E45.69044
G1 X53.905 Y176.544 E45.71866
G1 X53.656 Y175.733 E45.74688
G1 X53.485 Y174.902 E45.7751
G1 X53.392 Y174.059 E45.80331
G1 X53.375 Y173.5 E45.82191
G1 X53.375 Y46.5 E50.04594
G1 X53.415 Y45.653 E50.07415
G1 X53.535 Y44.813 E50.10237
G1 X53.733 Y43.988 E50.13059
G1 X54.008 Y43.185 E50.15882
G1 X54.357 Y42.412 E50.18703
G1 X54.777 Y41.676 E50.21521
G1 X55.265 Y40.982 E50.24343
G0 F6000 X55.662 Y41.125
G1 F1200 X56.211 Y40.503 E50.27102
G1 X56.817 Y39.937 E50.2986
G1 X57.475 Y39.432 E50.32619
G1 X58.178 Y38.993 E50.35376
G1 X58.921 Y38.624 E50.38135
G1 X59.696 Y38.328 E50.40894
G1 X60.495 Y38.108 E50.43651
G1 X61.312 Y37.966 E50.46409
G1 X62.375 Y37.9 E50.49951
G1 X157.625 Y37.9 E53.66754
G1 X158.453 Y37.94 E53.69511
G1 X159.274 Y38.06 E53.72271
G1 X160.079 Y38.258 E53.75028
G1 X160.861 Y38.532 E53.77784
G1 X161.614 Y38.881 E53.80544
G1 X162.329 Y39.301 E53.83302
G1 X163 Y39.787 E53.86058
G1 X163.622 Y40.336 E53.88817
G1 X164.188 Y40.942 E53.91575
G1 X164.693 Y41.6 E53.94334
G1 X165.132 Y42.303 E53.97091
G1 X165.501 Y43.046 E53.9985
G1 X165.797 Y43.821 E54.02609
G1 X166.017 Y44.62 E54.05366
G1 X166.159 Y45.437 E54.08124
G1 X166.225 Y46.5 E54.11666
G1 X166.225 Y173.5 E58.3407
G1 X166.185 Y174.328 E58.36827
G1 X166.065 Y175.149 E58.39587
G1 X165.867 Y175.954 E58.42344
G1 X165.593 Y176.736 E58.451
G1 X165.244 Y177.489 E58.4786
G1 X164.824 Y178.204 E58.50618
G1 X164.338 Y178.875 E58.53374
G1 X163.789 Y179.497 E58.56133
G1 X163.183 Y180.063 E58.58891
G1 X162.525 Y180.568 E58.6165
G1 X161.822 Y181.007 E58.64407
G1 X161.079 Y181.376 E58.67166
G1 X160.304 Y181.672 E58.69925
G1 X159.505 Y181.892 E58.72682
G1 X158.688 Y182.034 E58.7544
G1 X157.625 Y182.1 E58.78982
G1 X62.375 Y182.1 E61.95785
G1 X61.547 Y182.06 E61.98542
G1 X60.726 Y181.94 E62.01302
G1 X59.921 Y181.742 E62.04059
G1 X59.139 Y181.468 E62.06815
G1 X58.386 Y181.119 E62.09575
G1 X57.671 Y180.699 E62.12333
G1 X57 Y180.213 E62.15089
G1 X56.378 Y179.664 E62.17848
G1 X55.812 Y179.058 E62.20606
G1 X55.307 Y178.4 E62.23365
G1 X54.868 Y177.697 E62.26122
G1 X54.499 Y176.954 E62.28881
G1 X54.203 Y176.179 E62.3164
G1 X53.983 Y175.38 E62.34397
G1 X53.841 Y174.563 E62.37155
G1 X53.775 Y173.5 E62.40697
G1 X53.775 Y46.5 E66.63101
G1 X53.815 Y45.672 E66.65858
G1 X53.935 Y44.851 E66.68618
G1 X54.133 Y44.046 E66.71375
G1 X54.407 Y43.264 E66.74131
G1 X54.756 Y42.511 E66.76891
G1 X55.176 Y41.796 E66.79649
G1 X55.662 Y41.125 E66.82405
G0 F6000 X55.574 Y41.919
G1 F1200 X56.059 Y41.271 E66.85097
G1 X56.605 Y40.674 E66.87788
G1 X57.208 Y40.133 E66.90482
G1 X57.861 Y39.654 E66.93176
G1 X58.558 Y39.243 E66.95867
G1 X59.292 Y38.901 E66.9856
G1 X60.057 Y38.635 E67.01254
G1 X60.844 Y38.444 E67.03948
G1 X61.646 Y38.332 E67.06641
G1 X62.375 Y38.3 E67.09068
G1 X157.625 Y38.3 E70.25871
G1 X158.434 Y38.34 E70.28565
G1 X159.235 Y38.46 E70.31259
G1 X160.02 Y38.657 E70.33951
G1 X160.781 Y38.932 E70.36642
G1 X161.512 Y39.28 E70.39335
G1 X162.206 Y39.699 E70.42031
G1 X162.854 Y40.184 E70.44723
G1 X163.451 Y40.73 E70.47414
G1 X163.992 Y41.333 E70.50108
G1 X164.471 Y41.986 E70.52802
G1 X164.882 Y42.683 E70.55493
G1 X165.224 Y43.417 E70.58186
G1 X165.49 Y44.182 E70.6088
G1 X165.681 Y44.969 E70.63574
G1 X165.793 Y45.771 E70.66267
G1 X165.825 Y46.5 E70.68694
G1 X165.825 Y173.5 E74.91098
G1 X165.785 Y174.309 E74.93792
G1 X165.665 Y175.11 E74.96486
G1 X165.468 Y175.895 E74.99178
G1 X165.193 Y176.656 E75.01869
G1 X164.845 Y177.387 E75.04562
G1 X164.426 Y178.081 E75.07258
G1 X163.941 Y178.729 E75.0995
G1 X163.395 Y179.326 E75.12641
G1 X162.792 Y179.867 E75.15335
G1 X162.139 Y180.346 E75.18029
G1 X161.442 Y180.757 E75.2072
G1 X160.708 Y181.099 E75.23414
G1 X159.943 Y181.365 E75.26107
G1 X159.156 Y181.556 E75.28801
G1 X158.354 Y181.668 E75.31494
G1 X157.625 Y181.7 E75.33921
G1 X62.375 Y181.7 E78.50724
G1 X61.566 Y181.66 E78.53418
G1 X60.765 Y181.54 E78.56112
G1 X59.98 Y181.343 E78.58804
G1 X59.219 Y181.068 E78.61495
G1 X58.488 Y180.72 E78.64188
G1 X57.794 Y180.301 E78.66884
G1 X57.146 Y179.816 E78.69576
G1 X56.549 Y179.27 E78.72267
G1 X56.008 Y178.667 E78.74962
G1 X55.529 Y178.014 E78.77655
G1 X55.118 Y177.317 E78.80346
G1 X54.776 Y176.583 E78.8304
G1 X54.51 Y175.818 E78.85734
G1 X54.319 Y175.031 E78.88427
G1 X54.207 Y174.229 E78.9112
G1 X54.175 Y173.5 E78.93547
G1 X54.175 Y46.5 E83.15951
G1 X54.215 Y45.691 E83.18645
G1 X54.335 Y44.89 E83.21339
G1 X54.532 Y44.105 E83.24031
G1 X54.807 Y43.344 E83.26722
G1 X55.155 Y42.613 E83.29415
G1 X55.574 Y41.919 E83.32111
G0 F6000 X55.972 Y42.046
G1 F1200 X56.455 Y41.422 E83.34736
G1 X56.998 Y40.849 E83.37361
G1 X57.597 Y40.334 E83.39989
G1 X58.245 Y39.883 E83.42615
G1 X58.936 Y39.499 E83.45244
G1 X59.661 Y39.187 E83.47869
G1 X60.414 Y38.95 E83.50495
G1 X61.188 Y38.791 E83.53123
G1 X61.973 Y38.71 E83.55748
G1 X62.375 Y38.7 E83.57085
G1 X157.625 Y38.7 E86.73888
G1 X158.414 Y38.74 E86.76516
G1 X159.194 Y38.859 E86.7914
G1 X159.959 Y39.057 E86.81768
G1 X160.699 Y39.331 E86.84393
G1 X161.408 Y39.679 E86.8702
G1 X162.079 Y40.097 E86.89649
G1 X162.703 Y40.58 E86.92273
G1 X163.276 Y41.123 E86.94899
G1 X163.791 Y41.722 E86.97526
G1 X164.242 Y42.37 E87.00152
G1 X164.626 Y43.061 E87.02782
G1 X164.938 Y43.786 E87.05407
G1 X165.175 Y44.539 E87.08032
G1 X165.334 Y45.313 E87.1066
G1 X165.415 Y46.098 E87.13285
G1 X165.425 Y46.5 E87.14623
G1 X165.425 Y173.5 E91.37026
G1 X165.385 Y174.289 E91.39654
G1 X165.266 Y175.069 E91.42278
G1 X165.068 Y175.834 E91.44907
G1 X164.794 Y176.574 E91.47531
G1 X164.446 Y177.283 E91.50158
G1 X164.028 Y177.954 E91.52787
G1 X163.545 Y178.578 E91.55412
G1 X163.002 Y179.151 E91.58038
G1 X162.403 Y179.666 E91.60665
G1 X161.755 Y180.117 E91.63291
G1 X161.064 Y180.501 E91.6592
G1 X160.339 Y180.813 E91.68545
G1 X159.586 Y181.05 E91.71171
G1 X158.812 Y181.209 E91.73799
G1 X158.027 Y181.29 E91.76424
G1 X157.625 Y181.3 E91.77761
G1 X62.375 Y181.3 E94.94564
G1 X61.586 Y181.26 E94.97192
G1 X60.806 Y181.141 E94.99816
G1 X60.041 Y180.943 E95.02444
G1 X59.301 Y180.669 E95.05069
G1 X58.592 Y180.321 E95.07696
G1 X57.921 Y179.903 E95.10325
G1 X57.297 Y179.42 E95.1295
G1 X56.724 Y178.877 E95.15575
G1 X56.209 Y178.278 E95.18203
G1 X55.758 Y177.63 E95.20828
G1 X55.374 Y176.939 E95.23458
G1 X55.062 Y176.214 E95.26083
G1 X54.825 Y175.461 E95.28709
G1 X54.666 Y174.687 E95.31337
G1 X54.585 Y173.902 E95.33961
G1 X54.575 Y173.5 E95.35299
G1 X54.575 Y46.5 E99.57703
G1 X54.615 Y45.711 E99.6033
G1 X54.734 Y44.931 E99.62954
G1 X54.932 Y44.166 E99.65583
G1 X55.206 Y43.426 E99.68207
G1 X55.554 Y42.717 E99.70834
G1 X55.972 Y42.046 E99.73464
G0 F6000 X56.369 Y42.177
G1 F1200 X56.85 Y41.577 E99.76021
G1 X57.391 Y41.03 E99.7858
G1 X57.986 Y40.542 E99.8114
G1 X58.628 Y40.119 E99.83697
G1 X59.311 Y39.764 E99.86257
G1 X60.026 Y39.483 E99.88812
G1 X60.768 Y39.277 E99.91373
G1 X61.526 Y39.149 E99.9393
G1 X62.375 Y39.1 E99.96759
G1 X157.625 Y39.1 E103.13561
G1 X158.393 Y39.14 E103.16119
G1 X159.153 Y39.259 E103.18678
G1 X159.896 Y39.457 E103.21235
G1 X160.615 Y39.731 E103.23794
G1 X161.301 Y40.078 E103.26351
G1 X161.948 Y40.494 E103.2891
G1 X162.548 Y40.975 E103.31467
G1 X163.095 Y41.516 E103.34026
G1 X163.583 Y42.111 E103.36586
G1 X164.006 Y42.753 E103.39143
G1 X164.361 Y43.436 E103.41703
G1 X164.642 Y44.151 E103.44258
G1 X164.848 Y44.893 E103.46819
G1 X164.976 Y45.651 E103.49376
G1 X165.025 Y46.5 E103.52205
G1 X165.025 Y173.5 E107.74608
G1 X164.985 Y174.268 E107.77166
G1 X164.866 Y175.028 E107.79725
G1 X164.668 Y175.771 E107.82282
G1 X164.394 Y176.49 E107.84841
G1 X164.047 Y177.176 E107.87398
G1 X163.631 Y177.823 E107.89957
G1 X163.15 Y178.423 E107.92514
G1 X162.609 Y178.97 E107.95073
G1 X162.014 Y179.458 E107.97633
G1 X161.372 Y179.881 E108.0019
G1 X160.689 Y180.236 E108.0275
G1 X159.974 Y180.517 E108.05305
G1 X159.232 Y180.723 E108.07867
G1 X158.474 Y180.851 E108.10423
G1 X157.625 Y180.9 E108.13252
G1 X62.375 Y180.9 E111.30055
G1 X61.607 Y180.86 E111.32612
G1 X60.847 Y180.741 E111.35171
G1 X60.104 Y180.543 E111.37728
G1 X59.385 Y180.269 E111.40288
G1 X58.699 Y179.922 E111.42845
G1 X58.052 Y179.506 E111.45403
G1 X57.452 Y179.025 E111.47961
G1 X56.905 Y178.484 E111.50519
G1 X56.417 Y177.889 E111.53079
G1 X55.994 Y177.247 E111.55636
G1 X55.639 Y176.564 E111.58196
G1 X55.358 Y175.849 E111.60751
G1 X55.152 Y175.107 E111.63313
G1 X55.024 Y174.349 E111.65869
G1 X54.975 Y173.5 E111.68698
G1 X54.975 Y46.5 E115.91102
G1 X55.015 Y45.732 E115.9366
G1 X55.134 Y44.972 E115.96218
G1 X55.332 Y44.229 E115.98776
G1 X55.606 Y43.51 E116.01335
G1 X55.953 Y42.824 E116.03892
G1 X56.369 Y42.177 E116.0645
G0 F6000 X56.767 Y42.311
G1 F1200 X57.246 Y41.737 E116.08937
G1 X57.783 Y41.216 E116.11425
G1 X58.373 Y40.757 E116.13911
G1 X59.009 Y40.362 E116.16401
G1 X59.683 Y40.038 E116.18889
G1 X60.388 Y39.788 E116.21377
G1 X61.116 Y39.614 E116.23866
G1 X61.858 Y39.519 E116.26354
G1 X62.375 Y39.5 E116.28075
G1 X157.625 Y39.5 E119.44878
G1 X158.372 Y39.54 E119.47366
G1 X159.11 Y39.659 E119.49852
G1 X159.832 Y39.857 E119.52342
G1 X160.528 Y40.13 E119.54829
G1 X161.191 Y40.477 E119.57318
G1 X161.814 Y40.892 E119.59807
G1 X162.388 Y41.371 E119.62294
G1 X162.909 Y41.908 E119.64783
G1 X163.368 Y42.498 E119.67269
G1 X163.763 Y43.134 E119.69759
