;FLAVOR:Marlin
;TIME:12812
;Filament used: 9.21805m
;Layer height: 0.2
;MINX:90.699
;MINY:11.3
;MINZ:0.2
;MAXX:129.349
;MAXY:208.7
;MAXZ:6.4
;Generated with Cura_SteamEngine 4.11.0
M140 S50
M105
M190 S50
M104 S200
M105
M109 S200
M82 ;absolute extrusion mode
; Ender 3 Custom Start G-code
G92 E0 ; Reset Extruder
G28 ; Home all axes
G29 ; Auto bed-level (BL-Touch)
G1 Z2.0 F3000 ; Move Z Axis up little to prevent scratching of Heat Bed
G1 X0.1 Y20 Z0.3 F5000.0 ; Move to start position
G1 X0.1 Y200.0 Z0.3 F1500.0 E15 ; Draw the first line
G1 X0.4 Y200.0 Z0.3 F5000.0 ; Move to side a little
G1 X0.4 Y20 Z0.3 F1500.0 E30 ; Draw the second line
G92 E0 ; Reset Extruder
G1 Z2.0 F3000 ; Move Z Axis up little to prevent scratching of Heat Bed
G1 X5 Y20 Z0.3 F5000.0 ; Move over to prevent blob squish
G92 E0
G92 E0
G1 F2700 E-5
;LAYER_COUNT:32
;LAYER:0
M107
G0 F6000 X91.101 Y22.476 Z0.2
;TYPE:SKIRT
G1 F2700 E0
G1 F1200 X91.334 Y21.622 E0.02944
G1 X91.607 Y20.88 E0.05574
G1 X92.081 Y19.735 E0.09696
G1 X92.456 Y18.933 E0.1264
G1 X92.902 Y18.168 E0.15585
G1 X93.361 Y17.518 E0.18232
G1 X94.119 Y16.53 E0.22374
G1 X94.689 Y15.852 E0.2532
G1 X95.317 Y15.229 E0.28262
G1 X95.93 Y14.719 E0.30914
G1 X96.917 Y13.962 E0.35051
G1 X97.643 Y13.455 E0.37997
G1 X98.412 Y13.016 E0.40942
G1 X99.129 Y12.685 E0.43568
G1 X100.275 Y12.21 E0.47694
G1 X101.107 Y11.908 E0.50638
G1 X101.963 Y11.683 E0.53582
G1 X102.746 Y11.547 E0.56225
G1 X103.982 Y11.384 E0.60372
G1 X105.263 Y11.3 E0.64642
G1 X114.784 Y11.3 E0.96309
G1 X116.064 Y11.384 E1.00575
G1 X117.301 Y11.547 E1.04725
G1 X118.173 Y11.702 E1.07671
G1 X119.027 Y11.935 E1.10615
G1 X119.776 Y12.211 E1.1327
G1 X120.921 Y12.686 E1.17393
G1 X121.723 Y13.062 E1.20339
G1 X122.487 Y13.508 E1.23281
G1 X123.126 Y13.959 E1.25883
G1 X124.114 Y14.716 E1.30022
G1 X124.792 Y15.285 E1.32966
G1 X125.415 Y15.914 E1.35911
G1 X125.929 Y16.53 E1.38579
G1 X126.687 Y17.518 E1.42721
G1 X127.194 Y18.244 E1.45666
G1 X127.633 Y19.012 E1.48609
G1 X127.97 Y19.741 E1.5128
G1 X128.443 Y20.886 E1.554
G1 X128.743 Y21.719 E1.58345
G1 X128.968 Y22.575 E1.61289
G1 X129.1 Y23.337 E1.63861
G1 X129.264 Y24.571 E1.68001
G1 X129.349 Y25.862 E1.72305
G1 X129.349 Y194.135 E7.31983
G1 X129.264 Y195.423 E7.36276
G1 X129.1 Y196.66 E7.40426
G1 X128.944 Y197.531 E7.43369
G1 X128.71 Y198.385 E7.46314
G1 X128.443 Y199.114 E7.48897
G1 X127.97 Y200.259 E7.53017
G1 X127.595 Y201.061 E7.55962
G1 X127.15 Y201.826 E7.58905
G1 X126.687 Y202.482 E7.61576
G1 X125.929 Y203.47 E7.65718
G1 X125.359 Y204.148 E7.68664
G1 X124.731 Y204.771 E7.71606
G1 X124.114 Y205.284 E7.74275
G1 X123.126 Y206.041 E7.78415
G1 X122.4 Y206.547 E7.81358
G1 X121.631 Y206.986 E7.84303
G1 X120.921 Y207.314 E7.86904
G1 X119.776 Y207.789 E7.91027
G1 X118.944 Y208.091 E7.93971
G1 X118.088 Y208.317 E7.96916
G1 X117.301 Y208.453 E7.99572
G1 X116.064 Y208.616 E8.03722
G1 X114.784 Y208.7 E8.07988
G1 X105.263 Y208.7 E8.39655
G1 X103.982 Y208.616 E8.43925
G1 X102.746 Y208.453 E8.48072
G1 X101.874 Y208.298 E8.51018
G1 X101.02 Y208.064 E8.53963
G1 X100.275 Y207.79 E8.56603
G1 X99.129 Y207.315 E8.60729
G1 X98.327 Y206.94 E8.63673
G1 X97.563 Y206.493 E8.66618
G1 X96.917 Y206.038 E8.69246
G1 X95.93 Y205.281 E8.73383
G1 X95.253 Y204.711 E8.76326
G1 X94.629 Y204.083 E8.79271
G1 X94.119 Y203.47 E8.81923
G1 X93.361 Y202.482 E8.86065
G1 X92.854 Y201.756 E8.8901
G1 X92.415 Y200.988 E8.91952
G1 X92.081 Y200.265 E8.94601
G1 X91.607 Y199.12 E8.98723
G1 X91.306 Y198.288 E9.01666
G1 X91.081 Y197.432 E9.04609
G1 X90.946 Y196.655 E9.07232
G1 X90.783 Y195.421 E9.11372
G1 X90.699 Y194.138 E9.15649
G1 X90.699 Y25.865 E14.75327
G1 X90.783 Y24.585 E14.79594
G1 X90.946 Y23.348 E14.83743
G1 X91.101 Y22.476 E14.86689
G0 F6000 X91.495 Y22.547
G1 F1200 X91.726 Y21.711 E14.89574
G1 X91.977 Y21.033 E14.91978
G1 X92.451 Y19.888 E14.961
G1 X92.819 Y19.103 E14.98984
G1 X93.258 Y18.355 E15.01868
G1 X93.678 Y17.761 E15.04288
G1 X94.436 Y16.773 E15.0843
G1 X94.995 Y16.11 E15.11314
G1 X95.612 Y15.502 E15.14195
G1 X96.173 Y15.036 E15.16621
G1 X97.16 Y14.279 E15.20758
G1 X97.872 Y13.784 E15.23642
G1 X98.626 Y13.356 E15.26526
G1 X99.282 Y13.054 E15.28928
G1 X100.428 Y12.579 E15.33054
G1 X101.243 Y12.285 E15.35936
G1 X102.082 Y12.066 E15.3882
G1 X102.798 Y11.944 E15.41235
G1 X104.034 Y11.781 E15.45382
G1 X105.263 Y11.7 E15.49479
G1 X114.784 Y11.7 E15.81145
G1 X116.012 Y11.781 E15.85239
G1 X117.249 Y11.944 E15.89389
G1 X118.102 Y12.096 E15.9227
G1 X118.938 Y12.327 E15.95155
G1 X119.623 Y12.58 E15.97584
G1 X120.768 Y13.055 E16.01707
G1 X121.553 Y13.424 E16.04592
G1 X122.3 Y13.864 E16.07475
G1 X122.883 Y14.276 E16.0985
G1 X123.871 Y15.033 E16.13989
G1 X124.534 Y15.592 E16.16874
G1 X125.143 Y16.209 E16.19757
G1 X125.612 Y16.773 E16.22197
G1 X126.37 Y17.761 E16.26339
G1 X126.865 Y18.473 E16.29223
G1 X127.293 Y19.227 E16.32107
G1 X127.6 Y19.894 E16.34549
G1 X128.073 Y21.039 E16.38669
G1 X128.367 Y21.855 E16.41554
G1 X128.584 Y22.694 E16.44436
G1 X128.703 Y23.39 E16.46785
G1 X128.867 Y24.624 E16.50925
G1 X128.949 Y25.862 E16.55052
G1 X128.949 Y194.135 E22.1473
G1 X128.867 Y195.37 E22.18847
G1 X128.703 Y196.607 E22.22997
G1 X128.55 Y197.461 E22.25883
G1 X128.319 Y198.296 E22.28764
G1 X128.073 Y198.961 E22.31123
G1 X127.6 Y200.106 E22.35243
G1 X127.232 Y200.891 E22.38127
G1 X126.794 Y201.639 E22.4101
G1 X126.37 Y202.239 E22.43453
G1 X125.612 Y203.227 E22.47595
G1 X125.053 Y203.89 E22.50479
G1 X124.436 Y204.498 E22.5336
G1 X123.871 Y204.967 E22.55803
G1 X122.883 Y205.724 E22.59942
G1 X122.171 Y206.219 E22.62827
G1 X121.417 Y206.646 E22.65709
G1 X120.768 Y206.945 E22.68085
G1 X119.623 Y207.42 E22.72208
G1 X118.808 Y207.714 E22.7509
G1 X117.969 Y207.933 E22.77974
G1 X117.249 Y208.056 E22.80403
G1 X116.012 Y208.219 E22.84553
G1 X114.784 Y208.3 E22.88647
G1 X105.263 Y208.3 E23.20313
G1 X104.034 Y208.219 E23.2441
G1 X102.798 Y208.056 E23.28557
G1 X101.945 Y207.903 E23.31439
G1 X101.109 Y207.673 E23.34323
G1 X100.428 Y207.421 E23.36738
G1 X99.282 Y206.946 E23.40864
G1 X98.497 Y206.577 E23.43749
G1 X97.75 Y206.138 E23.46631
G1 X97.16 Y205.721 E23.49034
G1 X96.173 Y204.964 E23.53171
G1 X95.51 Y204.405 E23.56055
G1 X94.902 Y203.788 E23.58936
G1 X94.436 Y203.227 E23.61362
G1 X93.678 Y202.239 E23.65504
G1 X93.183 Y201.527 E23.68388
G1 X92.755 Y200.773 E23.71272
G1 X92.451 Y200.112 E23.73692
G1 X91.977 Y198.967 E23.77813
G1 X91.682 Y198.152 E23.80696
G1 X91.465 Y197.313 E23.83578
G1 X91.343 Y196.603 E23.85974
G1 X91.18 Y195.369 E23.90114
G1 X91.099 Y194.138 E23.94218
G1 X91.099 Y25.865 E29.53896
G1 X91.18 Y24.637 E29.57989
G1 X91.343 Y23.4 E29.62139
G1 X91.495 Y22.547 E29.65021
G0 F6000 X91.889 Y22.617
G1 F1200 X92.118 Y21.8 E29.67843
G1 X92.346 Y21.186 E29.70021
G1 X92.82 Y20.041 E29.74143
G1 X93.181 Y19.273 E29.76965
G1 X93.613 Y18.543 E29.79787
G1 X93.995 Y18.005 E29.81981
G1 X94.753 Y17.017 E29.86123
G1 X95.301 Y16.369 E29.88946
G1 X95.907 Y15.775 E29.91768
G1 X96.417 Y15.354 E29.93968
G1 X97.404 Y14.597 E29.98105
G1 X98.1 Y14.113 E30.00924
G1 X98.84 Y13.696 E30.0375
G1 X99.435 Y13.424 E30.05925
G1 X100.581 Y12.949 E30.10052
G1 X101.379 Y12.661 E30.12873
G1 X102.201 Y12.45 E30.15696
G1 X102.85 Y12.34 E30.17885
G1 X104.086 Y12.177 E30.22032
G1 X105.263 Y12.1 E30.25955
G1 X114.784 Y12.1 E30.57622
G1 X115.96 Y12.177 E30.61542
G1 X117.197 Y12.34 E30.65691
G1 X118.032 Y12.49 E30.68513
G1 X118.849 Y12.719 E30.71335
G1 X119.47 Y12.95 E30.73539
G1 X120.615 Y13.425 E30.77662
G1 X121.382 Y13.787 E30.80483
G1 X122.112 Y14.219 E30.83304
G1 X122.64 Y14.594 E30.85458
G1 X123.628 Y15.351 E30.89598
G1 X124.276 Y15.898 E30.92418
G1 X124.87 Y16.504 E30.95241
G1 X125.295 Y17.017 E30.97456
G1 X126.053 Y18.005 E31.01598
G1 X126.537 Y18.701 E31.04418
G1 X126.953 Y19.44 E31.07238
G1 X127.23 Y20.047 E31.09458
G1 X127.703 Y21.192 E31.13578
G1 X127.99 Y21.99 E31.16399
G1 X128.2 Y22.812 E31.1922
G1 X128.307 Y23.442 E31.21346
G1 X128.471 Y24.676 E31.25486
G1 X128.549 Y25.862 E31.29439
G1 X128.549 Y194.135 E36.89118
G1 X128.471 Y195.318 E36.93061
G1 X128.307 Y196.555 E36.97211
G1 X128.156 Y197.39 E37.00033
G1 X127.927 Y198.206 E37.02852
G1 X127.703 Y198.808 E37.04989
G1 X127.23 Y199.953 E37.09109
G1 X126.87 Y200.721 E37.1193
G1 X126.439 Y201.452 E37.14753
G1 X126.053 Y201.995 E37.16969
G1 X125.295 Y202.983 E37.2111
G1 X124.747 Y203.631 E37.23933
G1 X124.141 Y204.225 E37.26755
G1 X123.628 Y204.649 E37.28969
G1 X122.64 Y205.406 E37.33109
G1 X121.943 Y205.89 E37.35931
G1 X121.203 Y206.306 E37.38755
G1 X120.615 Y206.575 E37.40905
G1 X119.47 Y207.05 E37.45028
G1 X118.672 Y207.338 E37.4785
G1 X117.85 Y207.549 E37.50672
G1 X117.197 Y207.66 E37.52876
G1 X115.96 Y207.823 E37.57025
G1 X114.784 Y207.9 E37.60945
G1 X105.263 Y207.9 E37.92612
G1 X104.086 Y207.823 E37.96535
G1 X102.85 Y207.66 E38.00682
G1 X102.015 Y207.509 E38.03504
G1 X101.198 Y207.281 E38.06325
G1 X100.581 Y207.051 E38.08515
G1 X99.435 Y206.576 E38.12641
G1 X98.667 Y206.215 E38.15464
G1 X97.937 Y205.783 E38.18285
G1 X97.404 Y205.403 E38.20462
G1 X96.417 Y204.646 E38.24599
G1 X95.769 Y204.099 E38.2742
G1 X95.175 Y203.493 E38.30242
G1 X94.753 Y202.983 E38.32444
G1 X93.995 Y201.995 E38.36586
G1 X93.511 Y201.299 E38.39405
G1 X93.095 Y200.56 E38.42226
G1 X92.82 Y199.959 E38.44424
G1 X92.346 Y198.814 E38.48546
G1 X92.059 Y198.016 E38.51367
G1 X91.848 Y197.195 E38.54186
G1 X91.74 Y196.551 E38.56358
G1 X91.577 Y195.317 E38.60498
G1 X91.499 Y194.138 E38.64428
G1 X91.499 Y25.865 E44.24106
G1 X91.576 Y24.689 E44.28026
G1 X91.739 Y23.452 E44.32176
G1 X91.889 Y22.617 E44.34997
G0 F6000 X92.284 Y22.689
G1 F1200 X92.509 Y21.891 E44.37755
G1 X92.716 Y21.339 E44.39716
G1 X93.19 Y20.194 E44.43837
G1 X93.544 Y19.444 E44.46596
G1 X93.968 Y18.731 E44.49355
G1 X94.313 Y18.248 E44.51329
G1 X95.071 Y17.26 E44.55471
G1 X95.607 Y16.627 E44.5823
G1 X96.201 Y16.049 E44.60986
G1 X96.66 Y15.671 E44.62964
G1 X97.647 Y14.914 E44.67101
G1 X98.329 Y14.442 E44.6986
G1 X99.053 Y14.037 E44.72619
G1 X99.588 Y13.793 E44.74575
G1 X100.734 Y13.318 E44.78701
G1 X101.515 Y13.038 E44.8146
G1 X102.318 Y12.834 E44.84216
G1 X102.903 Y12.737 E44.86188
G1 X104.139 Y12.574 E44.90335
G1 X105.263 Y12.5 E44.94081
G1 X114.784 Y12.5 E45.25748
G1 X115.908 Y12.574 E45.29495
G1 X117.145 Y12.737 E45.33645
G1 X117.96 Y12.885 E45.364
G1 X118.758 Y13.11 E45.39157
G1 X119.316 Y13.319 E45.41139
G1 X120.461 Y13.794 E45.45262
G1 X121.211 Y14.149 E45.48022
G1 X121.923 Y14.574 E45.5078
G1 X122.396 Y14.911 E45.52711
G1 X123.384 Y15.668 E45.56851
G1 X124.018 Y16.204 E45.59612
G1 X124.596 Y16.798 E45.62369
G1 X124.977 Y17.26 E45.64361
G1 X125.735 Y18.248 E45.68503
G1 X126.208 Y18.93 E45.71263
G1 X126.612 Y19.653 E45.74018
G1 X126.86 Y20.199 E45.76012
G1 X127.333 Y21.344 E45.80133
G1 X127.613 Y22.125 E45.82892
G1 X127.816 Y22.929 E45.8565
G1 X127.91 Y23.495 E45.87559
G1 X128.074 Y24.729 E45.91699
G1 X128.149 Y25.862 E45.95476
G1 X128.149 Y194.135 E51.55154
G1 X128.074 Y195.265 E51.58921
G1 X127.91 Y196.502 E51.63071
G1 X127.762 Y197.318 E51.65829
G1 X127.536 Y198.116 E51.68588
G1 X127.333 Y198.656 E51.70507
G1 X126.86 Y199.801 E51.74627
G1 X126.507 Y200.551 E51.77384
G1 X126.084 Y201.264 E51.80141
G1 X125.735 Y201.752 E51.82137
G1 X124.977 Y202.74 E51.86279
G1 X124.441 Y203.373 E51.89037
G1 X123.847 Y203.951 E51.91794
G1 X123.384 Y204.332 E51.93788
G1 X122.396 Y205.089 E51.97928
G1 X121.715 Y205.561 E52.00684
G1 X120.991 Y205.965 E52.03441
G1 X120.461 Y206.206 E52.05378
G1 X119.316 Y206.681 E52.09501
G1 X118.536 Y206.961 E52.12257
G1 X117.732 Y207.165 E52.15016
G1 X117.145 Y207.263 E52.16996
G1 X115.908 Y207.426 E52.21145
G1 X114.784 Y207.5 E52.24892
G1 X105.263 Y207.5 E52.56559
G1 X104.139 Y207.426 E52.60305
G1 X102.903 Y207.263 E52.64452
G1 X102.087 Y207.115 E52.6721
G1 X101.289 Y206.889 E52.69969
G1 X100.734 Y206.682 E52.71939
G1 X99.588 Y206.207 E52.76065
G1 X98.838 Y205.853 E52.78823
G1 X98.126 Y205.428 E52.81581
G1 X97.647 Y205.086 E52.83539
G1 X96.66 Y204.329 E52.87676
G1 X96.027 Y203.793 E52.90435
G1 X95.449 Y203.199 E52.93191
G1 X95.071 Y202.74 E52.95169
G1 X94.313 Y201.752 E52.99311
G1 X93.84 Y201.07 E53.02071
G1 X93.436 Y200.347 E53.04826
G1 X93.19 Y199.806 E53.06803
G1 X92.716 Y198.661 E53.10924
G1 X92.436 Y197.881 E53.13681
G1 X92.233 Y197.077 E53.16439
G1 X92.136 Y196.498 E53.18392
G1 X91.973 Y195.264 E53.22531
G1 X91.899 Y194.138 E53.26285
G1 X91.899 Y25.865 E58.85963
G1 X91.973 Y24.741 E58.89709
G1 X92.136 Y23.504 E58.93859
G1 X92.284 Y22.689 E58.96614
G0 F6000 X92.678 Y22.76
G1 F1200 X92.901 Y21.982 E58.99306
G1 X93.086 Y21.492 E59.01048
G1 X93.56 Y20.347 E59.0517
G1 X93.906 Y19.615 E59.07863
G1 X94.323 Y18.92 E59.10559
G1 X94.63 Y18.492 E59.1231
G1 X95.388 Y17.504 E59.16452
G1 X95.912 Y16.886 E59.19147
G1 X96.494 Y16.324 E59.21838
G1 X96.904 Y15.988 E59.23601
G1 X97.891 Y15.231 E59.27738
G1 X98.557 Y14.771 E59.3043
G1 X99.265 Y14.378 E59.33124
G1 X99.741 Y14.163 E59.34861
G1 X100.887 Y13.688 E59.38987
G1 X101.65 Y13.415 E59.41682
G1 X102.435 Y13.219 E59.44373
G1 X102.955 Y13.133 E59.46126
G1 X104.191 Y12.97 E59.50273
G1 X105.263 Y12.9 E59.53846
G1 X114.784 Y12.9 E59.85513
G1 X115.855 Y12.97 E59.89083
G1 X117.092 Y13.133 E59.93233
G1 X117.889 Y13.279 E59.95927
G1 X118.667 Y13.502 E59.98619
G1 X119.163 Y13.689 E60.00382
G1 X120.308 Y14.164 E60.04505
G1 X121.04 Y14.511 E60.072
G1 X121.734 Y14.928 E60.09893
G1 X122.153 Y15.229 E60.11608
G1 X123.141 Y15.986 E60.15748
G1 X123.759 Y16.51 E60.18443
G1 X124.322 Y17.091 E60.21134
G1 X124.66 Y17.504 E60.22909
G1 X125.418 Y18.492 E60.27051
G1 X125.878 Y19.158 E60.29743
G1 X126.271 Y19.866 E60.32436
G1 X126.491 Y20.352 E60.34211
G1 X126.964 Y21.497 E60.38331
G1 X127.236 Y22.26 E60.41025
G1 X127.431 Y23.046 E60.43719
G1 X127.514 Y23.548 E60.45411
G1 X127.678 Y24.782 E60.49551
G1 X127.749 Y25.862 E60.53151
G1 X127.749 Y194.135 E66.1283
G1 X127.678 Y195.213 E66.16423
G1 X127.514 Y196.45 E66.20573
G1 X127.368 Y197.246 E66.23265
G1 X127.144 Y198.024 E66.25957
G1 X126.964 Y198.503 E66.27659
G1 X126.491 Y199.648 E66.3178
G1 X126.145 Y200.38 E66.34473
G1 X125.729 Y201.074 E66.37164
G1 X125.418 Y201.508 E66.3894
G1 X124.66 Y202.496 E66.43082
G1 X124.136 Y203.114 E66.45776
G1 X123.554 Y203.676 E66.48467
G1 X123.141 Y204.014 E66.50242
G1 X122.153 Y204.771 E66.54382
G1 X121.487 Y205.231 E66.57074
G1 X120.779 Y205.623 E66.59766
G1 X120.308 Y205.836 E66.61485
G1 X119.163 Y206.311 E66.65608
G1 X118.401 Y206.584 E66.683
G1 X117.615 Y206.781 E66.70996
G1 X117.092 Y206.867 E66.72758
G1 X115.855 Y207.03 E66.76908
G1 X114.784 Y207.1 E66.80478
G1 X105.263 Y207.1 E67.12145
G1 X104.191 Y207.03 E67.15718
G1 X102.955 Y206.867 E67.19865
G1 X102.158 Y206.721 E67.2256
G1 X101.38 Y206.498 E67.25251
G1 X100.887 Y206.312 E67.27004
G1 X99.741 Y205.837 E67.3113
G1 X99.009 Y205.491 E67.33823
G1 X98.315 Y205.073 E67.36517
G1 X97.891 Y204.769 E67.38253
G1 X96.904 Y204.012 E67.4239
G1 X96.286 Y203.488 E67.45085
G1 X95.724 Y202.906 E67.47776
G1 X95.388 Y202.496 E67.49539
G1 X94.63 Y201.508 E67.53681
G1 X94.17 Y200.842 E67.56373
G1 X93.777 Y200.134 E67.59066
G1 X93.56 Y199.653 E67.60821
G1 X93.086 Y198.508 E67.64943
G1 X92.813 Y197.746 E67.67635
G1 X92.617 Y196.96 E67.70329
G1 X92.533 Y196.446 E67.72062
G1 X92.37 Y195.212 E67.76201
G1 X92.299 Y194.138 E67.79781
G1 X92.299 Y25.865 E73.3946
G1 X92.369 Y24.794 E73.43029
G1 X92.532 Y23.557 E73.47179
G1 X92.678 Y22.76 E73.49874
G0 F6000 X93.072 Y22.832
G1 F1200 X93.292 Y22.074 E73.52499
G1 X93.455 Y21.645 E73.54026
G1 X93.929 Y20.5 E73.58147
G1 X94.268 Y19.786 E73.60776
G1 X94.677 Y19.111 E73.63401
G1 X94.947 Y18.735 E73.64941
G1 X95.705 Y17.747 E73.69083
G1 X96.217 Y17.146 E73.71709
G1 X96.787 Y16.599 E73.74336
G1 X97.147 Y16.306 E73.7588
G1 X98.134 Y15.549 E73.80017
G1 X98.784 Y15.101 E73.82643
G1 X99.476 Y14.72 E73.8527
G1 X99.894 Y14.532 E73.86795
G1 X101.04 Y14.057 E73.90921
G1 X101.784 Y13.792 E73.93548
G1 X102.551 Y13.604 E73.96174
G1 X103.007 Y13.53 E73.97711
G1 X104.243 Y13.367 E74.01857
G1 X105.263 Y13.3 E74.05257
G1 X114.784 Y13.3 E74.36924
G1 X115.803 Y13.367 E74.40321
G1 X117.04 Y13.53 E74.4447
G1 X117.817 Y13.673 E74.47098
G1 X118.575 Y13.893 E74.49723
G1 X119.01 Y14.058 E74.51271
