;FLAVOR:Marlin
;TIME:13594
;Filament used: 8.46278m
;Layer height: 0.2
;MINX:74.384
;MINY:45.417
;MINZ:0.2
;MAXX:158.309
;MAXY:173.713
;MAXZ:14.2
;Generated with Cura_SteamEngine 4.11.0
M140 S50
M105
M190 S50
M104 S200
M105
M109 S200
M82 ;absolute extrusion mode
; Ender 3 Custom Start G-code
G92 E0 ; Reset Extruder
G28 ; Home all axes
G29 ; Auto bed-level (BL-Touch)
G1 Z2.0 F3000 ; Move Z Axis up little to prevent scratching of Heat Bed
G1 X0.1 Y20 Z0.3 F5000.0 ; Move to start position
G1 X0.1 Y200.0 Z0.3 F1500.0 E15 ; Draw the first line
G1 X0.4 Y200.0 Z0.3 F5000.0 ; Move to side a little
G1 X0.4 Y20 Z0.3 F1500.0 E30 ; Draw the second line
G92 E0 ; Reset Extruder
G1 Z2.0 F3000 ; Move Z Axis up little to prevent scratching of Heat Bed
G1 X5 Y20 Z0.3 F5000.0 ; Move over to prevent blob squish
G92 E0
G92 E0
G1 F2700 E-5
;LAYER_COUNT:71
;LAYER:0
M107
G0 F6000 X75.789 Y50.16 Z0.2
;TYPE:SKIRT
G1 F2700 E0
G1 F1200 X76.28 Y49.424 E0.02943
G1 X76.835 Y48.734 E0.05888
G1 X77.45 Y48.097 E0.08833
G1 X78.12 Y47.519 E0.11776
G1 X78.839 Y47.003 E0.14719
G1 X79.602 Y46.554 E0.17664
G1 X80.403 Y46.176 E0.2061
G1 X81.234 Y45.872 E0.23553
G1 X82.089 Y45.644 E0.26496
G1 X82.962 Y45.494 E0.29442
G1 X84.184 Y45.417 E0.33515
G1 X106.409 Y45.417 E1.07435
G1 X107.293 Y45.457 E1.10379
G1 X108.17 Y45.577 E1.13323
G1 X109.033 Y45.775 E1.16268
G1 X109.874 Y46.05 E1.1921
G1 X110.687 Y46.4 E1.22154
G1 X111.466 Y46.822 E1.25101
G1 X112.202 Y47.313 E1.28044
G1 X112.892 Y47.868 E1.30989
G1 X113.529 Y48.483 E1.33934
G1 X114.107 Y49.153 E1.36877
G1 X114.623 Y49.872 E1.39821
G1 X115.072 Y50.635 E1.42765
G1 X115.45 Y51.436 E1.45711
G1 X115.754 Y52.267 E1.48654
G1 X115.982 Y53.122 E1.51597
G1 X116.132 Y53.995 E1.54543
G1 X116.209 Y55.217 E1.58616
G1 X116.21 Y86.287 E2.61955
G1 X116.484 Y86.412 E2.62957
G1 X116.484 Y75.013 E3.0087
G1 X116.524 Y74.129 E3.03813
G1 X116.644 Y73.252 E3.06757
G1 X116.842 Y72.389 E3.09702
G1 X117.117 Y71.548 E3.12645
G1 X117.467 Y70.735 E3.15589
G1 X117.889 Y69.956 E3.18536
G1 X118.38 Y69.22 E3.21478
G1 X118.935 Y68.53 E3.24424
G1 X119.55 Y67.893 E3.27369
G1 X120.22 Y67.315 E3.30312
G1 X120.939 Y66.799 E3.33255
G1 X121.702 Y66.35 E3.362
G1 X122.503 Y65.972 E3.39146
G1 X123.334 Y65.668 E3.42089
G1 X124.189 Y65.44 E3.45032
G1 X125.062 Y65.29 E3.47978
G1 X126.284 Y65.213 E3.5205
G1 X148.509 Y65.213 E4.25971
G1 X149.393 Y65.253 E4.28914
G1 X150.27 Y65.373 E4.31858
G1 X151.133 Y65.571 E4.34803
G1 X151.974 Y65.846 E4.37746
G1 X152.787 Y66.196 E4.4069
G1 X153.566 Y66.618 E4.43637
G1 X154.302 Y67.109 E4.4658
G1 X154.992 Y67.664 E4.49525
G1 X155.629 Y68.279 E4.5247
G1 X156.207 Y68.949 E4.55413
G1 X156.723 Y69.668 E4.58356
G1 X157.172 Y70.431 E4.61301
G1 X157.55 Y71.232 E4.64247
G1 X157.854 Y72.063 E4.6719
G1 X158.082 Y72.918 E4.70133
G1 X158.232 Y73.791 E4.73079
G1 X158.309 Y75.013 E4.77152
G1 X158.309 Y119.31 E6.24484
G1 X158.309 Y163.913 E7.72834
G1 X158.269 Y164.797 E7.75777
G1 X158.149 Y165.674 E7.78721
G1 X157.951 Y166.537 E7.81666
G1 X157.676 Y167.378 E7.84609
G1 X157.326 Y168.191 E7.87553
G1 X156.904 Y168.97 E7.905
G1 X156.413 Y169.706 E7.93443
G1 X155.858 Y170.396 E7.96388
G1 X155.243 Y171.033 E7.99333
G1 X154.573 Y171.611 E8.02276
G1 X153.854 Y172.127 E8.05219
G1 X153.091 Y172.576 E8.08164
G1 X152.29 Y172.954 E8.1111
G1 X151.459 Y173.258 E8.14053
G1 X150.604 Y173.486 E8.16996
G1 X149.731 Y173.636 E8.19942
G1 X148.509 Y173.713 E8.24015
G1 X126.284 Y173.713 E8.97935
G1 X125.4 Y173.673 E9.00879
G1 X124.523 Y173.553 E9.03823
G1 X123.66 Y173.355 E9.06768
G1 X122.819 Y173.08 E9.0971
G1 X122.006 Y172.73 E9.12654
G1 X121.227 Y172.308 E9.15601
G1 X120.491 Y171.817 E9.18544
G1 X119.801 Y171.262 E9.21489
G1 X119.164 Y170.647 E9.24434
G1 X118.586 Y169.977 E9.27377
G1 X118.07 Y169.258 E9.30321
G1 X117.621 Y168.495 E9.33265
G1 X117.243 Y167.694 E9.36211
G1 X116.939 Y166.863 E9.39154
G1 X116.711 Y166.008 E9.42097
G1 X116.561 Y165.135 E9.45043
G1 X116.484 Y163.913 E9.49116
G1 X116.483 Y132.843 E10.52455
G1 X116.209 Y132.718 E10.53457
G1 X116.209 Y144.117 E10.9137
G1 X116.169 Y145.001 E10.94313
G1 X116.049 Y145.878 E10.97257
G1 X115.851 Y146.741 E11.00202
G1 X115.576 Y147.582 E11.03145
G1 X115.226 Y148.395 E11.06089
G1 X114.804 Y149.174 E11.09036
G1 X114.313 Y149.91 E11.11978
G1 X113.758 Y150.6 E11.14924
G1 X113.143 Y151.237 E11.17869
G1 X112.473 Y151.815 E11.20812
G1 X111.754 Y152.331 E11.23755
G1 X110.991 Y152.78 E11.267
G1 X110.19 Y153.158 E11.29646
G1 X109.359 Y153.462 E11.32589
G1 X108.504 Y153.69 E11.35532
G1 X107.631 Y153.84 E11.38478
G1 X106.409 Y153.917 E11.4255
G1 X84.184 Y153.917 E12.16471
G1 X83.3 Y153.877 E12.19414
G1 X82.423 Y153.757 E12.22358
G1 X81.56 Y153.559 E12.25303
G1 X80.719 Y153.284 E12.28246
G1 X79.906 Y152.934 E12.3119
G1 X79.127 Y152.512 E12.34137
G1 X78.391 Y152.021 E12.3708
G1 X77.701 Y151.466 E12.40025
G1 X77.064 Y150.851 E12.4297
G1 X76.486 Y150.181 E12.45913
G1 X75.97 Y149.462 E12.48856
G1 X75.521 Y148.699 E12.51801
G1 X75.143 Y147.898 E12.54747
G1 X74.839 Y147.067 E12.5769
G1 X74.611 Y146.212 E12.60633
G1 X74.461 Y145.339 E12.63579
G1 X74.384 Y144.117 E12.67652
G1 X74.384 Y99.82 E14.14984
G1 X74.384 Y55.217 E15.63334
G1 X74.424 Y54.333 E15.66277
G1 X74.544 Y53.456 E15.69221
G1 X74.742 Y52.593 E15.72166
G1 X75.017 Y51.752 E15.75109
G1 X75.367 Y50.939 E15.78053
G1 X75.789 Y50.16 E15.81
G0 F6000 X76.188 Y50.275
G1 F1200 X76.677 Y49.56 E15.83881
G1 X77.23 Y48.892 E15.86765
G1 X77.843 Y48.278 E15.89651
G1 X78.509 Y47.723 E15.92535
G1 X79.223 Y47.233 E15.95415
G1 X79.98 Y46.809 E15.98301
G1 X80.773 Y46.458 E16.01185
G1 X81.594 Y46.181 E16.04067
G1 X82.438 Y45.981 E16.06952
G1 X83.296 Y45.859 E16.09834
G1 X84.184 Y45.817 E16.12791
G1 X106.409 Y45.817 E16.86712
G1 X107.275 Y45.857 E16.89595
G1 X108.134 Y45.977 E16.9248
G1 X108.978 Y46.175 E16.95363
G1 X109.8 Y46.45 E16.98246
G1 X110.593 Y46.8 E17.01129
G1 X111.351 Y47.221 E17.04013
G1 X112.066 Y47.71 E17.06894
G1 X112.734 Y48.263 E17.09778
G1 X113.348 Y48.876 E17.12664
G1 X113.903 Y49.542 E17.15548
G1 X114.393 Y50.256 E17.18428
G1 X114.817 Y51.013 E17.21314
G1 X115.168 Y51.806 E17.24198
G1 X115.445 Y52.627 E17.2708
G1 X115.645 Y53.471 E17.29965
G1 X115.767 Y54.329 E17.32847
G1 X115.809 Y55.217 E17.35804
G1 X115.81 Y86.545 E18.40001
G1 X115.894 Y86.581 E18.40305
G1 X116.884 Y87.034 E18.43926
G1 X116.884 Y75.013 E18.83908
G1 X116.924 Y74.147 E18.86792
G1 X117.044 Y73.288 E18.89677
G1 X117.242 Y72.444 E18.9256
G1 X117.517 Y71.622 E18.95443
G1 X117.867 Y70.829 E18.98326
G1 X118.288 Y70.071 E19.0121
G1 X118.777 Y69.356 E19.04091
G1 X119.33 Y68.688 E19.06975
G1 X119.943 Y68.074 E19.09861
G1 X120.609 Y67.519 E19.12744
G1 X121.323 Y67.029 E19.15624
G1 X122.08 Y66.605 E19.1851
G1 X122.873 Y66.254 E19.21395
G1 X123.694 Y65.977 E19.24277
G1 X124.538 Y65.777 E19.27161
G1 X125.396 Y65.655 E19.30044
G1 X126.284 Y65.613 E19.33001
G1 X148.509 Y65.613 E20.06921
G1 X149.375 Y65.653 E20.09805
G1 X150.234 Y65.773 E20.1269
G1 X151.078 Y65.971 E20.15573
G1 X151.9 Y66.246 E20.18456
G1 X152.693 Y66.596 E20.21339
G1 X153.451 Y67.017 E20.24223
G1 X154.166 Y67.506 E20.27104
G1 X154.834 Y68.059 E20.29988
G1 X155.448 Y68.672 E20.32874
G1 X156.003 Y69.338 E20.35757
G1 X156.493 Y70.052 E20.38637
G1 X156.917 Y70.809 E20.41523
G1 X157.268 Y71.602 E20.44408
G1 X157.545 Y72.423 E20.4729
G1 X157.745 Y73.267 E20.50174
G1 X157.867 Y74.125 E20.53057
G1 X157.909 Y75.013 E20.56014
G1 X157.909 Y119.31 E22.03346
G1 X157.909 Y163.913 E23.51696
G1 X157.869 Y164.779 E23.5458
G1 X157.749 Y165.638 E23.57464
G1 X157.551 Y166.482 E23.60348
G1 X157.276 Y167.304 E23.63231
G1 X156.926 Y168.097 E23.66114
G1 X156.505 Y168.855 E23.68998
G1 X156.016 Y169.57 E23.71879
G1 X155.463 Y170.238 E23.74763
G1 X154.85 Y170.852 E23.77649
G1 X154.184 Y171.407 E23.80532
G1 X153.47 Y171.897 E23.83412
G1 X152.713 Y172.321 E23.86298
G1 X151.92 Y172.672 E23.89183
G1 X151.099 Y172.949 E23.92064
G1 X150.255 Y173.149 E23.94949
G1 X149.397 Y173.271 E23.97832
G1 X148.509 Y173.313 E24.00789
G1 X126.284 Y173.313 E24.74709
G1 X125.418 Y173.273 E24.77593
G1 X124.559 Y173.153 E24.80477
G1 X123.715 Y172.955 E24.83361
G1 X122.893 Y172.68 E24.86244
G1 X122.1 Y172.33 E24.89127
G1 X121.342 Y171.909 E24.92011
G1 X120.627 Y171.42 E24.94892
G1 X119.959 Y170.867 E24.97776
G1 X119.345 Y170.254 E25.00662
G1 X118.79 Y169.588 E25.03545
G1 X118.3 Y168.874 E25.06425
G1 X117.876 Y168.117 E25.09311
G1 X117.525 Y167.324 E25.12196
G1 X117.248 Y166.503 E25.15077
G1 X117.048 Y165.659 E25.17962
G1 X116.926 Y164.801 E25.20845
G1 X116.884 Y163.913 E25.23802
G1 X116.883 Y132.583 E26.28006
G1 X116.802 Y132.549 E26.28298
G1 X115.809 Y132.095 E26.31929
G1 X115.809 Y144.117 E26.71915
G1 X115.769 Y144.983 E26.74798
G1 X115.649 Y145.842 E26.77683
G1 X115.451 Y146.686 E26.80566
G1 X115.176 Y147.508 E26.83449
G1 X114.826 Y148.301 E26.86332
G1 X114.405 Y149.059 E26.89216
G1 X113.916 Y149.774 E26.92097
G1 X113.363 Y150.442 E26.94981
G1 X112.75 Y151.056 E26.97867
G1 X112.084 Y151.611 E27.00751
G1 X111.37 Y152.101 E27.03631
G1 X110.613 Y152.525 E27.06517
G1 X109.82 Y152.876 E27.09401
G1 X108.999 Y153.153 E27.12283
G1 X108.155 Y153.353 E27.15168
G1 X107.297 Y153.475 E27.1805
G1 X106.409 Y153.517 E27.21007
G1 X84.184 Y153.517 E27.94928
G1 X83.318 Y153.477 E27.97811
G1 X82.459 Y153.357 E28.00696
G1 X81.615 Y153.159 E28.03579
G1 X80.793 Y152.884 E28.06462
G1 X80 Y152.534 E28.09345
G1 X79.242 Y152.113 E28.12229
G1 X78.527 Y151.624 E28.1511
G1 X77.859 Y151.071 E28.17994
G1 X77.245 Y150.458 E28.2088
G1 X76.69 Y149.792 E28.23763
G1 X76.2 Y149.078 E28.26644
G1 X75.776 Y148.321 E28.2953
G1 X75.425 Y147.528 E28.32414
G1 X75.148 Y146.707 E28.35296
G1 X74.948 Y145.863 E28.38181
G1 X74.826 Y145.005 E28.41063
G1 X74.784 Y144.117 E28.4402
G1 X74.784 Y99.82 E29.91352
G1 X74.784 Y55.217 E31.39702
G1 X74.824 Y54.351 E31.42586
G1 X74.944 Y53.492 E31.45471
G1 X75.142 Y52.648 E31.48354
G1 X75.417 Y51.826 E31.51237
G1 X75.767 Y51.033 E31.5412
G1 X76.188 Y50.275 E31.57004
G0 F6000 X76.586 Y50.393
G1 F1200 X77.074 Y49.699 E31.59826
G1 X77.625 Y49.054 E31.62647
G1 X78.235 Y48.464 E31.6547
G1 X78.897 Y47.934 E31.6829
G1 X79.606 Y47.468 E31.71112
G1 X80.356 Y47.072 E31.73933
G1 X81.14 Y46.747 E31.76756
G1 X81.951 Y46.498 E31.79577
G1 X82.782 Y46.327 E31.82399
G1 X83.625 Y46.234 E31.8522
G1 X84.184 Y46.217 E31.8708
G1 X106.409 Y46.217 E32.61001
G1 X107.256 Y46.257 E32.63821
G1 X108.096 Y46.377 E32.66643
G1 X108.921 Y46.575 E32.69465
G1 X109.724 Y46.85 E32.72288
G1 X110.497 Y47.199 E32.75109
G1 X111.233 Y47.619 E32.77928
G1 X111.927 Y48.107 E32.80749
G1 X112.572 Y48.658 E32.83571
G1 X113.162 Y49.268 E32.86394
G1 X113.692 Y49.93 E32.89214
G1 X114.158 Y50.639 E32.92036
G1 X114.554 Y51.389 E32.94857
G1 X114.879 Y52.173 E32.9768
G1 X115.128 Y52.984 E33.00501
G1 X115.299 Y53.815 E33.03323
G1 X115.392 Y54.658 E33.06144
G1 X115.409 Y55.217 E33.08004
G1 X115.41 Y86.81 E34.13083
G1 X115.728 Y86.945 E34.14232
G1 X116.769 Y87.421 E34.18039
G1 X117.284 Y87.687 E34.19967
G1 X117.284 Y75.013 E34.62121
G1 X117.324 Y74.166 E34.64941
G1 X117.444 Y73.326 E34.67763
G1 X117.642 Y72.501 E34.70585
G1 X117.917 Y71.698 E34.73408
G1 X118.266 Y70.925 E34.76229
G1 X118.686 Y70.189 E34.79048
G1 X119.174 Y69.495 E34.81869
G1 X119.725 Y68.85 E34.84691
G1 X120.335 Y68.26 E34.87514
G1 X120.997 Y67.73 E34.90334
G1 X121.706 Y67.264 E34.93156
G1 X122.456 Y66.868 E34.95977
G1 X123.24 Y66.543 E34.988
G1 X124.051 Y66.294 E35.01621
G1 X124.882 Y66.123 E35.04443
G1 X125.725 Y66.03 E35.07264
G1 X126.284 Y66.013 E35.09124
G1 X148.509 Y66.013 E35.83045
G1 X149.356 Y66.053 E35.85865
G1 X150.196 Y66.173 E35.88687
G1 X151.021 Y66.371 E35.91509
G1 X151.824 Y66.646 E35.94332
G1 X152.597 Y66.995 E35.97153
G1 X153.333 Y67.415 E35.99971
G1 X154.027 Y67.903 E36.02793
G1 X154.672 Y68.454 E36.05615
G1 X155.262 Y69.064 E36.08437
G1 X155.792 Y69.726 E36.11258
G1 X156.258 Y70.435 E36.1408
G1 X156.654 Y71.185 E36.16901
G1 X156.979 Y71.969 E36.19723
G1 X157.228 Y72.78 E36.22545
G1 X157.399 Y73.611 E36.25367
G1 X157.492 Y74.454 E36.28188
G1 X157.509 Y75.013 E36.30048
G1 X157.509 Y119.31 E37.7738
G1 X157.509 Y163.913 E39.2573
G1 X157.469 Y164.76 E39.28551
G1 X157.349 Y165.6 E39.31373
G1 X157.151 Y166.425 E39.34195
G1 X156.876 Y167.228 E39.37018
G1 X156.527 Y168.001 E39.39839
G1 X156.107 Y168.737 E39.42657
G1 X155.619 Y169.431 E39.45479
G1 X155.068 Y170.076 E39.48301
G1 X154.458 Y170.666 E39.51123
G1 X153.796 Y171.196 E39.53944
G1 X153.087 Y171.662 E39.56766
G1 X152.337 Y172.058 E39.59586
G1 X151.553 Y172.383 E39.62409
G1 X150.742 Y172.632 E39.65231
G1 X149.911 Y172.803 E39.68053
G1 X149.068 Y172.896 E39.70874
G1 X148.509 Y172.913 E39.72734
G1 X126.284 Y172.913 E40.46654
G1 X125.437 Y172.873 E40.49475
G1 X124.597 Y172.753 E40.52297
G1 X123.772 Y172.555 E40.55119
G1 X122.969 Y172.28 E40.57942
G1 X122.196 Y171.931 E40.60763
G1 X121.46 Y171.511 E40.63581
G1 X120.766 Y171.023 E40.66403
G1 X120.121 Y170.472 E40.69224
G1 X119.531 Y169.862 E40.72047
G1 X119.001 Y169.2 E40.74868
G1 X118.535 Y168.491 E40.77689
G1 X118.139 Y167.741 E40.8051
G1 X117.814 Y166.957 E40.83333
G1 X117.565 Y166.146 E40.86155
G1 X117.394 Y165.315 E40.88977
G1 X117.301 Y164.472 E40.91797
G1 X117.284 Y163.913 E40.93658
G1 X117.283 Y132.32 E41.98736
G1 X116.968 Y132.185 E41.99876
G1 X115.926 Y131.709 E42.03686
G1 X115.409 Y131.443 E42.0562
G1 X115.409 Y144.117 E42.47774
G1 X115.369 Y144.964 E42.50594
G1 X115.249 Y145.804 E42.53417
G1 X115.051 Y146.629 E42.56238
G1 X114.776 Y147.432 E42.59061
G1 X114.427 Y148.205 E42.61882
G1 X114.007 Y148.941 E42.64701
G1 X113.519 Y149.635 E42.67523
G1 X112.968 Y150.28 E42.70344
G1 X112.358 Y150.87 E42.73167
G1 X111.696 Y151.4 E42.75987
G1 X110.987 Y151.866 E42.78809
G1 X110.237 Y152.262 E42.8163
G1 X109.453 Y152.587 E42.84453
G1 X108.642 Y152.836 E42.87274
G1 X107.811 Y153.007 E42.90096
G1 X106.968 Y153.1 E42.92917
G1 X106.409 Y153.117 E42.94777
G1 X84.184 Y153.117 E43.68698
G1 X83.337 Y153.077 E43.71518
G1 X82.497 Y152.957 E43.7434
G1 X81.672 Y152.759 E43.77162
G1 X80.869 Y152.484 E43.79985
G1 X80.096 Y152.135 E43.82806
G1 X79.36 Y151.715 E43.85625
G1 X78.666 Y151.227 E43.88447
G1 X78.021 Y150.676 E43.91268
G1 X77.431 Y150.066 E43.94091
G1 X76.901 Y149.404 E43.96911
G1 X76.435 Y148.695 E43.99733
G1 X76.039 Y147.945 E44.02554
G1 X75.714 Y147.161 E44.05377
G1 X75.465 Y146.35 E44.08198
G1 X75.294 Y145.519 E44.1102
G1 X75.201 Y144.676 E44.13841
G1 X75.184 Y144.117 E44.15701
G1 X75.184 Y99.82 E45.63034
G1 X75.184 Y55.217 E47.11384
G1 X75.224 Y54.37 E47.14204
G1 X75.344 Y53.53 E47.17026
G1 X75.542 Y52.705 E47.19848
G1 X75.817 Y51.902 E47.22671
G1 X76.166 Y51.129 E47.25492
G1 X76.586 Y50.393 E47.28311
G0 F6000 X76.985 Y50.513
G1 F1200 X77.471 Y49.842 E47.31066
G1 X78.02 Y49.22 E47.33826
G1 X78.626 Y48.654 E47.36584
G1 X79.284 Y48.149 E47.39342
G1 X79.987 Y47.71 E47.42099
G1 X80.73 Y47.341 E47.44858
G1 X81.505 Y47.045 E47.47617
G1 X82.304 Y46.825 E47.50374
G1 X83.121 Y46.683 E47.53132
G1 X84.184 Y46.617 E47.56674
G1 X106.409 Y46.617 E48.30595
G1 X107.237 Y46.657 E48.33352
G1 X108.058 Y46.777 E48.36112
G1 X108.863 Y46.975 E48.38869
G1 X109.645 Y47.249 E48.41625
G1 X110.398 Y47.598 E48.44385
G1 X111.113 Y48.018 E48.47143
G1 X111.784 Y48.504 E48.49899
G1 X112.406 Y49.053 E48.52658
G1 X112.972 Y49.659 E48.55416
G1 X113.477 Y50.317 E48.58175
G1 X113.916 Y51.02 E48.60932
G1 X114.285 Y51.763 E48.63691
G1 X114.581 Y52.538 E48.6645
G1 X114.801 Y53.337 E48.69207
G1 X114.943 Y54.154 E48.71965
G1 X115.009 Y55.217 E48.75507
G1 X115.01 Y87.104 E49.81564
G1 X115.561 Y87.309 E49.83519
G1 X116.602 Y87.785 E49.87326
G1 X117.339 Y88.166 E49.90086
G1 X117.684 Y88.389 E49.91452
G1 X117.684 Y75.013 E50.35941
G1 X117.724 Y74.185 E50.38698
G1 X117.844 Y73.364 E50.41458
G1 X118.042 Y72.559 E50.44215
G1 X118.316 Y71.777 E50.46971
G1 X118.665 Y71.024 E50.49731
G1 X119.085 Y70.309 E50.52489
G1 X119.571 Y69.638 E50.55245
G1 X120.12 Y69.016 E50.58004
G1 X120.726 Y68.45 E50.60762
G1 X121.384 Y67.945 E50.63521
G1 X122.087 Y67.506 E50.66278
G1 X122.83 Y67.137 E50.69037
G1 X123.605 Y66.841 E50.71796
G1 X124.404 Y66.621 E50.74552
G1 X125.221 Y66.479 E50.77311
G1 X126.284 Y66.413 E50.80853
