;FLAVOR:Marlin
;TIME:47737
;Filament used: 34.7857m
;Layer height: 0.2
;MINX:22.8
;MINY:64.393
;MINZ:0.2
;MAXX:197.2
;MAXY:155.607
;MAXZ:19
;Generated with Cura_SteamEngine 4.11.0
M140 S50
M105
M190 S50
M104 S200
M105
M109 S200
M82 ;absolute extrusion mode
; Ender 3 Custom Start G-code
G92 E0 ; Reset Extruder
G28 ; Home all axes
G29 ; Auto bed-level (BL-Touch)
G1 Z2.0 F3000 ; Move Z Axis up little to prevent scratching of Heat Bed
G1 X0.1 Y20 Z0.3 F5000.0 ; Move to start position
G1 X0.1 Y200.0 Z0.3 F1500.0 E15 ; Draw the first line
G1 X0.4 Y200.0 Z0.3 F5000.0 ; Move to side a little
G1 X0.4 Y20 Z0.3 F1500.0 E30 ; Draw the second line
G92 E0 ; Reset Extruder
G1 Z2.0 F3000 ; Move Z Axis up little to prevent scratching of Heat Bed
G1 X5 Y20 Z0.3 F5000.0 ; Move over to prevent blob squish
G92 E0
G92 E0
G1 F2700 E-5
;LAYER_COUNT:95
;LAYER:0
M107
G0 F6000 X32.141 Y66.379 Z0.2
;TYPE:SKIRT
G1 F2700 E0
G1 F1200 X32.751 Y66.082 E0.02257
G1 X33.066 Y65.934 E0.03414
G1 X33.472 Y65.752 E0.04894
G1 X34.344 Y65.406 E0.08014
G1 X34.967 Y65.208 E0.10188
G1 X35.548 Y65.043 E0.12197
G1 X35.837 Y64.966 E0.13192
G1 X36.304 Y64.847 E0.14795
G1 X37.222 Y64.654 E0.17915
G1 X37.887 Y64.565 E0.20146
G1 X38.563 Y64.495 E0.22407
G1 X38.903 Y64.465 E0.23542
G1 X39.332 Y64.434 E0.24973
G1 X39.951 Y64.406 E0.27034
G1 X40.708 Y64.394 E0.29552
G1 X64.849 Y64.393 E1.09845
G1 X65.666 Y64.403 E1.12563
G1 X66.313 Y64.431 E1.14717
G1 X66.962 Y64.478 E1.16881
G1 X67.301 Y64.508 E1.18013
G1 X67.764 Y64.556 E1.19561
G1 X68.692 Y64.692 E1.2268
G1 X69.31 Y64.828 E1.24785
G1 X69.939 Y64.986 E1.26942
G1 X70.237 Y65.066 E1.27968
G1 X70.678 Y65.19 E1.29492
G1 X71.569 Y65.482 E1.32611
G1 X72.198 Y65.741 E1.34873
G1 X72.785 Y66.004 E1.37012
G1 X73.082 Y66.142 E1.38102
G1 X73.497 Y66.343 E1.39635
G1 X74.323 Y66.787 E1.42754
G1 X74.863 Y67.13 E1.44882
G1 X75.394 Y67.489 E1.47014
G1 X75.686 Y67.693 E1.48199
G1 X76.056 Y67.961 E1.49718
G1 X76.791 Y68.543 E1.52836
G1 X77.267 Y68.98 E1.54986
G1 X77.756 Y69.455 E1.57253
G1 X77.984 Y69.682 E1.58323
G1 X78.286 Y69.993 E1.59765
G1 X78.91 Y70.693 E1.62884
G1 X79.298 Y71.196 E1.64997
G1 X79.409 Y71.349 E1.65626
G1 X80.929 Y73.39 E1.7409
G1 X82.464 Y75.334 E1.82328
G1 X84.106 Y77.296 E1.90837
G1 X85.767 Y79.169 E1.99164
G1 X87.491 Y81.008 E2.07548
G1 X89.261 Y82.792 E2.15906
G1 X91.064 Y84.508 E2.24185
G1 X92.974 Y86.226 E2.32729
G1 X94.864 Y87.832 E2.40979
G1 X96.86 Y89.433 E2.49489
G1 X98.837 Y90.928 E2.57733
G1 X100.89 Y92.392 E2.6612
G1 X103.001 Y93.809 E2.74576
G1 X105.09 Y95.127 E2.82791
G1 X107.303 Y96.437 E2.91345
G1 X109.475 Y97.641 E2.99604
G1 X111.723 Y98.806 E3.08026
G1 X113.964 Y99.888 E3.16303
G1 X116.306 Y100.938 E3.24839
G1 X118.62 Y101.898 E3.33172
G1 X120.955 Y102.788 E3.41483
G1 X123.356 Y103.628 E3.49943
G1 X125.736 Y104.387 E3.58252
G1 X128.13 Y105.074 E3.66536
G1 X130.601 Y105.71 E3.75022
G1 X133.056 Y106.269 E3.83397
G1 X135.515 Y106.753 E3.91732
G1 X138.019 Y107.174 E4.00177
G1 X140.491 Y107.519 E4.08479
G1 X142.976 Y107.794 E4.16795
G1 X145.51 Y108.003 E4.25251
G1 X147.977 Y108.136 E4.33469
G1 X151.651 Y108.208 E4.45691
G1 X185.651 Y108.209 E5.58775
G1 X186.349 Y108.219 E5.61097
G1 X187.285 Y108.273 E5.64215
G1 X188.213 Y108.405 E5.67333
G1 X189.127 Y108.617 E5.70454
G1 X190.019 Y108.906 E5.73572
G1 X190.884 Y109.269 E5.76692
G1 X191.714 Y109.705 E5.79811
G1 X192.505 Y110.21 E5.82932
G1 X193.249 Y110.781 E5.86051
G1 X193.942 Y111.413 E5.89171
G1 X194.579 Y112.101 E5.92289
G1 X195.154 Y112.842 E5.95409
G1 X195.665 Y113.628 E5.98527
G1 X196.107 Y114.456 E6.01649
G1 X196.476 Y115.318 E6.04767
G1 X196.771 Y116.208 E6.07886
G1 X196.989 Y117.12 E6.11005
G1 X197.129 Y118.048 E6.14126
G1 X197.187 Y118.909 E6.16996
G1 X197.196 Y119.229 E6.18061
G1 X197.2 Y119.538 E6.19089
G1 X197.199 Y144.007 E7.00473
G1 X197.19 Y144.734 E7.02891
G1 X197.139 Y145.671 E7.06012
G1 X197.007 Y146.599 E7.0913
G1 X196.798 Y147.513 E7.12248
G1 X196.511 Y148.406 E7.15368
G1 X196.149 Y149.272 E7.1849
G1 X195.715 Y150.103 E7.21608
G1 X195.211 Y150.894 E7.24728
G1 X194.642 Y151.639 E7.27846
G1 X194.011 Y152.334 E7.30968
G1 X193.324 Y152.972 E7.34086
G1 X192.585 Y153.549 E7.37205
G1 X191.799 Y154.061 E7.40325
G1 X190.973 Y154.504 E7.43442
G1 X190.111 Y154.876 E7.46565
G1 X189.222 Y155.172 E7.49681
G1 X188.31 Y155.392 E7.52801
G1 X187.383 Y155.533 E7.5592
G1 X186.499 Y155.594 E7.58867
G1 X186.178 Y155.603 E7.59935
G1 X185.87 Y155.607 E7.6096
G1 X171.255 Y155.606 E8.09569
G1 X170.558 Y155.596 E8.11888
G1 X169.667 Y155.547 E8.14856
G1 X169.314 Y155.513 E8.16035
G1 X166.7 Y155.292 E8.24761
G1 X164.178 Y155.15 E8.33162
G1 X161.658 Y155.079 E8.41547
G1 X159.134 Y155.081 E8.49942
G1 X156.645 Y155.152 E8.58224
G1 X154.154 Y155.294 E8.66522
G1 X152.529 Y155.443 E8.7195
G1 X152.203 Y155.459 E8.73035
G1 X151.066 Y155.557 E8.76831
G1 X150.431 Y155.594 E8.78947
G1 X150.112 Y155.603 E8.80008
G1 X149.802 Y155.607 E8.81039
G1 X96.198 Y155.606 E10.59327
G1 X95.501 Y155.596 E10.61645
G1 X94.597 Y155.546 E10.64657
G1 X94.061 Y155.494 E10.66448
G1 X91.555 Y155.281 E10.74813
G1 X89.015 Y155.138 E10.83274
G1 X86.483 Y155.066 E10.91699
G1 X83.995 Y155.066 E10.99974
G1 X81.447 Y155.138 E11.08452
G1 X78.947 Y155.281 E11.16781
G1 X76.439 Y155.494 E11.25152
G1 X76.098 Y155.528 E11.26292
G1 X75.747 Y155.558 E11.27464
G1 X75.12 Y155.594 E11.29553
G1 X74.801 Y155.603 E11.30614
G1 X74.491 Y155.607 E11.31645
G1 X59.877 Y155.606 E11.80252
G1 X59.175 Y155.596 E11.82587
G1 X58.239 Y155.543 E11.85705
G1 X57.311 Y155.41 E11.88823
G1 X56.397 Y155.198 E11.91944
G1 X55.504 Y154.91 E11.95065
G1 X54.64 Y154.546 E11.98183
G1 X53.809 Y154.11 E12.01304
G1 X53.019 Y153.605 E12.04423
G1 X52.275 Y153.035 E12.0754
G1 X51.582 Y152.403 E12.10659
G1 X50.945 Y151.714 E12.1378
G1 X50.576 Y151.255 E12.15739
G1 X50.402 Y151.024 E12.16701
G1 X48.995 Y149.125 E12.24562
G1 X47.439 Y147.144 E12.3294
G1 X45.824 Y145.204 E12.41336
G1 X44.156 Y143.313 E12.49722
G1 X42.436 Y141.47 E12.58107
G1 X40.686 Y139.695 E12.66398
G1 X38.85 Y137.939 E12.74847
G1 X36.982 Y136.249 E12.83226
G1 X35.063 Y134.611 E12.91617
G1 X33.129 Y133.051 E12.99882
G1 X30.345 Y130.955 E13.11472
G1 X29.648 Y130.451 E13.14333
G1 X28.912 Y129.869 E13.17454
G1 X28.436 Y129.433 E13.19601
G1 X27.924 Y128.936 E13.21974
G1 X27.672 Y128.683 E13.23162
G1 X27.393 Y128.394 E13.24498
G1 X26.771 Y127.692 E13.27617
G1 X26.4 Y127.209 E13.29643
G1 X26.013 Y126.675 E13.31836
G1 X25.811 Y126.386 E13.33009
G1 X25.568 Y126.027 E13.34451
G1 X25.075 Y125.229 E13.37571
G1 X24.785 Y124.672 E13.3966
G1 X24.482 Y124.049 E13.41964
G1 X24.341 Y123.748 E13.43069
G1 X24.163 Y123.352 E13.44513
G1 X23.815 Y122.481 E13.47633
G1 X23.614 Y121.845 E13.49851
G1 X23.442 Y121.239 E13.51947
G1 X23.361 Y120.939 E13.5298
G1 X23.252 Y120.509 E13.54456
G1 X23.061 Y119.591 E13.57574
G1 X22.974 Y118.94 E13.59759
G1 X22.9 Y118.226 E13.62146
G1 X22.869 Y117.874 E13.63321
G1 X22.838 Y117.439 E13.64772
G1 X22.811 Y116.811 E13.66863
G1 X22.8 Y115.945 E13.69743
G1 X22.801 Y114.928 E13.73126
G1 X22.811 Y114.222 E13.75474
G1 X22.82 Y113.911 E13.76509
G1 X22.876 Y112.589 E13.8091
G1 X22.951 Y110.148 E13.89032
G1 X22.958 Y107.618 E13.97447
G1 X22.894 Y105.11 E14.05792
G1 X22.822 Y103.652 E14.10647
G1 X22.807 Y103.171 E14.12248
G1 X22.802 Y102.919 E14.13086
G1 X22.8 Y102.678 E14.13887
G1 X22.801 Y95.878 E14.36504
G1 X22.811 Y95.172 E14.38853
G1 X22.82 Y94.861 E14.39888
G1 X22.877 Y93.508 E14.44392
G1 X22.947 Y91.408 E14.5138
G1 X22.962 Y88.859 E14.59858
G1 X22.906 Y86.355 E14.68189
G1 X22.816 Y84.396 E14.74711
G1 X22.804 Y83.973 E14.76119
G1 X22.8 Y83.661 E14.77157
G1 X22.801 Y82.296 E14.81697
G1 X22.81 Y81.627 E14.83922
G1 X22.838 Y80.98 E14.86076
G1 X22.885 Y80.331 E14.8824
G1 X22.913 Y80.008 E14.89318
G1 X22.96 Y79.548 E14.90856
G1 X23.095 Y78.62 E14.93975
G1 X23.237 Y77.974 E14.96175
G1 X23.397 Y77.34 E14.9835
G1 X23.475 Y77.048 E14.99355
G1 X23.599 Y76.608 E15.00876
G1 X23.892 Y75.717 E15.03995
G1 X24.158 Y75.074 E15.0631
G1 X24.422 Y74.488 E15.08447
G1 X24.542 Y74.23 E15.09394
G1 X24.743 Y73.813 E15.10933
G1 X25.186 Y72.986 E15.14054
G1 X25.542 Y72.424 E15.16267
G1 X25.9 Y71.895 E15.18391
G1 X26.096 Y71.615 E15.19528
G1 X26.37 Y71.236 E15.21083
G1 X26.951 Y70.5 E15.24202
G1 X27.395 Y70.015 E15.26389
G1 X27.842 Y69.555 E15.28522
G1 X28.073 Y69.324 E15.29609
G1 X28.403 Y69.004 E15.31138
G1 X29.104 Y68.38 E15.34259
G1 X29.599 Y67.999 E15.36337
G1 X30.139 Y67.607 E15.38556
G1 X30.44 Y67.396 E15.39779
G1 X30.795 Y67.156 E15.41204
G1 X31.594 Y66.664 E15.44325
G1 X32.141 Y66.379 E15.46377
G0 F6000 X32.316 Y66.739
G1 F1200 X32.926 Y66.442 E15.48633
G1 X33.23 Y66.299 E15.4975
G1 X33.636 Y66.117 E15.5123
G1 X34.492 Y65.778 E15.54292
G1 X35.076 Y65.593 E15.5633
G1 X35.657 Y65.428 E15.58339
G1 X35.936 Y65.353 E15.593
G1 X36.403 Y65.234 E15.60903
G1 X37.304 Y65.046 E15.63964
G1 X37.928 Y64.962 E15.66058
G1 X38.604 Y64.892 E15.68318
G1 X38.932 Y64.864 E15.69413
G1 X39.361 Y64.833 E15.70844
G1 X39.957 Y64.806 E15.72828
G1 X40.882 Y64.793 E15.75905
G1 X64.849 Y64.793 E16.5562
G1 X65.661 Y64.803 E16.58321
G1 X66.284 Y64.83 E16.60395
G1 X66.933 Y64.877 E16.62559
G1 X67.26 Y64.906 E16.63651
G1 X67.723 Y64.954 E16.65199
G1 X68.634 Y65.088 E16.68262
G1 X69.212 Y65.216 E16.70231
G1 X69.841 Y65.374 E16.72388
G1 X70.128 Y65.451 E16.73376
G1 X70.569 Y65.575 E16.749
G1 X71.444 Y65.862 E16.77962
G1 X72.034 Y66.106 E16.80086
G1 X72.621 Y66.369 E16.82225
G1 X72.908 Y66.502 E16.83277
G1 X73.323 Y66.703 E16.84811
G1 X74.133 Y67.14 E16.87872
G1 X74.639 Y67.462 E16.89867
G1 X75.17 Y67.821 E16.91999
G1 X75.451 Y68.017 E16.93138
G1 X75.821 Y68.285 E16.94658
G1 X76.543 Y68.857 E16.97722
G1 X76.989 Y69.267 E16.99737
G1 X77.478 Y69.742 E17.02004
G1 X77.697 Y69.961 E17.03034
G1 X77.999 Y70.272 E17.04476
G1 X78.611 Y70.959 E17.07536
G1 X78.974 Y71.431 E17.09517
G1 X80.614 Y73.636 E17.18657
G1 X82.172 Y75.61 E17.27021
G1 X83.784 Y77.534 E17.35369
G1 X85.477 Y79.444 E17.43858
G1 X87.215 Y81.298 E17.5231
G1 X88.966 Y83.063 E17.6058
G1 X90.805 Y84.813 E17.69023
G1 X92.691 Y86.509 E17.77459
G1 X94.638 Y88.164 E17.85958
G1 X96.597 Y89.736 E17.94312
G1 X98.609 Y91.257 E18.02701
G1 X100.657 Y92.717 E18.11067
G1 X102.77 Y94.136 E18.19532
G1 X104.92 Y95.492 E18.27987
G1 X107.085 Y96.774 E18.36355
G1 X109.276 Y97.988 E18.44686
G1 X111.544 Y99.163 E18.53182
G1 X113.805 Y100.255 E18.61533
G1 X116.138 Y101.301 E18.70037
G1 X118.478 Y102.272 E18.78463
G1 X120.83 Y103.168 E18.86835
G1 X123.218 Y104.004 E18.9525
G1 X125.609 Y104.766 E19.03596
G1 X128.058 Y105.469 E19.12071
G1 X130.476 Y106.092 E19.20376
G1 X132.995 Y106.665 E19.28968
G1 X135.449 Y107.148 E19.37287
G1 X137.929 Y107.565 E19.45651
G1 X140.429 Y107.914 E19.54047
G1 X142.971 Y108.195 E19.62553
G1 X145.455 Y108.4 E19.70843
G1 X147.977 Y108.536 E19.79243
G1 X151.643 Y108.608 E19.91439
G1 X185.645 Y108.609 E21.0453
G1 X186.343 Y108.619 E21.06851
G1 X187.262 Y108.672 E21.09913
G1 X188.173 Y108.805 E21.12975
G1 X189.069 Y109.016 E21.16037
G1 X189.943 Y109.304 E21.19098
G1 X190.79 Y109.667 E21.22163
G1 X191.601 Y110.102 E21.25223
G1 X192.371 Y110.606 E21.28284
G1 X193.095 Y111.175 E21.31347
G1 X193.767 Y111.805 E21.34411
G1 X194.382 Y112.49 E21.37473
G1 X194.935 Y113.226 E21.40534
G1 X195.422 Y114.007 E21.43596
G1 X195.839 Y114.828 E21.46658
G1 X196.184 Y115.682 E21.49722
G1 X196.453 Y116.562 E21.52782
G1 X196.645 Y117.463 E21.55846
G1 X196.758 Y118.376 E21.58906
G1 X196.787 Y118.92 E21.60718
G1 X196.796 Y119.24 E21.61783
G1 X196.8 Y119.538 E21.62774
G1 X196.799 Y144.002 E22.44142
G1 X196.79 Y144.729 E22.4656
G1 X196.739 Y145.648 E22.49621
G1 X196.608 Y146.56 E22.52686
G1 X196.398 Y147.456 E22.55747
G1 X196.112 Y148.331 E22.58808
G1 X195.751 Y149.178 E22.61871
G1 X195.317 Y149.99 E22.64933
G1 X194.815 Y150.762 E22.67996
G1 X194.247 Y151.487 E22.71059
G1 X193.619 Y152.16 E22.74121
G1 X192.935 Y152.776 E22.77182
G1 X192.2 Y153.33 E22.80244
G1 X191.42 Y153.819 E22.83305
G1 X190.6 Y154.238 E22.86368
G1 X189.747 Y154.584 E22.8943
G1 X188.867 Y154.855 E22.92492
G1 X187.967 Y155.048 E22.95554
G1 X187.053 Y155.163 E22.98618
G1 X186.488 Y155.194 E23.005
G1 X186.167 Y155.203 E23.01568
G1 X185.87 Y155.207 E23.02556
G1 X171.261 Y155.206 E23.51146
G1 X170.564 Y155.196 E23.53464
G1 X169.705 Y155.149 E23.56325
G1 X169.292 Y155.109 E23.57705
G1 X166.72 Y154.891 E23.66291
G1 X164.213 Y154.75 E23.74642
G1 X161.669 Y154.679 E23.83107
G1 X159.158 Y154.681 E23.91458
G1 X156.61 Y154.754 E23.99937
G1 X154.125 Y154.896 E24.08215
G1 X152.493 Y155.045 E24.13666
G1 X152.18 Y155.06 E24.14708
G1 X151.031 Y155.159 E24.18544
G1 X150.42 Y155.194 E24.20579
G1 X150.101 Y155.203 E24.21641
G1 X149.802 Y155.207 E24.22635
G1 X96.204 Y155.206 E26.00903
G1 X95.507 Y155.196 E26.03221
G1 X94.635 Y155.147 E26.06126
G1 X94.213 Y155.106 E26.07536
G1 X91.542 Y154.879 E26.16452
G1 X89.05 Y154.738 E26.24754
G1 X86.494 Y154.666 E26.33259
G1 X83.984 Y154.666 E26.41607
G1 X81.447 Y154.738 E26.50048
G1 X78.93 Y154.881 E26.58433
G1 X76.358 Y155.1 E26.67019
G1 X76.064 Y155.129 E26.68002
G1 X75.713 Y155.159 E26.69173
G1 X75.109 Y155.194 E26.71186
G1 X74.79 Y155.203 E26.72247
G1 X74.491 Y155.207 E26.73241
G1 X59.883 Y155.206 E27.21828
G1 X59.181 Y155.196 E27.24163
G1 X58.262 Y155.143 E27.27225
G1 X57.351 Y155.01 E27.30287
G1 X56.455 Y154.799 E27.33348
G1 X55.58 Y154.511 E27.36412
G1 X54.734 Y154.148 E27.39474
G1 X53.923 Y153.713 E27.42535
G1 X53.152 Y153.209 E27.45599
G1 X52.428 Y152.641 E27.48659
G1 X51.756 Y152.011 E27.51723
G1 X50.894 Y151.013 E27.56109
G1 X50.723 Y150.786 E27.57054
G1 X49.315 Y148.885 E27.64923
G1 X47.745 Y146.886 E27.73377
G1 X46.13 Y144.947 E27.8177
G1 X44.432 Y143.022 E27.90307
G1 X42.731 Y141.199 E27.986
G1 X40.964 Y139.408 E28.06968
G1 X39.113 Y137.636 E28.15491
G1 X37.264 Y135.964 E28.23782
G1 X35.329 Y134.312 E28.32245
G1 X33.385 Y132.744 E28.40552
G1 X30.536 Y130.6 E28.52411
G1 X29.883 Y130.127 E28.55093
G1 X29.161 Y129.555 E28.58156
G1 X28.715 Y129.146 E28.60169
G1 X28.203 Y128.649 E28.62542
G1 X27.96 Y128.405 E28.63688
G1 X27.681 Y128.116 E28.65024
G1 X27.071 Y127.427 E28.68084
G1 X26.724 Y126.974 E28.69982
G1 X26.337 Y126.44 E28.72176
G1 X26.142 Y126.162 E28.73305
G1 X25.899 Y125.803 E28.74747
G1 X25.416 Y125.019 E28.7781
G1 X25.145 Y124.497 E28.79766
G1 X24.842 Y123.874 E28.8207
G1 X24.706 Y123.584 E28.83135
G1 X24.528 Y123.188 E28.8458
G1 X24.187 Y122.332 E28.87644
G1 X23.999 Y121.736 E28.89723
G1 X23.827 Y121.13 E28.91818
G1 X23.749 Y120.841 E28.92814
G1 X23.64 Y120.411 E28.94289
G1 X23.453 Y119.509 E28.97353
G1 X23.371 Y118.899 E28.994
G1 X23.297 Y118.185 E29.01787
G1 X23.268 Y117.845 E29.02922
G1 X23.237 Y117.41 E29.04373
G1 X23.211 Y116.806 E29.06384
G1 X23.2 Y115.945 E29.09248
G1 X23.201 Y114.934 E29.1261
G1 X23.211 Y114.228 E29.14959
G1 X23.22 Y113.928 E29.15957
G1 X23.276 Y112.619 E29.20315
G1 X23.351 Y110.161 E29.28494
G1 X23.358 Y107.644 E29.36865
G1 X23.292 Y105.08 E29.45396
G1 X23.23 Y103.841 E29.49522
G1 X23.207 Y103.158 E29.51795
G1 X23.2 Y102.675 E29.53402
G1 X23.201 Y95.884 E29.75989
G1 X23.211 Y95.178 E29.78337
G1 X23.22 Y94.878 E29.79335
G1 X23.277 Y93.539 E29.83793
G1 X23.347 Y91.423 E29.90835
G1 X23.362 Y88.852 E29.99386
G1 X23.306 Y86.327 E30.07786
G1 X23.216 Y84.385 E30.14252
G1 X23.204 Y83.962 E30.1566
G1 X23.2 Y83.661 E30.16661
G1 X23.201 Y82.301 E30.21184
G1 X23.21 Y81.632 E30.2341
G1 X23.237 Y81.009 E30.25484
G1 X23.284 Y80.36 E30.27648
G1 X23.311 Y80.049 E30.28686
G1 X23.358 Y79.589 E30.30224
G1 X23.491 Y78.678 E30.33286
G1 X23.625 Y78.072 E30.3535
G1 X23.785 Y77.438 E30.37525
G1 X23.86 Y77.157 E30.38493
G1 X23.984 Y76.717 E30.40013
G1 X24.272 Y75.842 E30.43077
G1 X24.522 Y75.238 E30.45251
G1 X24.786 Y74.652 E30.47389
G1 X24.902 Y74.403 E30.48302
G1 X25.103 Y73.986 E30.49842
G1 X25.539 Y73.175 E30.52905
G1 X25.873 Y72.648 E30.5498
G1 X26.231 Y72.119 E30.57104
G1 X26.42 Y71.85 E30.58198
G1 X26.694 Y71.471 E30.59753
G1 X27.265 Y70.749 E30.62815
G1 X27.682 Y70.294 E30.64868
G1 X28.129 Y69.834 E30.67001
G1 X28.352 Y69.611 E30.6805
G1 X28.682 Y69.291 E30.69579
G1 X29.37 Y68.68 E30.72639
G1 X29.834 Y68.323 E30.74586
G1 X30.374 Y67.931 E30.76806
