;FLAVOR:Marlin
;TIME:44845
;Filament used: 32.5802m
;Layer height: 0.2
;MINX:24
;MINY:76.387
;MINZ:0.2
;MAXX:196
;MAXY:143.613
;MAXZ:19
;Generated with Cura_SteamEngine 4.11.0
M140 S50
M105
M190 S50
M104 S200
M105
M109 S200
M82 ;absolute extrusion mode
; Ender 3 Custom Start G-code
G92 E0 ; Reset Extruder
G28 ; Home all axes
G29 ; Auto bed-level (BL-Touch)
G1 Z2.0 F3000 ; Move Z Axis up little to prevent scratching of Heat Bed
G1 X0.1 Y20 Z0.3 F5000.0 ; Move to start position
G1 X0.1 Y200.0 Z0.3 F1500.0 E15 ; Draw the first line
G1 X0.4 Y200.0 Z0.3 F5000.0 ; Move to side a little
G1 X0.4 Y20 Z0.3 F1500.0 E30 ; Draw the second line
G92 E0 ; Reset Extruder
G1 Z2.0 F3000 ; Move Z Axis up little to prevent scratching of Heat Bed
G1 X5 Y20 Z0.3 F5000.0 ; Move over to prevent blob squish
G92 E0
G92 E0
G1 F2700 E-5
;LAYER_COUNT:95
;LAYER:0
M107
G0 F6000 X33.757 Y77.716 Z0.2
;TYPE:SKIRT
G1 F2700 E0
G1 F1200 X34.173 Y77.561 E0.01477
G1 X35.523 Y77.091 E0.06231
G1 X36.371 Y76.838 E0.09174
G1 X37.644 Y76.608 E0.13477
G1 X39.05 Y76.449 E0.18183
G1 X40.151 Y76.387 E0.21851
G1 X74.821 Y76.387 E1.37164
G1 X75.705 Y76.427 E1.40107
G1 X76.582 Y76.547 E1.43051
G1 X77.445 Y76.745 E1.45996
G1 X78.286 Y77.02 E1.48939
G1 X79.099 Y77.37 E1.51883
G1 X79.878 Y77.792 E1.5483
G1 X80.614 Y78.283 E1.57772
G1 X81.304 Y78.838 E1.60717
G1 X81.941 Y79.453 E1.63662
G1 X82.036 Y79.563 E1.64146
G1 X88.436 Y79.563 E1.85432
G1 X88.915 Y79.067 E1.87726
G1 X89.585 Y78.489 E1.90669
G1 X90.304 Y77.973 E1.93612
G1 X91.067 Y77.524 E1.96557
G1 X91.868 Y77.146 E1.99503
G1 X92.699 Y76.842 E2.02446
G1 X93.554 Y76.614 E2.05389
G1 X94.427 Y76.464 E2.08335
G1 X95.649 Y76.387 E2.12407
G1 X150.132 Y76.387 E3.93619
G1 X151.016 Y76.427 E3.96562
G1 X151.893 Y76.547 E3.99506
G1 X152.756 Y76.745 E4.02451
G1 X153.597 Y77.02 E4.05394
G1 X154.41 Y77.37 E4.08338
G1 X155.189 Y77.792 E4.11285
G1 X155.925 Y78.283 E4.14227
G1 X156.615 Y78.838 E4.17172
G1 X157.252 Y79.453 E4.20117
G1 X157.347 Y79.563 E4.20601
G1 X163.493 Y79.563 E4.41042
G1 X163.972 Y79.067 E4.43336
G1 X164.642 Y78.489 E4.46279
G1 X165.361 Y77.973 E4.49222
G1 X166.124 Y77.524 E4.52167
G1 X166.925 Y77.146 E4.55113
G1 X167.756 Y76.842 E4.58056
G1 X168.611 Y76.614 E4.60999
G1 X169.484 Y76.464 E4.63945
G1 X170.706 Y76.387 E4.68018
G1 X186.2 Y76.387 E5.19551
G1 X187.084 Y76.427 E5.22494
G1 X187.961 Y76.547 E5.25438
G1 X188.824 Y76.745 E5.28383
G1 X189.665 Y77.02 E5.31326
G1 X190.478 Y77.37 E5.3427
G1 X191.257 Y77.792 E5.37217
G1 X191.993 Y78.283 E5.40159
G1 X192.683 Y78.838 E5.43105
G1 X193.32 Y79.453 E5.4605
G1 X193.898 Y80.123 E5.48993
G1 X194.414 Y80.842 E5.51936
G1 X194.863 Y81.605 E5.54881
G1 X195.241 Y82.406 E5.57827
G1 X195.545 Y83.237 E5.6077
G1 X195.773 Y84.092 E5.63713
G1 X195.923 Y84.965 E5.66659
G1 X196 Y86.188 E5.70735
G1 X195.999 Y105.245 E6.34119
G1 X195.937 Y106.341 E6.3777
G1 X195.778 Y107.752 E6.42492
G1 X195.64 Y108.627 E6.45439
G1 X195.288 Y109.897 E6.49822
G1 X194.819 Y111.235 E6.54538
G1 X194.489 Y112.056 E6.57481
G1 X193.866 Y113.212 E6.61848
G1 X193.104 Y114.423 E6.66607
G1 X192.599 Y115.15 E6.69551
G1 X191.728 Y116.144 E6.73947
G1 X190.724 Y117.145 E6.78662
G1 X190.07 Y117.741 E6.81605
G1 X189.019 Y118.503 E6.85923
G1 X187.819 Y119.257 E6.90637
G1 X187.049 Y119.694 E6.93582
G1 X186.243 Y120.059 E6.96524
G1 X185.827 Y120.214 E6.98001
G1 X184.477 Y120.684 E7.02755
G1 X183.629 Y120.937 E7.05699
G1 X182.356 Y121.167 E7.10001
G1 X180.95 Y121.326 E7.14707
G1 X179.849 Y121.388 E7.18375
G1 X81.699 Y121.388 E10.44823
G1 X81.699 Y127.47 E10.65052
G1 X81.637 Y128.566 E10.68703
G1 X81.478 Y129.977 E10.73426
G1 X81.34 Y130.852 E10.76372
G1 X80.988 Y132.122 E10.80756
G1 X80.519 Y133.46 E10.85471
G1 X80.189 Y134.281 E10.88414
G1 X79.566 Y135.437 E10.92782
G1 X78.804 Y136.648 E10.97541
G1 X78.299 Y137.375 E11.00485
G1 X77.428 Y138.369 E11.04881
G1 X76.424 Y139.37 E11.09596
G1 X75.77 Y139.966 E11.12539
G1 X74.719 Y140.728 E11.16857
G1 X73.519 Y141.482 E11.21571
G1 X72.749 Y141.919 E11.24515
G1 X71.943 Y142.284 E11.27458
G1 X71.527 Y142.439 E11.28935
G1 X70.177 Y142.909 E11.33689
G1 X69.329 Y143.162 E11.36632
G1 X68.056 Y143.392 E11.40935
G1 X66.65 Y143.551 E11.45641
G1 X65.549 Y143.613 E11.49309
G1 X40.144 Y143.612 E12.33806
G1 X39.035 Y143.549 E12.37501
G1 X37.622 Y143.388 E12.42231
G1 X36.747 Y143.248 E12.45178
G1 X35.497 Y142.902 E12.49492
G1 X34.161 Y142.435 E12.54199
G1 X33.34 Y142.106 E12.57141
G1 X32.551 Y141.703 E12.60088
G1 X32.171 Y141.475 E12.61562
G1 X30.96 Y140.712 E12.66322
G1 X30.233 Y140.207 E12.69266
G1 X29.251 Y139.347 E12.73608
G1 X28.249 Y138.344 E12.78323
G1 X27.652 Y137.69 E12.81269
G1 X26.881 Y136.627 E12.85636
G1 X26.128 Y135.427 E12.90348
G1 X25.692 Y134.657 E12.93291
G1 X25.177 Y133.448 E12.97662
G1 X24.705 Y132.096 E13.02425
G1 X24.451 Y131.248 E13.05369
G1 X24.217 Y129.947 E13.09766
G1 X24.06 Y128.533 E13.14498
G1 X24 Y127.452 E13.18099
G1 X24 Y125.174 E13.25675
G1 X24.04 Y124.29 E13.28618
G1 X24.09 Y123.848 E13.30098
G1 X24.158 Y123.35 E13.3177
G1 X24.317 Y122.479 E13.34714
G1 X24.555 Y121.627 E13.37657
G1 X24.821 Y120.91 E13.402
G1 X25.01 Y120.456 E13.41836
G1 X25.386 Y119.655 E13.44779
G1 X25.463 Y119.523 E13.45287
G1 X25.329 Y119.287 E13.4619
G1 X24.997 Y118.566 E13.4883
G1 X24.809 Y118.111 E13.50467
G1 X24.508 Y117.279 E13.5341
G1 X24.284 Y116.423 E13.56353
G1 X24.152 Y115.667 E13.58906
G1 X24.086 Y115.173 E13.60563
G1 X24 Y113.875 E13.6489
G1 X24 Y106.124 E13.9067
G1 X24.04 Y105.24 E13.93613
G1 X24.09 Y104.798 E13.95092
G1 X24.158 Y104.3 E13.96764
G1 X24.317 Y103.429 E13.99709
G1 X24.555 Y102.577 E14.02651
G1 X24.821 Y101.86 E14.05195
G1 X25.01 Y101.406 E14.06831
G1 X25.386 Y100.605 E14.09774
G1 X25.463 Y100.473 E14.10282
G1 X25.329 Y100.237 E14.11184
G1 X24.997 Y99.516 E14.13825
G1 X24.809 Y99.061 E14.15462
G1 X24.508 Y98.229 E14.18405
G1 X24.284 Y97.373 E14.21348
G1 X24.148 Y96.587 E14.24001
G1 X24.082 Y96.081 E14.25698
G1 X24 Y94.809 E14.29937
G1 X24.001 Y92.528 E14.37524
G1 X24.063 Y91.435 E14.41165
G1 X24.222 Y90.023 E14.45891
G1 X24.36 Y89.149 E14.48834
G1 X24.712 Y87.878 E14.53221
G1 X25.181 Y86.54 E14.57936
G1 X25.511 Y85.719 E14.60879
G1 X26.134 Y84.563 E14.65247
G1 X26.896 Y83.352 E14.70006
G1 X27.401 Y82.625 E14.7295
G1 X28.272 Y81.631 E14.77346
G1 X29.276 Y80.63 E14.82061
G1 X29.93 Y80.034 E14.85004
G1 X30.981 Y79.272 E14.89322
G1 X32.181 Y78.518 E14.94036
G1 X32.951 Y78.081 E14.9698
G1 X33.757 Y77.716 E14.99923
G0 F6000 X34.304 Y77.939
G1 F1200 X35.654 Y77.469 E15.04678
G1 X36.485 Y77.222 E15.07561
G1 X37.689 Y77.006 E15.1163
G1 X39.095 Y76.847 E15.16336
G1 X40.151 Y76.787 E15.19854
G1 X74.821 Y76.787 E16.35167
G1 X75.687 Y76.827 E16.3805
G1 X76.546 Y76.947 E16.40935
G1 X77.39 Y77.145 E16.43818
G1 X78.212 Y77.42 E16.46701
G1 X79.005 Y77.77 E16.49584
G1 X79.763 Y78.191 E16.52468
G1 X80.478 Y78.68 E16.55349
G1 X81.146 Y79.233 E16.58233
G1 X81.76 Y79.846 E16.61119
G1 X81.857 Y79.963 E16.61624
G1 X88.611 Y79.963 E16.84088
G1 X88.695 Y79.862 E16.84525
G1 X89.308 Y79.248 E16.87411
G1 X89.974 Y78.693 E16.90294
G1 X90.688 Y78.203 E16.93175
G1 X91.445 Y77.779 E16.96061
G1 X92.238 Y77.428 E16.98945
G1 X93.059 Y77.151 E17.01827
G1 X93.903 Y76.951 E17.04712
G1 X94.761 Y76.829 E17.07594
G1 X95.649 Y76.787 E17.10551
G1 X150.132 Y76.787 E18.91762
G1 X150.998 Y76.827 E18.94645
G1 X151.857 Y76.947 E18.9753
G1 X152.701 Y77.145 E19.00414
G1 X153.523 Y77.42 E19.03297
G1 X154.316 Y77.77 E19.0618
G1 X155.074 Y78.191 E19.09063
G1 X155.789 Y78.68 E19.11945
G1 X156.457 Y79.233 E19.14829
G1 X157.071 Y79.846 E19.17715
G1 X157.168 Y79.963 E19.1822
G1 X163.668 Y79.963 E19.39839
G1 X163.752 Y79.862 E19.40276
G1 X164.365 Y79.248 E19.43162
G1 X165.031 Y78.693 E19.46045
G1 X165.745 Y78.203 E19.48925
G1 X166.502 Y77.779 E19.51811
G1 X167.295 Y77.428 E19.54696
G1 X168.116 Y77.151 E19.57577
G1 X168.96 Y76.951 E19.60462
G1 X169.818 Y76.829 E19.63345
G1 X170.706 Y76.787 E19.66302
G1 X186.2 Y76.787 E20.17835
G1 X187.066 Y76.827 E20.20718
G1 X187.925 Y76.947 E20.23603
G1 X188.769 Y77.145 E20.26486
G1 X189.591 Y77.42 E20.29369
G1 X190.384 Y77.77 E20.32252
G1 X191.142 Y78.191 E20.35136
G1 X191.857 Y78.68 E20.38017
G1 X192.525 Y79.233 E20.40902
G1 X193.139 Y79.846 E20.43787
G1 X193.694 Y80.512 E20.46671
G1 X194.184 Y81.226 E20.49551
G1 X194.608 Y81.983 E20.52437
G1 X194.959 Y82.776 E20.55321
G1 X195.236 Y83.597 E20.58203
G1 X195.436 Y84.441 E20.61088
G1 X195.558 Y85.299 E20.6397
G1 X195.6 Y86.187 E20.66927
G1 X195.599 Y105.244 E21.30311
G1 X195.54 Y106.297 E21.33819
G1 X195.381 Y107.708 E21.38542
G1 X195.244 Y108.564 E21.41425
G1 X194.911 Y109.764 E21.45567
G1 X194.442 Y111.102 E21.50283
G1 X194.118 Y111.906 E21.53166
G1 X193.527 Y112.999 E21.57298
G1 X192.765 Y114.21 E21.62057
G1 X192.27 Y114.922 E21.64941
G1 X191.446 Y115.861 E21.69096
G1 X190.442 Y116.862 E21.73812
G1 X189.8 Y117.445 E21.76696
G1 X188.806 Y118.164 E21.80777
G1 X187.606 Y118.918 E21.8549
G1 X186.851 Y119.345 E21.88375
G1 X185.696 Y119.836 E21.92549
G1 X184.346 Y120.306 E21.97304
G1 X183.515 Y120.553 E22.00187
G1 X182.311 Y120.769 E22.04256
G1 X180.905 Y120.928 E22.08962
G1 X179.849 Y120.988 E22.1248
G1 X81.299 Y120.988 E25.40259
G1 X81.299 Y127.47 E25.61818
G1 X81.24 Y128.522 E25.65322
G1 X81.081 Y129.933 E25.70045
G1 X80.944 Y130.789 E25.72928
G1 X80.611 Y131.989 E25.7707
G1 X80.142 Y133.327 E25.81786
G1 X79.818 Y134.131 E25.84669
G1 X79.227 Y135.224 E25.88802
G1 X78.465 Y136.435 E25.93561
G1 X77.97 Y137.147 E25.96445
G1 X77.146 Y138.086 E26.006
G1 X76.142 Y139.087 E26.05315
G1 X75.5 Y139.67 E26.082
G1 X74.506 Y140.389 E26.1228
G1 X73.306 Y141.143 E26.16994
G1 X72.551 Y141.57 E26.19879
G1 X71.396 Y142.061 E26.24053
G1 X70.046 Y142.531 E26.28807
G1 X69.215 Y142.778 E26.31691
G1 X68.011 Y142.994 E26.35759
G1 X66.605 Y143.153 E26.40465
G1 X65.549 Y143.213 E26.43983
G1 X40.144 Y143.212 E27.28481
G1 X39.08 Y143.152 E27.32025
G1 X37.667 Y142.991 E27.36755
G1 X36.811 Y142.853 E27.39639
G1 X35.629 Y142.525 E27.43719
G1 X34.293 Y142.058 E27.48426
G1 X33.489 Y141.734 E27.51309
G1 X32.384 Y141.137 E27.55487
G1 X31.173 Y140.374 E27.60247
G1 X30.462 Y139.879 E27.63129
G1 X29.534 Y139.064 E27.67237
G1 X28.532 Y138.061 E27.71952
G1 X27.948 Y137.421 E27.74834
G1 X27.22 Y136.414 E27.78967
G1 X26.467 Y135.214 E27.83679
G1 X26.04 Y134.459 E27.86563
G1 X25.554 Y133.316 E27.90694
G1 X25.082 Y131.964 E27.95457
G1 X24.835 Y131.133 E27.98341
G1 X24.614 Y129.903 E28.02497
G1 X24.457 Y128.489 E28.07229
G1 X24.4 Y127.452 E28.10684
G1 X24.4 Y125.174 E28.1826
G1 X24.486 Y123.902 E28.22501
G1 X24.554 Y123.404 E28.24172
G1 X24.711 Y122.552 E28.27054
G1 X24.946 Y121.717 E28.29939
G1 X25.19 Y121.063 E28.3226
G1 X25.379 Y120.609 E28.33896
G1 X25.749 Y119.825 E28.3678
G1 X25.925 Y119.525 E28.37936
G1 X25.669 Y119.073 E28.39664
G1 X25.366 Y118.414 E28.42077
G1 X25.178 Y117.959 E28.43714
G1 X24.885 Y117.143 E28.46598
G1 X24.667 Y116.304 E28.49481
G1 X24.549 Y115.614 E28.51809
G1 X24.483 Y115.12 E28.53467
G1 X24.4 Y113.875 E28.57617
G1 X24.4 Y106.124 E28.83397
G1 X24.486 Y104.852 E28.87637
G1 X24.554 Y104.354 E28.89309
G1 X24.711 Y103.502 E28.9219
G1 X24.946 Y102.667 E28.95075
G1 X25.19 Y102.013 E28.97397
G1 X25.379 Y101.559 E28.99033
G1 X25.749 Y100.775 E29.01916
G1 X25.925 Y100.475 E29.03073
G1 X25.669 Y100.023 E29.04801
G1 X25.366 Y99.364 E29.07213
G1 X25.178 Y98.909 E29.08851
G1 X24.885 Y98.093 E29.11734
G1 X24.667 Y97.254 E29.14617
G1 X24.545 Y96.535 E29.17043
G1 X24.479 Y96.029 E29.1874
G1 X24.4 Y94.809 E29.22806
G1 X24.401 Y92.528 E29.30393
G1 X24.46 Y91.48 E29.33884
G1 X24.619 Y90.068 E29.3861
G1 X24.756 Y89.212 E29.41494
G1 X25.089 Y88.011 E29.45639
G1 X25.558 Y86.673 E29.50355
G1 X25.882 Y85.869 E29.53238
G1 X26.473 Y84.776 E29.5737
G1 X27.235 Y83.565 E29.62129
G1 X27.73 Y82.853 E29.65013
G1 X28.554 Y81.914 E29.69168
G1 X29.558 Y80.913 E29.73884
G1 X30.2 Y80.33 E29.76768
G1 X31.194 Y79.611 E29.80849
G1 X32.394 Y78.857 E29.85562
G1 X33.149 Y78.43 E29.88447
G1 X34.304 Y77.939 E29.92621
G0 F6000 X34.436 Y78.316
G1 F1200 X35.786 Y77.846 E29.97376
G1 X36.599 Y77.606 E30.00195
G1 X37.734 Y77.403 E30.0403
G1 X39.14 Y77.244 E30.08736
G1 X40.151 Y77.187 E30.12104
G1 X74.821 Y77.187 E31.27417
G1 X75.668 Y77.227 E31.30238
G1 X76.508 Y77.347 E31.3306
G1 X77.333 Y77.545 E31.35882
G1 X78.136 Y77.82 E31.38705
G1 X78.909 Y78.169 E31.41526
G1 X79.645 Y78.589 E31.44344
G1 X80.339 Y79.077 E31.47166
G1 X80.984 Y79.628 E31.49987
G1 X81.574 Y80.238 E31.5281
G1 X81.674 Y80.363 E31.53342
G1 X88.8 Y80.363 E31.77044
G1 X89.09 Y80.024 E31.78527
G1 X89.7 Y79.434 E31.8135
G1 X90.362 Y78.904 E31.8417
G1 X91.071 Y78.438 E31.86992
G1 X91.821 Y78.042 E31.89813
G1 X92.605 Y77.717 E31.92636
G1 X93.416 Y77.468 E31.95458
G1 X94.247 Y77.297 E31.9828
G1 X95.09 Y77.204 E32.011
G1 X95.649 Y77.187 E32.0296
G1 X150.132 Y77.187 E33.84172
G1 X150.979 Y77.227 E33.86992
G1 X151.819 Y77.347 E33.89814
G1 X152.644 Y77.545 E33.92636
G1 X153.447 Y77.82 E33.95459
G1 X154.22 Y78.169 E33.9828
G1 X154.956 Y78.589 E34.01098
G1 X155.65 Y79.077 E34.0392
G1 X156.295 Y79.628 E34.06742
G1 X156.885 Y80.238 E34.09564
G1 X156.985 Y80.363 E34.10097
G1 X163.857 Y80.363 E34.32953
G1 X164.147 Y80.024 E34.34437
G1 X164.757 Y79.434 E34.3726
G1 X165.419 Y78.904 E34.4008
G1 X166.128 Y78.438 E34.42902
G1 X166.878 Y78.042 E34.45723
G1 X167.662 Y77.717 E34.48546
G1 X168.473 Y77.468 E34.51367
G1 X169.304 Y77.297 E34.54189
G1 X170.147 Y77.204 E34.5701
G1 X170.706 Y77.187 E34.5887
G1 X186.2 Y77.187 E35.10403
G1 X187.047 Y77.227 E35.13224
G1 X187.887 Y77.347 E35.16046
G1 X188.712 Y77.545 E35.18868
G1 X189.515 Y77.82 E35.21691
G1 X190.288 Y78.169 E35.24512
G1 X191.024 Y78.589 E35.2733
G1 X191.718 Y79.077 E35.30152
G1 X192.363 Y79.628 E35.32973
G1 X192.953 Y80.238 E35.35796
G1 X193.483 Y80.9 E35.38617
G1 X193.949 Y81.609 E35.41438
G1 X194.345 Y82.359 E35.44259
G1 X194.67 Y83.143 E35.47082
G1 X194.919 Y83.954 E35.49904
G1 X195.09 Y84.785 E35.52726
G1 X195.183 Y85.628 E35.55546
G1 X195.2 Y86.187 E35.57407
G1 X195.199 Y105.244 E36.2079
G1 X195.142 Y106.252 E36.24148
G1 X194.983 Y107.663 E36.28871
G1 X194.849 Y108.5 E36.3169
G1 X194.533 Y109.632 E36.35599
G1 X194.064 Y110.97 E36.40315
G1 X193.746 Y111.757 E36.43138
G1 X193.188 Y112.786 E36.47032
G1 X192.426 Y113.997 E36.5179
G1 X191.941 Y114.693 E36.54612
G1 X191.163 Y115.577 E36.58529
G1 X190.159 Y116.578 E36.63244
G1 X189.531 Y117.148 E36.66065
G1 X188.593 Y117.826 E36.69914
G1 X187.393 Y118.58 E36.74628
G1 X186.654 Y118.997 E36.7745
G1 X185.564 Y119.459 E36.81388
G1 X184.214 Y119.929 E36.86142
G1 X183.401 Y120.169 E36.88962
G1 X182.266 Y120.372 E36.92797
G1 X180.86 Y120.531 E36.97503
G1 X179.849 Y120.588 E37.00871
G1 X80.899 Y120.588 E40.2998
G1 X80.899 Y127.47 E40.52869
G1 X80.842 Y128.477 E40.56224
G1 X80.683 Y129.888 E40.60947
G1 X80.549 Y130.725 E40.63766
G1 X80.233 Y131.857 E40.67675
G1 X79.764 Y133.195 E40.72391
G1 X79.446 Y133.982 E40.75214
G1 X78.888 Y135.011 E40.79107
G1 X78.126 Y136.222 E40.83866
G1 X77.641 Y136.918 E40.86688
G1 X76.863 Y137.802 E40.90604
G1 X75.859 Y138.803 E40.9532
G1 X75.231 Y139.373 E40.98141
G1 X74.293 Y140.051 E41.0199
G1 X73.093 Y140.805 E41.06704
G1 X72.354 Y141.222 E41.09526
G1 X71.264 Y141.684 E41.13463
G1 X69.914 Y142.154 E41.18218
G1 X69.101 Y142.394 E41.21037
G1 X67.966 Y142.597 E41.24872
G1 X66.56 Y142.756 E41.29578
G1 X65.549 Y142.813 E41.32946
G1 X40.144 Y142.812 E42.17444
G1 X39.125 Y142.754 E42.20838
G1 X37.712 Y142.593 E42.25569
G1 X36.875 Y142.457 E42.28389
G1 X35.761 Y142.147 E42.32235
G1 X34.425 Y141.68 E42.36942
G1 X33.639 Y141.363 E42.39761
G1 X32.597 Y140.799 E42.43702
G1 X31.386 Y140.036 E42.48462
G1 X30.691 Y139.55 E42.51283
G1 X29.817 Y138.782 E42.55153
G1 X28.815 Y137.779 E42.59868
G1 X28.244 Y137.151 E42.62691
G1 X27.559 Y136.202 E42.66584
G1 X26.806 Y135.002 E42.71296
G1 X26.389 Y134.263 E42.74118
G1 X25.932 Y133.184 E42.78016
G1 X25.46 Y131.832 E42.82779
G1 X25.218 Y131.019 E42.856
G1 X25.012 Y129.859 E42.89518
G1 X24.855 Y128.445 E42.9425
G1 X24.8 Y127.452 E42.97558
G1 X24.8 Y125.174 E43.05135
G1 X24.883 Y123.956 E43.09195
G1 X24.951 Y123.458 E43.10867
G1 X25.105 Y122.624 E43.13688
G1 X25.337 Y121.808 E43.16509
