;FLAVOR:Marlin
;TIME:44424
;Filament used: 32.2405m
;Layer height: 0.2
;MINX:22.8
;MINY:75.188
;MINZ:0.2
;MAXX:197.2
;MAXY:144.812
;MAXZ:19
;Generated with Cura_SteamEngine 4.11.0
M140 S50
M105
M190 S50
M104 S200
M105
M109 S200
M82 ;absolute extrusion mode
; Ender 3 Custom Start G-code
G92 E0 ; Reset Extruder
G28 ; Home all axes
G29 ; Auto bed-level (BL-Touch)
G1 Z2.0 F3000 ; Move Z Axis up little to prevent scratching of Heat Bed
G1 X0.1 Y20 Z0.3 F5000.0 ; Move to start position
G1 X0.1 Y200.0 Z0.3 F1500.0 E15 ; Draw the first line
G1 X0.4 Y200.0 Z0.3 F5000.0 ; Move to side a little
G1 X0.4 Y20 Z0.3 F1500.0 E30 ; Draw the second line
G92 E0 ; Reset Extruder
G1 Z2.0 F3000 ; Move Z Axis up little to prevent scratching of Heat Bed
G1 X5 Y20 Z0.3 F5000.0 ; Move over to prevent blob squish
G92 E0
G92 E0
G1 F2700 E-5
;LAYER_COUNT:95
;LAYER:0
M107
G0 F6000 X33.472 Y76.547 Z0.2
;TYPE:SKIRT
G1 F2700 E0
G1 F1200 X34.344 Y76.201 E0.0312
G1 X34.967 Y76.003 E0.05294
G1 X35.548 Y75.838 E0.07303
G1 X35.837 Y75.761 E0.08298
G1 X36.304 Y75.642 E0.09901
G1 X37.222 Y75.449 E0.13021
G1 X37.887 Y75.36 E0.15253
G1 X38.563 Y75.29 E0.17513
G1 X38.903 Y75.26 E0.18648
G1 X39.332 Y75.229 E0.20079
G1 X39.951 Y75.201 E0.2214
G1 X40.708 Y75.189 E0.24658
G1 X64.849 Y75.188 E1.04951
G1 X65.666 Y75.198 E1.07669
G1 X66.313 Y75.226 E1.09823
G1 X66.962 Y75.273 E1.11987
G1 X67.301 Y75.303 E1.13119
G1 X67.764 Y75.351 E1.14667
G1 X68.692 Y75.487 E1.17786
G1 X69.31 Y75.623 E1.19891
G1 X69.939 Y75.781 E1.22048
G1 X70.237 Y75.861 E1.23074
G1 X70.678 Y75.985 E1.24598
G1 X71.569 Y76.277 E1.27717
G1 X72.198 Y76.536 E1.29979
G1 X72.785 Y76.799 E1.32118
G1 X73.082 Y76.937 E1.33208
G1 X73.497 Y77.138 E1.34741
G1 X74.323 Y77.582 E1.3786
G1 X74.863 Y77.925 E1.39988
G1 X75.394 Y78.284 E1.4212
G1 X75.688 Y78.49 E1.43314
G1 X76.073 Y78.769 E1.44895
G1 X78.414 Y80.514 E1.54607
G1 X80.472 Y81.959 E1.6297
G1 X82.603 Y83.367 E1.71466
G1 X84.71 Y84.675 E1.79714
G1 X86.884 Y85.941 E1.88081
G1 X89.121 Y87.161 E1.96556
G1 X91.336 Y88.288 E2.04822
G1 X93.643 Y89.381 E2.13313
G1 X95.939 Y90.39 E2.21654
G1 X98.257 Y91.333 E2.29978
G1 X100.616 Y92.212 E2.38351
G1 X103.005 Y93.029 E2.46748
G1 X105.424 Y93.779 E2.55172
G1 X107.834 Y94.453 E2.63495
G1 X110.255 Y95.058 E2.71795
G1 X112.742 Y95.605 E2.80264
G1 X115.194 Y96.07 E2.88565
G1 X117.715 Y96.475 E2.97058
G1 X120.16 Y96.798 E3.0526
G1 X122.71 Y97.061 E3.13787
G1 X125.188 Y97.247 E3.22052
G1 X127.686 Y97.363 E3.30369
G1 X130.702 Y97.412 E3.40402
G1 X179.301 Y97.413 E5.02043
G1 X179.952 Y97.422 E5.04208
G1 X180.594 Y97.45 E5.06345
G1 X181.271 Y97.499 E5.08603
G1 X181.619 Y97.529 E5.09765
G1 X182.079 Y97.577 E5.11303
G1 X183.006 Y97.714 E5.1442
G1 X183.629 Y97.853 E5.16543
G1 X184.243 Y98.008 E5.18649
G1 X184.523 Y98.082 E5.19612
G1 X184.972 Y98.208 E5.21163
G1 X185.863 Y98.5 E5.24282
G1 X186.498 Y98.761 E5.26565
G1 X187.085 Y99.024 E5.28705
G1 X187.383 Y99.162 E5.29797
G1 X187.8 Y99.364 E5.31338
G1 X188.625 Y99.809 E5.34456
G1 X189.169 Y100.154 E5.36598
G1 X189.698 Y100.512 E5.38723
G1 X189.986 Y100.713 E5.39891
G1 X190.356 Y100.981 E5.4141
G1 X191.091 Y101.563 E5.44529
G1 X191.57 Y102.002 E5.4669
G1 X192.071 Y102.489 E5.49013
G1 X192.311 Y102.73 E5.50145
G1 X192.606 Y103.035 E5.51556
G1 X193.228 Y103.736 E5.54673
G1 X193.605 Y104.225 E5.56727
G1 X193.953 Y104.705 E5.58699
G1 X194.151 Y104.989 E5.5985
G1 X194.429 Y105.399 E5.61498
G1 X194.922 Y106.197 E5.64618
G1 X195.216 Y106.759 E5.66727
G1 X195.507 Y107.357 E5.68939
G1 X195.652 Y107.667 E5.70077
G1 X195.84 Y108.086 E5.71605
G1 X196.187 Y108.957 E5.74723
G1 X196.386 Y109.586 E5.76917
G1 X196.554 Y110.178 E5.78964
G1 X196.629 Y110.457 E5.79925
G1 X196.743 Y110.903 E5.81456
G1 X196.937 Y111.821 E5.84577
G1 X197.026 Y112.483 E5.86798
G1 X197.097 Y113.162 E5.89069
G1 X197.128 Y113.504 E5.90211
G1 X197.16 Y113.942 E5.91672
G1 X197.188 Y114.581 E5.93799
G1 X197.2 Y115.488 E5.96816
G1 X197.199 Y133.227 E6.55816
G1 X197.189 Y133.954 E6.58235
G1 X197.136 Y134.891 E6.61356
G1 X197.004 Y135.819 E6.64474
G1 X196.793 Y136.733 E6.67594
G1 X196.504 Y137.625 E6.70712
G1 X196.141 Y138.49 E6.73832
G1 X195.706 Y139.321 E6.76952
G1 X195.201 Y140.111 E6.80071
G1 X194.631 Y140.856 E6.83191
G1 X194 Y141.55 E6.8631
G1 X193.311 Y142.187 E6.89431
G1 X192.571 Y142.763 E6.9255
G1 X191.785 Y143.274 E6.95668
G1 X190.958 Y143.716 E6.98787
G1 X190.096 Y144.086 E7.01907
G1 X189.206 Y144.381 E7.05026
G1 X188.294 Y144.6 E7.08145
G1 X187.367 Y144.74 E7.11263
G1 X186.499 Y144.799 E7.14157
G1 X186.179 Y144.808 E7.15222
G1 X185.87 Y144.812 E7.1625
G1 X171.255 Y144.811 E7.64859
G1 X170.558 Y144.801 E7.67178
G1 X169.667 Y144.752 E7.70146
G1 X169.314 Y144.718 E7.71325
G1 X166.7 Y144.497 E7.8005
G1 X164.178 Y144.355 E7.88452
G1 X161.658 Y144.284 E7.96837
G1 X159.134 Y144.286 E8.05232
G1 X156.645 Y144.357 E8.13514
G1 X154.154 Y144.499 E8.21812
G1 X152.529 Y144.648 E8.2724
G1 X152.203 Y144.664 E8.28325
G1 X151.066 Y144.762 E8.32121
G1 X150.431 Y144.799 E8.34236
G1 X150.112 Y144.808 E8.35298
G1 X149.802 Y144.812 E8.36329
G1 X96.198 Y144.811 E10.14617
G1 X95.501 Y144.801 E10.16935
G1 X94.597 Y144.751 E10.19946
G1 X94.061 Y144.699 E10.21738
G1 X91.555 Y144.486 E10.30103
G1 X89.015 Y144.343 E10.38564
G1 X86.483 Y144.271 E10.46989
G1 X83.995 Y144.271 E10.55264
G1 X81.447 Y144.343 E10.63742
G1 X78.947 Y144.486 E10.72071
G1 X76.439 Y144.699 E10.80442
G1 X76.098 Y144.733 E10.81582
G1 X75.747 Y144.763 E10.82754
G1 X75.12 Y144.799 E10.84843
G1 X74.801 Y144.808 E10.85904
G1 X74.491 Y144.812 E10.86935
G1 X40.703 Y144.811 E11.99315
G1 X40.035 Y144.802 E12.01537
G1 X39.39 Y144.774 E12.03684
G1 X38.74 Y144.727 E12.05851
G1 X38.399 Y144.697 E12.0699
G1 X37.936 Y144.649 E12.08538
G1 X37.008 Y144.513 E12.11658
G1 X36.39 Y144.377 E12.13762
G1 X35.761 Y144.219 E12.15919
G1 X35.463 Y144.139 E12.16946
G1 X35.022 Y144.015 E12.18469
G1 X34.131 Y143.723 E12.21588
G1 X33.502 Y143.464 E12.2385
G1 X32.915 Y143.201 E12.2599
G1 X32.617 Y143.063 E12.27082
G1 X32.2 Y142.861 E12.28623
G1 X31.375 Y142.416 E12.31741
G1 X30.831 Y142.071 E12.33883
G1 X30.302 Y141.713 E12.36008
G1 X30.014 Y141.512 E12.37176
G1 X29.644 Y141.244 E12.38695
G1 X28.909 Y140.662 E12.41814
G1 X28.428 Y140.22 E12.43986
G1 X27.917 Y139.723 E12.46357
G1 X27.672 Y139.478 E12.4751
G1 X27.393 Y139.189 E12.48846
G1 X26.771 Y138.487 E12.51965
G1 X26.401 Y138.005 E12.53986
G1 X26.019 Y137.478 E12.56151
G1 X25.819 Y137.192 E12.57312
G1 X25.571 Y136.826 E12.58782
G1 X25.078 Y136.028 E12.61902
G1 X24.787 Y135.471 E12.63992
G1 X24.49 Y134.861 E12.66249
G1 X24.348 Y134.559 E12.67359
G1 X24.164 Y134.15 E12.68851
G1 X23.816 Y133.279 E12.7197
G1 X23.614 Y132.642 E12.74193
G1 X23.447 Y132.054 E12.76226
G1 X23.373 Y131.779 E12.77173
G1 X23.259 Y131.334 E12.78701
G1 X23.065 Y130.416 E12.81822
G1 X22.972 Y129.726 E12.84137
G1 X22.9 Y129.024 E12.86484
G1 X22.871 Y128.691 E12.87596
G1 X22.839 Y128.246 E12.8908
G1 X22.812 Y127.624 E12.91151
G1 X22.8 Y126.733 E12.94115
G1 X22.801 Y125.722 E12.97477
G1 X22.811 Y125.016 E12.99826
G1 X22.82 Y124.704 E13.00864
G1 X22.877 Y123.379 E13.05275
G1 X22.953 Y120.853 E13.1368
G1 X22.957 Y118.328 E13.22078
G1 X22.89 Y115.806 E13.30469
G1 X22.83 Y114.627 E13.34396
G1 X22.821 Y114.41 E13.35118
G1 X22.807 Y113.959 E13.36619
G1 X22.802 Y113.703 E13.37471
G1 X22.8 Y113.443 E13.38335
G1 X22.801 Y106.672 E13.60856
G1 X22.811 Y105.966 E13.63204
G1 X22.82 Y105.655 E13.64239
G1 X22.877 Y104.302 E13.68743
G1 X22.947 Y102.202 E13.75732
G1 X22.962 Y99.653 E13.8421
G1 X22.906 Y97.142 E13.92563
G1 X22.824 Y95.38 E13.9843
G1 X22.805 Y94.777 E14.00437
G1 X22.8 Y94.456 E14.01505
G1 X22.801 Y93.091 E14.06045
G1 X22.81 Y92.422 E14.0827
G1 X22.838 Y91.775 E14.10424
G1 X22.885 Y91.126 E14.12588
G1 X22.913 Y90.803 E14.13666
G1 X22.96 Y90.343 E14.15204
G1 X23.095 Y89.415 E14.18323
G1 X23.237 Y88.769 E14.20523
G1 X23.397 Y88.135 E14.22698
G1 X23.475 Y87.843 E14.23703
G1 X23.599 Y87.403 E14.25224
G1 X23.892 Y86.512 E14.28343
G1 X24.158 Y85.869 E14.30658
G1 X24.422 Y85.283 E14.32796
G1 X24.542 Y85.025 E14.33742
G1 X24.743 Y84.608 E14.35282
G1 X25.186 Y83.781 E14.38402
G1 X25.542 Y83.219 E14.40615
G1 X25.9 Y82.69 E14.42739
G1 X26.096 Y82.41 E14.43876
G1 X26.37 Y82.031 E14.45431
G1 X26.951 Y81.295 E14.4855
G1 X27.395 Y80.81 E14.50737
G1 X27.842 Y80.35 E14.52871
G1 X28.073 Y80.119 E14.53957
G1 X28.403 Y79.799 E14.55486
G1 X29.104 Y79.175 E14.58607
G1 X29.599 Y78.794 E14.60685
G1 X30.139 Y78.402 E14.62904
G1 X30.44 Y78.191 E14.64127
G1 X30.795 Y77.951 E14.65552
G1 X31.594 Y77.459 E14.68673
G1 X32.141 Y77.174 E14.70725
G1 X32.751 Y76.877 E14.72981
G1 X33.066 Y76.729 E14.74139
G1 X33.472 Y76.547 E14.75619
G0 F6000 X33.636 Y76.912
G1 F1200 X34.492 Y76.573 E14.78681
G1 X35.076 Y76.388 E14.80718
G1 X35.657 Y76.223 E14.82727
G1 X35.936 Y76.148 E14.83688
G1 X36.403 Y76.029 E14.85291
G1 X37.304 Y75.841 E14.88352
G1 X37.928 Y75.757 E14.90446
G1 X38.604 Y75.687 E14.92707
G1 X38.932 Y75.659 E14.93802
G1 X39.361 Y75.628 E14.95232
G1 X39.957 Y75.601 E14.97217
G1 X40.882 Y75.588 E15.00293
G1 X64.849 Y75.588 E15.80008
G1 X65.661 Y75.598 E15.82709
G1 X66.284 Y75.625 E15.84783
G1 X66.933 Y75.672 E15.86947
G1 X67.26 Y75.701 E15.88039
G1 X67.723 Y75.749 E15.89587
G1 X68.634 Y75.883 E15.9265
G1 X69.212 Y76.011 E15.94619
G1 X69.841 Y76.169 E15.96776
G1 X70.128 Y76.246 E15.97764
G1 X70.569 Y76.37 E15.99288
G1 X71.444 Y76.657 E16.02351
G1 X72.034 Y76.901 E16.04474
G1 X72.621 Y77.164 E16.06614
G1 X72.908 Y77.297 E16.07666
G1 X73.323 Y77.498 E16.09199
G1 X74.133 Y77.935 E16.12261
G1 X74.639 Y78.257 E16.14255
G1 X75.17 Y78.616 E16.16387
G1 X75.453 Y78.814 E16.17536
G1 X75.838 Y79.093 E16.19117
G1 X78.213 Y80.863 E16.28969
G1 X80.243 Y82.288 E16.37218
G1 X82.377 Y83.698 E16.45725
G1 X84.503 Y85.018 E16.54049
G1 X86.713 Y86.305 E16.62555
G1 X88.9 Y87.497 E16.70839
G1 X91.176 Y88.655 E16.79332
G1 X93.461 Y89.738 E16.87743
G1 X95.763 Y90.75 E16.96107
G1 X98.145 Y91.718 E17.04658
G1 X100.495 Y92.594 E17.13
G1 X102.862 Y93.403 E17.2132
G1 X105.293 Y94.158 E17.29786
G1 X107.744 Y94.843 E17.38251
G1 X110.178 Y95.451 E17.46595
G1 X112.653 Y95.995 E17.55023
G1 X115.127 Y96.464 E17.63398
G1 X117.635 Y96.867 E17.71847
G1 X120.134 Y97.197 E17.80231
G1 X122.675 Y97.46 E17.88727
G1 X125.174 Y97.647 E17.97062
G1 X127.662 Y97.763 E18.05346
G1 X130.696 Y97.812 E18.15439
G1 X179.296 Y97.813 E19.77083
G1 X179.947 Y97.822 E19.79249
G1 X180.565 Y97.849 E19.81306
G1 X181.242 Y97.898 E19.83564
G1 X181.577 Y97.927 E19.84682
G1 X182.037 Y97.975 E19.8622
G1 X182.948 Y98.11 E19.89283
G1 X183.532 Y98.24 E19.91273
G1 X184.146 Y98.395 E19.9338
G1 X184.415 Y98.467 E19.94306
G1 X184.864 Y98.593 E19.95857
G1 X185.739 Y98.88 E19.9892
G1 X186.334 Y99.126 E20.01061
G1 X186.921 Y99.389 E20.032
G1 X187.208 Y99.522 E20.04252
G1 X187.625 Y99.724 E20.05794
G1 X188.435 Y100.161 E20.08855
G1 X188.945 Y100.485 E20.10864
G1 X189.474 Y100.843 E20.12989
G1 X189.751 Y101.037 E20.14114
G1 X190.121 Y101.305 E20.15633
G1 X190.843 Y101.877 E20.18697
G1 X191.291 Y102.289 E20.20721
G1 X191.792 Y102.776 E20.23045
G1 X192.023 Y103.008 E20.24134
G1 X192.318 Y103.313 E20.25545
G1 X192.929 Y104.002 E20.28608
G1 X193.281 Y104.46 E20.30529
G1 X193.629 Y104.94 E20.32501
G1 X193.82 Y105.213 E20.3361
G1 X194.098 Y105.623 E20.35257
G1 X194.581 Y106.407 E20.3832
G1 X194.856 Y106.934 E20.40297
G1 X195.147 Y107.532 E20.42509
G1 X195.287 Y107.831 E20.43607
G1 X195.475 Y108.25 E20.45134
G1 X195.815 Y109.105 E20.48195
G1 X196.001 Y109.695 E20.50252
G1 X196.169 Y110.287 E20.52299
G1 X196.242 Y110.556 E20.53226
G1 X196.356 Y111.002 E20.54757
G1 X196.545 Y111.903 E20.57819
G1 X196.629 Y112.525 E20.59907
G1 X196.7 Y113.204 E20.62177
G1 X196.729 Y113.534 E20.63279
G1 X196.761 Y113.972 E20.6474
G1 X196.788 Y114.587 E20.66787
G1 X196.8 Y115.488 E20.69784
G1 X196.799 Y133.222 E21.28768
G1 X196.789 Y133.949 E21.31186
G1 X196.736 Y134.868 E21.34248
G1 X196.604 Y135.779 E21.37309
G1 X196.393 Y136.675 E21.40371
G1 X196.106 Y137.55 E21.43434
G1 X195.743 Y138.396 E21.46496
G1 X195.309 Y139.208 E21.49558
G1 X194.805 Y139.979 E21.52622
G1 X194.237 Y140.703 E21.55682
G1 X193.608 Y141.375 E21.58744
G1 X192.923 Y141.99 E21.61806
G1 X192.187 Y142.543 E21.64868
G1 X191.406 Y143.031 E21.67931
G1 X190.586 Y143.449 E21.70992
G1 X189.732 Y143.794 E21.74055
G1 X188.852 Y144.063 E21.77116
G1 X187.951 Y144.256 E21.80181
G1 X187.038 Y144.369 E21.8324
G1 X186.488 Y144.399 E21.85072
G1 X186.168 Y144.408 E21.86137
G1 X185.87 Y144.412 E21.87128
G1 X171.261 Y144.411 E22.35718
G1 X170.564 Y144.401 E22.38037
G1 X169.705 Y144.354 E22.40898
G1 X169.292 Y144.314 E22.42278
G1 X166.72 Y144.096 E22.50863
G1 X164.213 Y143.955 E22.59215
G1 X161.669 Y143.884 E22.67679
G1 X159.158 Y143.886 E22.76031
G1 X156.61 Y143.959 E22.84509
G1 X154.125 Y144.101 E22.92788
G1 X152.493 Y144.25 E22.98238
G1 X152.18 Y144.265 E22.99281
G1 X151.031 Y144.364 E23.03116
G1 X150.42 Y144.399 E23.05152
G1 X150.101 Y144.408 E23.06213
G1 X149.802 Y144.412 E23.07208
G1 X96.204 Y144.411 E24.85476
G1 X95.507 Y144.401 E24.87794
G1 X94.635 Y144.352 E24.90699
G1 X94.213 Y144.311 E24.92109
G1 X91.542 Y144.084 E25.01025
G1 X89.05 Y143.943 E25.09327
G1 X86.494 Y143.871 E25.17831
G1 X83.984 Y143.871 E25.26179
G1 X81.447 Y143.943 E25.34621
G1 X78.93 Y144.086 E25.43006
G1 X76.358 Y144.305 E25.51592
G1 X76.064 Y144.334 E25.52574
G1 X75.713 Y144.364 E25.53746
G1 X75.109 Y144.399 E25.55758
G1 X74.79 Y144.408 E25.5682
G1 X74.491 Y144.412 E25.57814
G1 X40.708 Y144.411 E26.70177
G1 X40.04 Y144.402 E26.72399
G1 X39.419 Y144.375 E26.74466
G1 X38.769 Y144.328 E26.76634
G1 X38.44 Y144.299 E26.77732
G1 X37.977 Y144.251 E26.7928
G1 X37.066 Y144.117 E26.82343
G1 X36.488 Y143.989 E26.84312
G1 X35.859 Y143.831 E26.86469
G1 X35.572 Y143.754 E26.87457
G1 X35.131 Y143.63 E26.88981
G1 X34.256 Y143.343 E26.92044
G1 X33.666 Y143.099 E26.94167
G1 X33.079 Y142.836 E26.96307
G1 X32.792 Y142.703 E26.97359
G1 X32.375 Y142.501 E26.989
G1 X31.565 Y142.064 E27.01961
G1 X31.055 Y141.74 E27.03971
G1 X30.526 Y141.382 E27.06095
G1 X30.249 Y141.188 E27.0722
G1 X29.879 Y140.92 E27.0874
G1 X29.157 Y140.348 E27.11803
G1 X28.706 Y139.934 E27.13839
G1 X28.195 Y139.437 E27.1621
G1 X27.96 Y139.2 E27.1732
G1 X27.681 Y138.911 E27.18656
G1 X27.071 Y138.222 E27.21717
G1 X26.725 Y137.77 E27.2361
G1 X26.343 Y137.243 E27.25775
G1 X26.15 Y136.968 E27.26893
G1 X25.902 Y136.602 E27.28363
G1 X25.419 Y135.818 E27.31426
G1 X25.147 Y135.296 E27.33384
G1 X24.85 Y134.686 E27.3564
G1 X24.713 Y134.395 E27.3671
G1 X24.529 Y133.986 E27.38202
G1 X24.188 Y133.131 E27.41263
G1 X23.999 Y132.533 E27.43349
G1 X23.832 Y131.945 E27.45382
G1 X23.761 Y131.68 E27.46295
G1 X23.647 Y131.235 E27.47823
G1 X23.457 Y130.334 E27.50885
G1 X23.37 Y129.686 E27.5306
G1 X23.298 Y128.984 E27.55407
G1 X23.27 Y128.662 E27.56482
G1 X23.238 Y128.217 E27.57966
G1 X23.212 Y127.618 E27.5996
G1 X23.2 Y126.733 E27.62904
G1 X23.201 Y125.728 E27.66246
G1 X23.211 Y125.022 E27.68595
G1 X23.22 Y124.721 E27.69596
G1 X23.278 Y123.367 E27.74104
G1 X23.353 Y120.866 E27.82426
G1 X23.357 Y118.318 E27.90901
G1 X23.289 Y115.774 E27.99365
G1 X23.221 Y114.398 E28.03947
G1 X23.207 Y113.947 E28.05448
G1 X23.202 Y113.7 E28.0627
G1 X23.2 Y113.44 E28.07135
G1 X23.201 Y106.678 E28.29625
G1 X23.211 Y105.972 E28.31973
G1 X23.22 Y105.672 E28.32972
G1 X23.277 Y104.325 E28.37456
G1 X23.347 Y102.217 E28.44471
G1 X23.362 Y99.646 E28.53022
G1 X23.306 Y97.114 E28.61446
G1 X23.224 Y95.361 E28.67283
G1 X23.205 Y94.765 E28.69266
G1 X23.2 Y94.456 E28.70294
G1 X23.201 Y93.096 E28.74817
G1 X23.21 Y92.427 E28.77043
G1 X23.237 Y91.804 E28.79117
G1 X23.284 Y91.155 E28.81281
G1 X23.311 Y90.844 E28.82319
G1 X23.358 Y90.384 E28.83857
G1 X23.491 Y89.473 E28.86919
G1 X23.625 Y88.867 E28.88983
G1 X23.785 Y88.233 E28.91158
G1 X23.86 Y87.952 E28.92126
G1 X23.984 Y87.512 E28.93646
G1 X24.272 Y86.637 E28.9671
G1 X24.522 Y86.033 E28.98884
G1 X24.786 Y85.447 E29.01022
G1 X24.902 Y85.198 E29.01935
G1 X25.103 Y84.781 E29.03475
G1 X25.539 Y83.97 E29.06538
G1 X25.873 Y83.443 E29.08613
G1 X26.231 Y82.914 E29.10737
G1 X26.42 Y82.645 E29.11831
G1 X26.694 Y82.266 E29.13386
G1 X27.265 Y81.544 E29.16448
