;FLAVOR:Marlin
;TIME:38355
;Filament used: 27.129m
;Layer height: 0.2
;MINX:15.281
;MINY:8.016
;MINZ:0.2
;MAXX:216.357
;MAXY:204.719
;MAXZ:25.4
;Generated with Cura_SteamEngine 4.11.0
M140 S50
M105
M190 S50
M104 S200
M105
M109 S200
M82 ;absolute extrusion mode
; Ender 3 Custom Start G-code
G92 E0 ; Reset Extruder
G28 ; Home all axes
G29 ; Auto bed-level (BL-Touch)
G1 Z2.0 F3000 ; Move Z Axis up little to prevent scratching of Heat Bed
G1 X0.1 Y20 Z0.3 F5000.0 ; Move to start position
G1 X0.1 Y200.0 Z0.3 F1500.0 E15 ; Draw the first line
G1 X0.4 Y200.0 Z0.3 F5000.0 ; Move to side a little
G1 X0.4 Y20 Z0.3 F1500.0 E30 ; Draw the second line
G92 E0 ; Reset Extruder
G1 Z2.0 F3000 ; Move Z Axis up little to prevent scratching of Heat Bed
G1 X5 Y20 Z0.3 F5000.0 ; Move over to prevent blob squish
G92 E0
G92 E0
G1 F2700 E-5
;LAYER_COUNT:127
;LAYER:0
M107
G0 F6000 X28.982 Y20.004 Z0.2
;TYPE:SKIRT
G1 F2700 E0
G1 F1200 X29.948 Y19.158 E0.04271
G1 X31.265 Y18.148 E0.09791
G1 X31.991 Y17.641 E0.12736
G1 X32.76 Y17.202 E0.15681
G1 X33.475 Y16.871 E0.18302
G1 X35.004 Y16.237 E0.23807
G1 X35.837 Y15.936 E0.26753
G1 X36.693 Y15.71 E0.29698
G1 X37.476 Y15.574 E0.32341
G1 X39.121 Y15.357 E0.3786
G1 X40.003 Y15.281 E0.40804
G1 X40.888 Y15.285 E0.43748
G1 X41.684 Y15.357 E0.46406
G1 X43.33 Y15.574 E0.51928
G1 X44.201 Y15.729 E0.54871
G1 X45.055 Y15.963 E0.57816
G1 X45.805 Y16.238 E0.60473
G1 X47.333 Y16.872 E0.65975
G1 X48.134 Y17.248 E0.68918
G1 X48.899 Y17.695 E0.71865
G1 X49.541 Y18.148 E0.74478
G1 X50.858 Y19.158 E0.79998
G1 X51.824 Y20.004 E0.84269
G1 X61.525 Y29.705 E1.299
G1 X61.528 Y28.828 E1.32817
G1 X61.601 Y28.015 E1.35532
G1 X61.765 Y26.78 E1.39675
G1 X61.921 Y25.909 E1.42618
G1 X62.155 Y25.055 E1.45563
G1 X62.424 Y24.326 E1.48148
G1 X62.897 Y23.182 E1.52265
G1 X63.271 Y22.38 E1.55208
G1 X63.717 Y21.615 E1.58154
G1 X64.174 Y20.966 E1.60794
G1 X64.931 Y19.978 E1.64934
G1 X65.781 Y19.008 E1.69223
G1 X72.517 Y12.273 E2.00905
G1 X73.481 Y11.428 E2.05169
G1 X74.469 Y10.67 E2.0931
G1 X75.195 Y10.163 E2.12256
G1 X75.963 Y9.724 E2.15198
G1 X76.688 Y9.389 E2.17854
G1 X77.834 Y8.915 E2.21979
G1 X78.667 Y8.614 E2.24925
G1 X79.523 Y8.389 E2.27869
G1 X80.289 Y8.256 E2.30455
G1 X81.523 Y8.092 E2.34595
G1 X82.405 Y8.016 E2.37539
G1 X83.29 Y8.019 E2.40483
G1 X84.104 Y8.092 E2.43201
G1 X85.339 Y8.256 E2.47345
G1 X86.21 Y8.412 E2.50288
G1 X87.064 Y8.646 E2.53233
G1 X87.797 Y8.916 E2.55831
G1 X88.942 Y9.39 E2.59953
G1 X89.744 Y9.765 E2.62897
G1 X90.509 Y10.211 E2.65843
G1 X91.155 Y10.667 E2.68473
G1 X92.144 Y11.425 E2.72617
G1 X93.113 Y12.273 E2.769
G1 X108.021 Y27.181 E3.47023
G1 X108.088 Y26.44 E3.49497
G1 X108.414 Y23.972 E3.57777
G1 X108.57 Y23.1 E3.60723
G1 X108.803 Y22.246 E3.63668
G1 X109.075 Y21.507 E3.66287
G1 X110.024 Y19.214 E3.74541
G1 X110.399 Y18.413 E3.77482
G1 X110.845 Y17.648 E3.80428
G1 X111.303 Y16.997 E3.83075
G1 X112.818 Y15.022 E3.91354
G1 X113.388 Y14.345 E3.94297
G1 X114.017 Y13.722 E3.97242
G1 X114.632 Y13.209 E3.99906
G1 X116.606 Y11.696 E4.08178
G1 X117.333 Y11.19 E4.11124
G1 X118.101 Y10.751 E4.14066
G1 X118.815 Y10.421 E4.16682
G1 X121.109 Y9.47 E4.24942
G1 X121.941 Y9.168 E4.27886
G1 X122.797 Y8.943 E4.3083
G1 X123.578 Y8.807 E4.33466
G1 X126.045 Y8.481 E4.41743
G1 X126.927 Y8.405 E4.44687
G1 X127.812 Y8.409 E4.47631
G1 X128.613 Y8.481 E4.50306
G1 X131.08 Y8.807 E4.58582
G1 X131.951 Y8.963 E4.61525
G1 X132.805 Y9.196 E4.6447
G1 X133.548 Y9.47 E4.67104
G1 X135.843 Y10.421 E4.75366
G1 X136.644 Y10.796 E4.78308
G1 X137.409 Y11.242 E4.81253
G1 X138.055 Y11.697 E4.83881
G1 X140.028 Y13.21 E4.92151
G1 X140.705 Y13.78 E4.95094
G1 X141.328 Y14.409 E4.98039
G1 X141.359 Y14.447 E4.98202
G1 X141.677 Y14.069 E4.99845
G1 X142.306 Y13.446 E5.02789
G1 X142.921 Y12.933 E5.05453
G1 X144.895 Y11.419 E5.13727
G1 X145.621 Y10.912 E5.16673
G1 X146.39 Y10.473 E5.19618
G1 X147.109 Y10.141 E5.22252
G1 X149.403 Y9.191 E5.3051
G1 X150.236 Y8.889 E5.33457
G1 X151.092 Y8.664 E5.36401
G1 X151.87 Y8.529 E5.39027
G1 X154.338 Y8.203 E5.47307
G1 X155.22 Y8.127 E5.50251
G1 X156.105 Y8.131 E5.53195
G1 X156.905 Y8.203 E5.55867
G1 X159.372 Y8.529 E5.64143
G1 X160.243 Y8.685 E5.67086
G1 X161.097 Y8.918 E5.7003
G1 X161.838 Y9.191 E5.72657
G1 X164.132 Y10.141 E5.80915
G1 X164.933 Y10.516 E5.83857
G1 X165.698 Y10.962 E5.86802
G1 X166.346 Y11.419 E5.89439
G1 X168.32 Y12.933 E5.97714
G1 X168.997 Y13.503 E6.00657
G1 X169.621 Y14.131 E6.03602
G1 X170.132 Y14.744 E6.06256
G1 X171.647 Y16.719 E6.14535
G1 X172.153 Y17.445 E6.17478
G1 X172.592 Y18.214 E6.20423
G1 X172.926 Y18.936 E6.23069
G1 X173.875 Y21.229 E6.31323
G1 X174.176 Y22.062 E6.34269
G1 X174.401 Y22.918 E6.37213
G1 X174.536 Y23.693 E6.39829
G1 X174.862 Y26.16 E6.48106
G1 X174.938 Y27.042 E6.5105
G1 X174.934 Y27.927 E6.53994
G1 X174.862 Y28.727 E6.56666
G1 X174.536 Y31.195 E6.64945
G1 X174.38 Y32.067 E6.67892
G1 X174.147 Y32.921 E6.70836
G1 X173.875 Y33.66 E6.73455
G1 X172.926 Y35.953 E6.81709
G1 X172.551 Y36.754 E6.84651
G1 X172.105 Y37.519 E6.87596
G1 X171.647 Y38.17 E6.90243
G1 X170.132 Y40.145 E6.98522
G1 X169.562 Y40.822 E7.01466
G1 X168.933 Y41.445 E7.0441
G1 X168.318 Y41.958 E7.07074
G1 X166.344 Y43.471 E7.15346
G1 X165.617 Y43.977 E7.18292
G1 X164.849 Y44.416 E7.21235
G1 X164.135 Y44.746 E7.23851
G1 X161.841 Y45.697 E7.3211
G1 X161.009 Y45.999 E7.35054
G1 X160.153 Y46.224 E7.37998
G1 X159.368 Y46.36 E7.40648
G1 X156.901 Y46.685 E7.48924
G1 X156.019 Y46.761 E7.51868
G1 X155.134 Y46.757 E7.54812
G1 X154.342 Y46.685 E7.57457
G1 X151.874 Y46.36 E7.65736
G1 X151.002 Y46.205 E7.68682
G1 X150.148 Y45.972 E7.71626
G1 X149.4 Y45.697 E7.74277
G1 X147.106 Y44.746 E7.82537
G1 X146.304 Y44.37 E7.85483
G1 X145.54 Y43.924 E7.88425
G1 X144.897 Y43.471 E7.91041
G1 X142.923 Y41.958 E7.99313
G1 X142.246 Y41.388 E8.02257
G1 X141.622 Y40.76 E8.05201
G1 X141.589 Y40.721 E8.05371
G1 X141.27 Y41.1 E8.07019
G1 X140.641 Y41.723 E8.09964
G1 X140.028 Y42.235 E8.1262
G1 X138.055 Y43.748 E8.2089
G1 X137.328 Y44.254 E8.23836
G1 X136.56 Y44.693 E8.26778
G1 X135.843 Y45.024 E8.29404
G1 X133.548 Y45.975 E8.37667
G1 X132.715 Y46.277 E8.40614
G1 X131.859 Y46.502 E8.43558
G1 X131.08 Y46.638 E8.46188
G1 X128.613 Y46.964 E8.54465
G1 X127.868 Y47.028 E8.56952
G1 X212.099 Y131.26 E12.53151
G1 X212.943 Y132.224 E12.57412
G1 X213.702 Y133.213 E12.61559
G1 X214.209 Y133.938 E12.64501
G1 X214.648 Y134.707 E12.67446
G1 X214.983 Y135.431 E12.701
G1 X215.457 Y136.576 E12.74221
G1 X215.758 Y137.408 E12.77164
G1 X215.983 Y138.264 E12.80108
G1 X216.118 Y139.041 E12.82731
G1 X216.281 Y140.275 E12.86871
G1 X216.357 Y141.157 E12.89815
G1 X216.353 Y142.042 E12.92759
G1 X216.281 Y142.84 E12.95424
G1 X216.118 Y144.075 E12.99567
G1 X215.962 Y144.947 E13.02513
G1 X215.729 Y145.801 E13.05458
G1 X215.456 Y146.544 E13.0809
G1 X214.982 Y147.688 E13.12209
G1 X214.606 Y148.49 E13.15155
G1 X214.16 Y149.254 E13.18097
G1 X213.707 Y149.897 E13.20714
G1 X212.95 Y150.885 E13.24853
G1 X212.101 Y151.855 E13.29141
G1 X205.366 Y158.59 E13.6082
G1 X204.401 Y159.435 E13.65086
G1 X203.413 Y160.193 E13.69228
G1 X202.687 Y160.7 E13.72173
G1 X201.919 Y161.139 E13.75116
G1 X201.2 Y161.471 E13.7775
G1 X200.054 Y161.946 E13.81876
G1 X199.222 Y162.248 E13.8482
G1 X198.366 Y162.473 E13.87763
G1 X197.584 Y162.609 E13.90403
G1 X196.349 Y162.772 E13.94547
G1 X195.467 Y162.848 E13.97491
G1 X194.664 Y162.844 E14.00162
G1 X199.996 Y168.176 E14.25242
G1 X200.842 Y169.141 E14.2951
G1 X201.853 Y170.459 E14.35035
G1 X202.359 Y171.185 E14.37978
G1 X202.798 Y171.954 E14.40924
G1 X203.13 Y172.671 E14.43552
G1 X203.763 Y174.198 E14.4905
G1 X204.065 Y175.03 E14.51993
G1 X204.29 Y175.886 E14.54937
G1 X204.426 Y176.67 E14.57584
G1 X204.643 Y178.316 E14.63106
G1 X204.719 Y179.198 E14.6605
G1 X204.715 Y180.083 E14.68994
G1 X204.643 Y180.879 E14.71652
G1 X204.426 Y182.524 E14.77171
G1 X204.271 Y183.395 E14.80113
G1 X204.037 Y184.249 E14.83058
G1 X203.764 Y184.993 E14.85694
G1 X203.131 Y186.521 E14.91195
G1 X202.755 Y187.322 E14.94138
G1 X202.309 Y188.087 E14.97083
G1 X201.854 Y188.733 E14.99711
G1 X200.845 Y190.049 E15.05227
G1 X199.998 Y191.016 E15.09503
G1 X191.018 Y199.996 E15.51742
G1 X190.055 Y200.84 E15.56001
G1 X188.738 Y201.851 E15.61523
G1 X188.013 Y202.357 E15.64464
G1 X187.244 Y202.797 E15.6741
G1 X186.52 Y203.132 E15.70064
G1 X184.991 Y203.765 E15.75568
G1 X184.158 Y204.066 E15.78514
G1 X183.302 Y204.291 E15.81457
G1 X182.524 Y204.426 E15.84084
G1 X180.879 Y204.643 E15.89602
G1 X179.997 Y204.719 E15.92547
G1 X179.112 Y204.715 E15.9549
G1 X178.316 Y204.643 E15.98149
G1 X176.67 Y204.426 E16.03671
G1 X175.799 Y204.271 E16.06613
G1 X174.945 Y204.037 E16.09558
G1 X174.2 Y203.764 E16.12197
G1 X172.672 Y203.131 E16.17698
G1 X171.871 Y202.755 E16.20641
G1 X171.106 Y202.309 E16.23586
G1 X170.456 Y201.851 E16.26231
G1 X169.139 Y200.84 E16.31753
G1 X168.176 Y199.996 E16.36012
G1 X20.002 Y51.822 E23.32977
G1 X19.155 Y50.855 E23.37253
G1 X18.146 Y49.539 E23.42768
G1 X17.64 Y48.813 E23.45712
G1 X17.201 Y48.044 E23.48657
G1 X16.87 Y47.329 E23.51277
G1 X16.237 Y45.802 E23.56775
G1 X15.935 Y44.97 E23.59719
G1 X15.71 Y44.114 E23.62663
G1 X15.574 Y43.33 E23.6531
G1 X15.357 Y41.684 E23.70832
G1 X15.281 Y40.802 E23.73776
G1 X15.285 Y39.917 E23.7672
G1 X15.357 Y39.121 E23.79378
G1 X15.574 Y37.476 E23.84897
G1 X15.729 Y36.605 E23.87839
G1 X15.963 Y35.751 E23.90784
G1 X16.236 Y35.007 E23.9342
G1 X16.869 Y33.479 E23.98921
G1 X17.245 Y32.678 E24.01864
G1 X17.691 Y31.913 E24.04809
G1 X18.146 Y31.267 E24.07437
G1 X19.155 Y29.951 E24.12953
G1 X20.002 Y28.984 E24.17228
G1 X28.982 Y20.004 E24.59468
G0 F6000 X29.265 Y20.287
G1 F1200 X30.192 Y19.475 E24.63566
G1 X31.509 Y18.465 E24.69087
G1 X32.22 Y17.97 E24.71968
G1 X32.974 Y17.542 E24.74852
G1 X33.629 Y17.241 E24.77249
G1 X35.158 Y16.607 E24.82755
G1 X35.973 Y16.312 E24.85637
G1 X36.812 Y16.094 E24.88521
G1 X37.529 Y15.971 E24.9094
G1 X39.174 Y15.754 E24.96459
G1 X40.037 Y15.68 E24.9934
G1 X40.904 Y15.686 E25.02224
G1 X41.632 Y15.754 E25.04655
G1 X43.278 Y15.971 E25.10177
G1 X44.131 Y16.123 E25.13059
G1 X44.967 Y16.354 E25.15944
G1 X45.651 Y16.608 E25.18371
G1 X47.179 Y17.242 E25.23873
G1 X47.964 Y17.611 E25.26758
G1 X48.711 Y18.05 E25.2964
G1 X49.297 Y18.465 E25.32028
G1 X50.614 Y19.475 E25.37548
G1 X51.541 Y20.287 E25.41647
G1 X62.029 Y30.775 E25.90979
G1 X61.998 Y30.542 E25.91761
G1 X61.923 Y29.679 E25.94642
G1 X61.929 Y28.812 E25.97526
G1 X61.998 Y28.068 E26.00011
G1 X62.162 Y26.833 E26.04155
G1 X62.315 Y25.979 E26.07041
G1 X62.547 Y25.144 E26.09923
G1 X62.793 Y24.478 E26.12284
G1 X63.266 Y23.334 E26.16402
G1 X63.634 Y22.549 E26.19285
G1 X64.073 Y21.801 E26.2217
G1 X64.491 Y21.209 E26.2458
G1 X65.248 Y20.221 E26.2872
G1 X66.064 Y19.291 E26.32835
G1 X72.8 Y12.556 E26.64517
G1 X73.724 Y11.745 E26.68606
G1 X74.712 Y10.987 E26.72748
G1 X75.424 Y10.492 E26.75632
G1 X76.178 Y10.064 E26.78516
G1 X76.841 Y9.759 E26.80943
G1 X77.987 Y9.285 E26.85068
G1 X78.803 Y8.991 E26.87953
G1 X79.642 Y8.773 E26.90836
G1 X80.342 Y8.653 E26.93198
G1 X81.576 Y8.489 E26.97338
G1 X82.439 Y8.414 E27.00219
G1 X83.306 Y8.42 E27.03103
G1 X84.051 Y8.489 E27.05592
G1 X85.286 Y8.653 E27.09735
G1 X86.14 Y8.806 E27.12621
G1 X86.975 Y9.038 E27.15503
G1 X87.644 Y9.286 E27.17877
G1 X88.789 Y9.76 E27.21998
G1 X89.574 Y10.128 E27.24882
G1 X90.322 Y10.567 E27.27766
G1 X90.912 Y10.984 E27.30169
G1 X91.901 Y11.742 E27.34314
G1 X92.83 Y12.556 E27.38422
G1 X108.415 Y28.141 E28.11729
G1 X108.411 Y28.091 E28.11896
G1 X108.417 Y27.224 E28.1478
G1 X108.485 Y26.492 E28.17225
G1 X108.811 Y24.024 E28.25505
G1 X108.964 Y23.171 E28.28387
G1 X109.195 Y22.335 E28.31272
G1 X109.444 Y21.66 E28.33665
G1 X110.393 Y19.367 E28.41919
G1 X110.762 Y18.582 E28.44804
G1 X111.2 Y17.835 E28.47684
G1 X111.621 Y17.241 E28.50105
G1 X113.136 Y15.266 E28.58384
G1 X113.694 Y14.603 E28.61267
G1 X114.312 Y13.994 E28.64152
G1 X114.876 Y13.526 E28.6659
G1 X116.85 Y12.013 E28.74862
G1 X117.561 Y11.518 E28.77744
G1 X118.316 Y11.091 E28.80629
G1 X118.968 Y10.791 E28.83016
G1 X121.262 Y9.84 E28.91275
G1 X122.078 Y9.545 E28.94161
G1 X122.917 Y9.327 E28.97044
G1 X123.631 Y9.204 E28.99454
G1 X126.098 Y8.878 E29.07731
G1 X126.961 Y8.804 E29.10612
G1 X127.828 Y8.81 E29.13495
G1 X128.56 Y8.878 E29.1594
G1 X131.027 Y9.204 E29.24217
G1 X131.881 Y9.357 E29.27103
G1 X132.716 Y9.588 E29.29984
G1 X133.394 Y9.839 E29.32389
G1 X135.689 Y10.79 E29.40651
G1 X136.474 Y11.159 E29.43536
G1 X137.222 Y11.598 E29.46421
G1 X137.811 Y12.015 E29.48821
G1 X139.784 Y13.528 E29.57091
G1 X140.447 Y14.086 E29.59973
G1 X141.056 Y14.704 E29.62859
G1 X141.362 Y15.073 E29.64453
G1 X141.425 Y14.99 E29.648
G1 X141.983 Y14.327 E29.67682
G1 X142.601 Y13.718 E29.70568
G1 X143.164 Y13.25 E29.73003
G1 X145.138 Y11.736 E29.81277
G1 X145.85 Y11.241 E29.84161
G1 X146.604 Y10.813 E29.87045
G1 X147.262 Y10.51 E29.89454
G1 X149.556 Y9.56 E29.97713
G1 X150.372 Y9.266 E30.00598
G1 X151.211 Y9.048 E30.03481
G1 X151.922 Y8.926 E30.0588
G1 X154.39 Y8.6 E30.1416
G1 X155.254 Y8.526 E30.17044
G1 X156.121 Y8.532 E30.19928
G1 X156.852 Y8.6 E30.2237
G1 X159.319 Y8.926 E30.30646
G1 X160.173 Y9.079 E30.33532
G1 X161.008 Y9.31 E30.36413
G1 X161.685 Y9.56 E30.38814
G1 X163.979 Y10.51 E30.47072
G1 X164.763 Y10.879 E30.49954
G1 X165.511 Y11.318 E30.52839
G1 X166.103 Y11.736 E30.55249
G1 X168.077 Y13.25 E30.63523
G1 X168.74 Y13.809 E30.66408
G1 X169.348 Y14.426 E30.69289
G1 X169.814 Y14.988 E30.71717
G1 X171.329 Y16.963 E30.79996
G1 X171.825 Y17.674 E30.82879
G1 X172.252 Y18.428 E30.85761
G1 X172.557 Y19.089 E30.88183
G1 X173.506 Y21.382 E30.96437
G1 X173.8 Y22.198 E30.99321
G1 X174.018 Y23.037 E31.02205
G1 X174.139 Y23.746 E31.04597
G1 X174.465 Y26.213 E31.12873
G1 X174.539 Y27.076 E31.15754
G1 X174.533 Y27.943 E31.18638
G1 X174.465 Y28.675 E31.21083
G1 X174.139 Y31.143 E31.29363
G1 X173.986 Y31.996 E31.32245
G1 X173.755 Y32.832 E31.3513
G1 X173.506 Y33.507 E31.37523
G1 X172.557 Y35.8 E31.45777
G1 X172.188 Y36.585 E31.48662
G1 X171.75 Y37.332 E31.51542
G1 X171.329 Y37.926 E31.53964
G1 X169.814 Y39.901 E31.62243
G1 X169.256 Y40.564 E31.65125
G1 X168.638 Y41.173 E31.68011
G1 X168.074 Y41.641 E31.70448
G1 X166.1 Y43.154 E31.7872
G1 X165.389 Y43.649 E31.81602
G1 X164.634 Y44.076 E31.84487
G1 X163.982 Y44.376 E31.86874
G1 X161.688 Y45.327 E31.95133
G1 X160.872 Y45.622 E31.98019
G1 X160.033 Y45.84 E32.00903
G1 X159.316 Y45.963 E32.03322
G1 X156.849 Y46.288 E32.11598
G1 X155.985 Y46.362 E32.14482
G1 X155.118 Y46.356 E32.17366
G1 X154.394 Y46.289 E32.19785
G1 X151.926 Y45.964 E32.28064
G1 X151.072 Y45.811 E32.3095
G1 X150.237 Y45.58 E32.33831
G1 X149.553 Y45.327 E32.36257
G1 X147.259 Y44.376 E32.44516
G1 X146.475 Y44.008 E32.47397
G1 X145.727 Y43.569 E32.50282
G1 X145.141 Y43.154 E32.5267
G1 X143.167 Y41.641 E32.60942
G1 X142.504 Y41.082 E32.63826
G1 X141.895 Y40.465 E32.6671
G1 X141.587 Y40.094 E32.68314
G1 X141.522 Y40.179 E32.6867
G1 X140.964 Y40.842 E32.71552
G1 X140.346 Y41.451 E32.74438
G1 X139.784 Y41.917 E32.76866
G1 X137.811 Y43.43 E32.85135
G1 X137.1 Y43.926 E32.88019
G1 X136.345 Y44.353 E32.90904
G1 X135.689 Y44.655 E32.93306
G1 X133.394 Y45.606 E33.01568
G1 X132.579 Y45.901 E33.04451
G1 X131.74 Y46.119 E33.07334
G1 X131.027 Y46.241 E33.0974
G1 X128.56 Y46.567 E33.18017
G1 X127.697 Y46.641 E33.20898
G1 X126.909 Y46.636 E33.23519
G1 X211.816 Y131.543 E37.22895
G1 X212.626 Y132.467 E37.26982
G1 X213.385 Y133.456 E37.31128
G1 X213.881 Y134.167 E37.34012
G1 X214.309 Y134.921 E37.36896
G1 X214.613 Y135.584 E37.39321
G1 X215.087 Y136.729 E37.43443
G1 X215.382 Y137.544 E37.46326
G1 X215.599 Y138.383 E37.49208
G1 X215.721 Y139.093 E37.51604
G1 X215.884 Y140.327 E37.55744
G1 X215.958 Y141.191 E37.58629
G1 X215.952 Y142.058 E37.61512
G1 X215.884 Y142.788 E37.63951
G1 X215.721 Y144.023 E37.68094
G1 X215.568 Y144.876 E37.70976
G1 X215.337 Y145.712 E37.73861
G1 X215.086 Y146.391 E37.76269
G1 X214.612 Y147.535 E37.80387
G1 X214.244 Y148.32 E37.83271
G1 X213.804 Y149.067 E37.86155
G1 X213.39 Y149.654 E37.88544
G1 X212.633 Y150.642 E37.92683
G1 X211.818 Y151.572 E37.96796
G1 X205.083 Y158.307 E38.28476
G1 X204.158 Y159.118 E38.32567
G1 X203.17 Y159.876 E38.36709
G1 X202.458 Y160.371 E38.39593
