;FLAVOR:Marlin
;TIME:21024
;Filament used: 16.0713m
;Layer height: 0.2
;MINX:76.338
;MINY:76.388
;MINZ:0.2
;MAXX:158.663
;MAXY:158.712
;MAXZ:12.6
;Generated with Cura_SteamEngine 4.10.0
M140 S50
M105
M190 S50
M104 S220
M105
M109 S220
M82 ;absolute extrusion mode
; Ender 3 Custom Start G-code
G92 E0 ; Reset Extruder
G28 ; Home all axes
G1 Z2.0 F3000 ; Move Z Axis up little to prevent scratching of Heat Bed
G1 X0.1 Y20 Z0.3 F5000.0 ; Move to start position
G1 X0.1 Y200.0 Z0.3 F1500.0 E15 ; Draw the first line
G1 X0.4 Y200.0 Z0.3 F5000.0 ; Move to side a little
G1 X0.4 Y20 Z0.3 F1500.0 E30 ; Draw the second line
G92 E0 ; Reset Extruder
G1 Z2.0 F3000 ; Move Z Axis up little to prevent scratching of Heat Bed
G1 X5 Y20 Z0.3 F5000.0 ; Move over to prevent blob squish
G92 E0
G92 E0
G1 F2700 E-5
;LAYER_COUNT:64
;LAYER:0
M107
G0 F6000 X79.536 Y79.652 Z0.2
;TYPE:SKIRT
G1 F2700 E0
G1 F1200 X80.224 Y79.015 E0.03119
G1 X80.964 Y78.439 E0.06237
G1 X81.75 Y77.927 E0.09357
G1 X82.577 Y77.485 E0.12476
G1 X83.439 Y77.115 E0.15596
G1 X84.329 Y76.819 E0.18716
G1 X85.241 Y76.601 E0.21835
G1 X86.168 Y76.46 E0.24953
G1 X87.039 Y76.401 E0.27857
G1 X87.36 Y76.392 E0.28925
G1 X87.668 Y76.388 E0.29949
G1 X146.956 Y76.388 E2.27142
G1 X147.812 Y76.399 E2.29989
G1 X148.748 Y76.453 E2.33108
G1 X149.676 Y76.585 E2.36225
G1 X150.59 Y76.797 E2.39346
G1 X151.482 Y77.086 E2.42465
G1 X152.347 Y77.449 E2.45585
G1 X153.177 Y77.885 E2.48703
G1 X153.968 Y78.39 E2.51824
G1 X154.712 Y78.961 E2.54944
G1 X155.405 Y79.593 E2.58063
G1 X156.042 Y80.281 E2.61182
G1 X156.617 Y81.022 E2.64301
G1 X157.128 Y81.808 E2.67419
G1 X157.57 Y82.636 E2.70541
G1 X157.939 Y83.498 E2.7366
G1 X158.234 Y84.388 E2.76778
G1 X158.452 Y85.3 E2.79897
G1 X158.592 Y86.228 E2.83019
G1 X158.65 Y87.089 E2.85889
G1 X158.659 Y87.409 E2.86954
G1 X158.663 Y87.718 E2.87981
G1 X158.662 Y147.112 E4.85527
G1 X158.653 Y147.839 E4.87945
G1 X158.602 Y148.776 E4.91066
G1 X158.47 Y149.704 E4.94184
G1 X158.261 Y150.618 E4.97302
G1 X157.974 Y151.511 E5.00422
G1 X157.612 Y152.377 E5.03544
G1 X157.178 Y153.208 E5.06662
G1 X156.674 Y153.999 E5.09781
G1 X156.105 Y154.744 E5.12899
G1 X155.474 Y155.439 E5.16021
G1 X154.787 Y156.077 E5.1914
G1 X154.048 Y156.654 E5.22258
G1 X153.262 Y157.166 E5.25378
G1 X152.436 Y157.609 E5.28496
G1 X151.574 Y157.981 E5.31618
G1 X150.685 Y158.277 E5.34735
G1 X149.773 Y158.497 E5.37855
G1 X148.846 Y158.638 E5.40974
G1 X147.962 Y158.699 E5.43921
G1 X147.641 Y158.708 E5.44989
G1 X147.333 Y158.712 E5.46013
G1 X87.903 Y158.711 E7.43678
G1 X87.205 Y158.702 E7.46
G1 X86.269 Y158.65 E7.49118
G1 X85.34 Y158.518 E7.52239
G1 X84.426 Y158.308 E7.55358
G1 X83.533 Y158.021 E7.58478
G1 X82.668 Y157.658 E7.61598
G1 X81.837 Y157.224 E7.64716
G1 X81.046 Y156.72 E7.67836
G1 X80.301 Y156.15 E7.70956
G1 X79.607 Y155.519 E7.74075
G1 X78.97 Y154.832 E7.77191
G1 X78.393 Y154.092 E7.80312
G1 X77.881 Y153.306 E7.83432
G1 X77.438 Y152.479 E7.86553
G1 X77.067 Y151.618 E7.89671
G1 X76.771 Y150.728 E7.9279
G1 X76.552 Y149.816 E7.9591
G1 X76.411 Y148.889 E7.99029
G1 X76.351 Y148 E8.01992
G1 X76.342 Y147.667 E8.031
G1 X76.338 Y147.37 E8.04088
G1 X76.339 Y87.913 E10.01843
G1 X76.348 Y87.248 E10.04055
G1 X76.401 Y86.312 E10.07173
G1 X76.533 Y85.383 E10.10294
G1 X76.744 Y84.469 E10.13414
G1 X77.032 Y83.577 E10.16532
G1 X77.395 Y82.712 E10.19652
G1 X77.83 Y81.881 E10.22771
G1 X78.334 Y81.091 E10.25888
G1 X78.904 Y80.346 E10.29008
G1 X79.536 Y79.652 E10.3213
G0 F6000 X79.927 Y79.827
G1 F1200 X80.612 Y79.211 E10.35194
G1 X81.348 Y78.658 E10.38256
G1 X82.129 Y78.17 E10.41319
G1 X82.949 Y77.752 E10.4438
G1 X83.803 Y77.407 E10.47444
G1 X84.683 Y77.137 E10.50505
G1 X85.583 Y76.945 E10.53566
G1 X86.497 Y76.831 E10.56629
G1 X87.05 Y76.801 E10.58471
G1 X87.371 Y76.792 E10.5954
G1 X87.668 Y76.788 E10.60527
G1 X146.956 Y76.788 E12.5772
G1 X147.806 Y76.799 E12.60547
G1 X148.725 Y76.852 E12.63609
G1 X149.636 Y76.985 E12.66671
G1 X150.532 Y77.196 E12.69733
G1 X151.406 Y77.484 E12.72794
G1 X152.253 Y77.847 E12.75859
G1 X153.064 Y78.282 E12.78919
G1 X153.834 Y78.786 E12.8198
G1 X154.558 Y79.355 E12.85043
G1 X155.23 Y79.985 E12.88107
G1 X155.845 Y80.67 E12.91169
G1 X156.398 Y81.406 E12.9423
G1 X156.885 Y82.187 E12.97292
G1 X157.302 Y83.008 E13.00354
G1 X157.647 Y83.862 E13.03418
G1 X157.916 Y84.742 E13.06478
G1 X158.108 Y85.643 E13.09542
G1 X158.221 Y86.556 E13.12602
G1 X158.25 Y87.1 E13.14414
G1 X158.259 Y87.42 E13.15479
G1 X158.263 Y87.718 E13.1647
G1 X158.262 Y147.107 E15.13999
G1 X158.253 Y147.834 E15.16417
G1 X158.202 Y148.753 E15.19478
G1 X158.071 Y149.665 E15.22543
G1 X157.861 Y150.561 E15.25604
G1 X157.575 Y151.436 E15.28665
G1 X157.214 Y152.283 E15.31728
G1 X156.78 Y153.095 E15.3479
G1 X156.278 Y153.867 E15.37853
G1 X155.71 Y154.592 E15.40916
G1 X155.082 Y155.265 E15.43978
G1 X154.398 Y155.881 E15.47039
G1 X153.663 Y156.435 E15.50101
G1 X152.883 Y156.924 E15.53163
G1 X152.063 Y157.343 E15.56225
G1 X151.21 Y157.689 E15.59287
G1 X150.33 Y157.96 E15.62349
G1 X149.43 Y158.153 E15.65411
G1 X148.516 Y158.268 E15.68475
G1 X147.951 Y158.299 E15.70357
G1 X147.63 Y158.308 E15.71425
G1 X147.333 Y158.312 E15.72413
G1 X87.908 Y158.311 E17.70061
G1 X87.21 Y158.302 E17.72383
G1 X86.291 Y158.25 E17.75444
G1 X85.38 Y158.119 E17.78506
G1 X84.484 Y157.909 E17.81566
G1 X83.609 Y157.622 E17.84629
G1 X82.762 Y157.26 E17.87693
G1 X81.95 Y156.826 E17.90755
G1 X81.179 Y156.324 E17.93815
G1 X80.454 Y155.756 E17.96878
G1 X79.781 Y155.127 E17.99942
G1 X79.166 Y154.443 E18.03002
G1 X78.612 Y153.708 E18.06063
G1 X78.124 Y152.927 E18.09126
G1 X77.705 Y152.107 E18.12189
G1 X77.359 Y151.254 E18.1525
G1 X77.089 Y150.374 E18.18312
G1 X76.896 Y149.473 E18.21377
G1 X76.782 Y148.56 E18.24437
G1 X76.751 Y147.989 E18.26339
G1 X76.742 Y147.656 E18.27447
G1 X76.738 Y147.37 E18.28398
G1 X76.739 Y87.919 E20.26133
G1 X76.748 Y87.254 E20.28345
G1 X76.8 Y86.334 E20.3141
G1 X76.932 Y85.423 E20.34471
G1 X77.143 Y84.527 E20.37533
G1 X77.43 Y83.652 E20.40596
G1 X77.793 Y82.806 E20.43658
G1 X78.227 Y81.994 E20.4672
G1 X78.73 Y81.223 E20.49782
G1 X79.299 Y80.499 E20.52845
G1 X79.927 Y79.827 E20.55904
G0 F6000 X80.319 Y80.005
G1 F1200 X81 Y79.412 E20.58907
G1 X81.732 Y78.882 E20.61913
G1 X82.507 Y78.419 E20.64916
G1 X83.32 Y78.026 E20.67919
G1 X84.165 Y77.706 E20.70924
G1 X85.034 Y77.463 E20.73925
G1 X85.922 Y77.297 E20.7693
G1 X87.061 Y77.201 E20.80732
G1 X87.382 Y77.192 E20.818
G1 X87.668 Y77.188 E20.82751
G1 X146.956 Y77.188 E22.79944
G1 X147.8 Y77.199 E22.82751
G1 X148.702 Y77.252 E22.85757
G1 X149.595 Y77.384 E22.88759
G1 X150.473 Y77.595 E22.91762
G1 X151.329 Y77.883 E22.94766
G1 X152.156 Y78.245 E22.97769
G1 X152.948 Y78.68 E23.00774
G1 X153.699 Y79.182 E23.03779
G1 X154.402 Y79.749 E23.06783
G1 X155.052 Y80.376 E23.09786
G1 X155.644 Y81.058 E23.1279
G1 X156.174 Y81.789 E23.15793
G1 X156.636 Y82.565 E23.18797
G1 X157.029 Y83.378 E23.218
G1 X157.347 Y84.223 E23.24803
G1 X157.59 Y85.093 E23.27808
G1 X157.755 Y85.981 E23.30812
G1 X157.85 Y87.111 E23.34583
G1 X157.859 Y87.431 E23.35648
G1 X157.863 Y87.718 E23.36603
G1 X157.862 Y147.102 E25.34115
G1 X157.853 Y147.829 E25.36533
G1 X157.802 Y148.731 E25.39538
G1 X157.671 Y149.625 E25.42543
G1 X157.462 Y150.503 E25.45545
G1 X157.176 Y151.36 E25.4855
G1 X156.815 Y152.188 E25.51554
G1 X156.383 Y152.98 E25.54555
G1 X155.882 Y153.732 E25.5756
G1 X155.316 Y154.436 E25.60565
G1 X154.691 Y155.087 E25.63566
G1 X154.01 Y155.681 E25.66572
G1 X153.279 Y156.212 E25.69577
G1 X152.505 Y156.676 E25.72578
G1 X151.692 Y157.07 E25.75583
G1 X150.848 Y157.39 E25.78585
G1 X149.978 Y157.635 E25.81591
G1 X149.091 Y157.801 E25.84593
G1 X147.94 Y157.899 E25.88435
G1 X147.619 Y157.908 E25.89503
G1 X147.333 Y157.912 E25.90454
G1 X87.913 Y157.911 E27.88086
G1 X87.215 Y157.902 E27.90408
G1 X86.314 Y157.851 E27.93409
G1 X85.42 Y157.719 E27.96415
G1 X84.542 Y157.51 E27.99417
G1 X83.685 Y157.223 E28.02423
G1 X82.858 Y156.862 E28.05424
G1 X82.065 Y156.429 E28.08429
G1 X81.314 Y155.928 E28.11432
G1 X80.61 Y155.362 E28.14436
G1 X79.959 Y154.736 E28.1744
G1 X79.366 Y154.055 E28.20444
G1 X78.836 Y153.324 E28.23447
G1 X78.372 Y152.549 E28.26451
G1 X77.978 Y151.736 E28.29456
G1 X77.658 Y150.892 E28.32458
G1 X77.414 Y150.022 E28.35463
G1 X77.248 Y149.134 E28.38468
G1 X77.151 Y147.979 E28.42323
G1 X77.142 Y147.646 E28.43431
G1 X77.138 Y147.37 E28.44349
G1 X77.139 Y87.924 E30.42067
G1 X77.148 Y87.259 E30.44279
G1 X77.2 Y86.357 E30.47284
G1 X77.332 Y85.464 E30.50287
G1 X77.542 Y84.586 E30.53289
G1 X77.829 Y83.729 E30.56295
G1 X78.191 Y82.902 E30.59298
G1 X78.624 Y82.11 E30.623
G1 X79.126 Y81.359 E30.65305
G1 X79.693 Y80.655 E30.68311
G1 X80.319 Y80.005 E30.71313
G1 F2700 E25.71313
;MESH:AA-Flat-Rubber.stl
G0 F6000 X95.504 Y113.518
G0 X95.038 Y112.132
G0 X93.175 Y113.656
G0 X92.422 Y114.54
G0 X91.88 Y115.566
G0 X91.569 Y116.682
G0 X91.507 Y117.84
G0 X91.695 Y118.985
G0 X92.124 Y120.061
G0 X92.776 Y121.021
G0 X93.616 Y121.819
G0 X94.612 Y122.418
G0 X95.711 Y122.787
G0 X96.363 Y122.857
G0 X98.049 Y122.945
;TYPE:WALL-INNER
G1 F2700 E30.71313
G1 F1200 X99.182 Y122.564 E30.75288
G1 X100.207 Y121.948 E30.79266
G1 X101.073 Y121.126 E30.83237
G1 X101.743 Y120.138 E30.87207
G1 X102.186 Y119.029 E30.91179
G1 X102.38 Y117.849 E30.95157
G1 X102.315 Y116.656 E30.99131
G1 X101.995 Y115.505 E31.03104
G1 X101.436 Y114.449 E31.07078
G1 X100.662 Y113.539 E31.11051
G1 X99.712 Y112.816 E31.15022
G1 X98.626 Y112.314 E31.19001
G1 X97.46 Y112.058 E31.22972
G1 X96.265 Y112.058 E31.26946
G1 X95.099 Y112.314 E31.30917
G1 X94.013 Y112.816 E31.34896
G1 X93.063 Y113.539 E31.38867
G1 X92.289 Y114.449 E31.4284
G1 X91.73 Y115.505 E31.46814
G1 X91.41 Y116.656 E31.50788
G1 X91.345 Y117.849 E31.54762
G1 X91.539 Y119.029 E31.58739
G1 X91.982 Y120.138 E31.62711
G1 X92.652 Y121.126 E31.66681
G1 X93.518 Y121.948 E31.70653
G1 X94.543 Y122.564 E31.7463
G1 X95.676 Y122.945 E31.78606
G1 X96.863 Y123.074 E31.82577
G1 X98.049 Y122.945 E31.86545
G0 F6000 X97.963 Y122.552
;TYPE:WALL-OUTER
G1 F1200 X99.013 Y122.199 E31.90229
G1 X99.963 Y121.628 E31.93916
G1 X100.766 Y120.866 E31.97598
G1 X101.388 Y119.949 E32.01283
G1 X101.798 Y118.921 E32.04964
G1 X101.978 Y117.827 E32.08652
G1 X101.918 Y116.721 E32.12336
G1 X101.621 Y115.654 E32.1602
G1 X101.103 Y114.675 E32.19703
G1 X100.385 Y113.831 E32.23389
G1 X99.504 Y113.161 E32.2707
G1 X98.498 Y112.695 E32.30758
G1 X97.417 Y112.458 E32.34439
G1 X96.308 Y112.458 E32.38127
G1 X95.227 Y112.695 E32.41808
G1 X94.221 Y113.161 E32.45496
G1 X93.34 Y113.831 E32.49177
G1 X92.622 Y114.675 E32.52862
G1 X92.104 Y115.654 E32.56546
G1 X91.807 Y116.721 E32.6023
G1 X91.747 Y117.827 E32.63914
G1 X91.927 Y118.921 E32.67602
G1 X92.337 Y119.949 E32.71283
G1 X92.959 Y120.866 E32.74968
G1 X93.762 Y121.628 E32.7865
G1 X94.712 Y122.199 E32.82336
G1 X95.762 Y122.552 E32.86021
G1 X96.863 Y122.672 E32.89704
G1 X97.963 Y122.552 E32.93385
G0 F6000 X98.057 Y122.981
G1 F2700 E27.93385
G0 F6000 X96.863 Y123.265
G0 X96.863 Y121.803
G0 X86.673 Y123.265
G0 X88.148 Y123.265
G0 X87.938 Y147.112
;TYPE:WALL-INNER
G1 F2700 E32.93385
G1 F1200 X87.938 Y87.988 E34.90032
G1 X147.063 Y87.988 E36.86683
G1 X147.063 Y147.112 E38.8333
G1 X87.938 Y147.112 E40.7998
G0 F6000 X87.538 Y147.512
;TYPE:WALL-OUTER
G1 F1200 X87.538 Y87.588 E42.79288
G1 X147.463 Y87.588 E44.786
G1 X147.463 Y147.512 E46.77908
G1 X87.538 Y147.512 E48.77219
G0 F6000 X87.808 Y147.242
G0 X88.048 Y146.722
G0 X88.328 Y146.722
;TYPE:SKIN
G1 F1200 X88.328 Y88.378 E50.71272
G1 X146.673 Y88.378 E52.65328
G1 X146.673 Y146.722 E54.59381
G1 X88.328 Y146.722 E56.53437
G1 F2700 E51.53437
G0 F6000 X88.048 Y146.722
G0 X88.148 Y123.054
G0 X86.673 Y123.054
G0 X94.289 Y120.936
G0 X93.402 Y122.101
G0 X95.652 Y123.054
G0 X95.592 Y123.328
G1 F2700 E56.53437
G1 F1200 X96.863 Y123.466 E56.5769
G1 X98.133 Y123.328 E56.61939
G1 X99.346 Y122.921 E56.66194
G1 X100.445 Y122.26 E56.7046
G1 X101.372 Y121.38 E56.74711
G1 X102.09 Y120.322 E56.78964
G1 X102.564 Y119.134 E56.83218
G1 X102.772 Y117.87 E56.87478
G1 X102.703 Y116.592 E56.91735
G1 X102.36 Y115.36 E56.95989
G1 X101.761 Y114.229 E57.00245
G1 X100.931 Y113.254 E57.04504
G1 X99.915 Y112.48 E57.08752
G1 X98.751 Y111.942 E57.13017
G1 X97.503 Y111.668 E57.17267
G1 X96.222 Y111.668 E57.21528
G1 X94.974 Y111.942 E57.25777
G1 X93.81 Y112.48 E57.30042
G1 X92.794 Y113.254 E57.3429
G1 X91.964 Y114.229 E57.38549
G1 X91.365 Y115.36 E57.42806
G1 X91.022 Y116.592 E57.47059
G1 X90.953 Y117.87 E57.51316
G1 X91.161 Y119.134 E57.55577
G1 X91.635 Y120.322 E57.59831
G1 X92.353 Y121.38 E57.64084
G1 X93.28 Y122.26 E57.68335
G1 X94.379 Y122.921 E57.72601
G1 X95.592 Y123.328 E57.76856
G1 F2700 E52.76856
G0 F6000 X95.652 Y123.054
G0 X95.949 Y121.703
G0 X95.635 Y148.377
G0 X95.635 Y146.902
G0 X88.861 Y147.002
G0 X88.861 Y146.561
G1 F2700 E57.76856
G1 F1200 X88.488 Y146.187 E57.78613
G0 F6000 X88.488 Y145.622
G1 F1200 X89.427 Y146.561 E57.8303
G0 F6000 X89.992 Y146.561
G1 F1200 X88.488 Y145.056 E57.90106
G0 F6000 X88.488 Y144.49
G1 F1200 X90.558 Y146.561 E57.99845
G0 F6000 X91.124 Y146.561
G1 F1200 X88.488 Y143.925 E58.12244
G0 F6000 X88.488 Y143.359
G1 F1200 X91.689 Y146.561 E58.27303
G0 F6000 X92.255 Y146.561
G1 F1200 X88.488 Y142.793 E58.45024
G0 F6000 X88.488 Y142.228
G1 F1200 X92.821 Y146.561 E58.65405
G0 F6000 X93.386 Y146.561
G1 F1200 X88.488 Y141.662 E58.88447
G0 F6000 X88.488 Y141.096
G1 F1200 X93.952 Y146.561 E59.1415
G0 F6000 X94.518 Y146.561
G1 F1200 X88.488 Y140.531 E59.42513
G0 F6000 X88.488 Y139.965
G1 F1200 X95.083 Y146.561 E59.73536
G0 F6000 X95.649 Y146.561
G1 F1200 X88.488 Y139.399 E60.07222
G0 F6000 X88.488 Y138.834
G1 F1200 X96.215 Y146.561 E60.43567
G0 F6000 X96.78 Y146.561
G1 F1200 X88.488 Y138.268 E60.82573
G0 F6000 X88.488 Y137.702
G1 F1200 X97.346 Y146.561 E61.2424
G0 F6000 X97.912 Y146.561
G1 F1200 X88.488 Y137.136 E61.6857
G0 F6000 X88.488 Y136.571
G1 F1200 X98.478 Y146.561 E62.1556
G0 F6000 X99.043 Y146.561
G1 F1200 X88.488 Y136.005 E62.6521
G0 F6000 X88.488 Y135.439
G1 F1200 X99.609 Y146.561 E63.17522
G0 F6000 X100.175 Y146.561
G1 F1200 X88.488 Y134.874 E63.72494
G0 F6000 X88.488 Y134.308
G1 F1200 X100.74 Y146.561 E64.30126
G0 F6000 X101.306 Y146.561
G1 F1200 X88.488 Y133.742 E64.90421
G0 F6000 X88.488 Y133.177
G1 F1200 X101.872 Y146.561 E65.53375
G0 F6000 X102.437 Y146.561
G1 F1200 X88.488 Y132.611 E66.18989
G0 F6000 X88.488 Y132.045
G1 F1200 X103.003 Y146.561 E66.87265
G0 F6000 X103.569 Y146.561
G1 F1200 X88.488 Y131.48 E67.58202
G0 F6000 X88.488 Y130.914
G1 F1200 X104.134 Y146.561 E68.31798
G0 F6000 X104.7 Y146.561
G1 F1200 X88.488 Y130.348 E69.08057
G0 F6000 X88.488 Y129.783
G1 F1200 X105.266 Y146.561 E69.86975
G0 F6000 X105.831 Y146.561
G1 F1200 X88.488 Y129.217 E70.68554
G0 F6000 X88.488 Y128.651
G1 F1200 X106.397 Y146.561 E71.52795
G0 F6000 X106.963 Y146.561
G1 F1200 X88.488 Y128.086 E72.39695
G0 F6000 X88.488 Y127.52
G1 F1200 X107.529 Y146.561 E73.29258
G0 F6000 X108.094 Y146.561
G1 F1200 X88.488 Y126.954 E74.21481
G0 F6000 X88.488 Y126.388
G1 F1200 X108.66 Y146.561 E75.16367
G0 F6000 X109.226 Y146.561
G1 F1200 X88.488 Y125.823 E76.13912
G0 F6000 X88.488 Y125.257
G1 F1200 X109.791 Y146.561 E77.14117
G0 F6000 X110.357 Y146.561
G1 F1200 X88.488 Y124.691 E78.16984
G0 F6000 X88.488 Y124.126
G1 F1200 X110.923 Y146.561 E79.22512
G0 F6000 X111.488 Y146.561
G1 F1200 X88.488 Y123.56 E80.30699
G0 F6000 X88.488 Y122.994
G1 F1200 X112.054 Y146.561 E81.41549
G0 F6000 X112.62 Y146.561
G1 F1200 X88.488 Y122.429 E82.55058
G0 F6000 X88.488 Y121.863
G1 F1200 X113.185 Y146.561 E83.71228
G0 F6000 X113.751 Y146.561
G1 F1200 X88.488 Y121.297 E84.90059
G0 F6000 X88.488 Y120.732
G1 F1200 X114.317 Y146.561 E86.11551
G0 F6000 X114.882 Y146.561
G1 F1200 X88.488 Y120.166 E87.35703
G0 F6000 X88.488 Y119.6
G1 F1200 X115.448 Y146.561 E88.62517
G0 F6000 X116.014 Y146.561
G1 F1200 X88.488 Y119.035 E89.9199
G0 F6000 X88.488 Y118.469
G1 F1200 X116.579 Y146.561 E91.24124
G0 F6000 X117.145 Y146.561
G1 F1200 X88.488 Y117.903 E92.5892
G0 F6000 X88.488 Y117.338
G1 F1200 X91.457 Y120.307 E92.72886
G0 F6000 X91.865 Y120.144
G0 X91.489 Y119.203
G0 X91.081 Y119.365
G1 F1200 X88.488 Y116.772 E92.85082
G0 F6000 X88.488 Y116.206
