;FLAVOR:Marlin
;TIME:13016
;Filament used: 9.62795m
;Layer height: 0.2
;MINX:76.67
;MINY:76.338
;MINZ:0.2
;MAXX:158.309
;MAXY:158.662
;MAXZ:12.8
;Generated with Cura_SteamEngine 4.10.0
M140 S50
M105
M190 S50
M104 S220
M105
M109 S220
M82 ;absolute extrusion mode
; Ender 3 Custom Start G-code
G92 E0 ; Reset Extruder
G28 ; Home all axes
G1 Z2.0 F3000 ; Move Z Axis up little to prevent scratching of Heat Bed
G1 X0.1 Y20 Z0.3 F5000.0 ; Move to start position
G1 X0.1 Y200.0 Z0.3 F1500.0 E15 ; Draw the first line
G1 X0.4 Y200.0 Z0.3 F5000.0 ; Move to side a little
G1 X0.4 Y20 Z0.3 F1500.0 E30 ; Draw the second line
G92 E0 ; Reset Extruder
G1 Z2.0 F3000 ; Move Z Axis up little to prevent scratching of Heat Bed
G1 X5 Y20 Z0.3 F5000.0 ; Move over to prevent blob squish
G92 E0
G92 E0
G1 F2700 E-5
;LAYER_COUNT:64
;LAYER:0
M107
G0 F6000 X79.868 Y79.602 Z0.2
;TYPE:SKIRT
G1 F2700 E0
G1 F1200 X80.556 Y78.965 E0.03119
G1 X81.296 Y78.389 E0.06237
G1 X82.082 Y77.877 E0.09357
G1 X82.909 Y77.435 E0.12476
G1 X83.771 Y77.065 E0.15596
G1 X84.661 Y76.769 E0.18716
G1 X85.573 Y76.551 E0.21835
G1 X86.5 Y76.41 E0.24953
G1 X87.371 Y76.351 E0.27857
G1 X87.692 Y76.342 E0.28925
G1 X88 Y76.338 E0.29949
G1 X106.013 Y76.338 E0.89861
G1 X106.857 Y76.349 E0.92668
G1 X107.793 Y76.403 E0.95787
G1 X108.722 Y76.536 E0.98908
G1 X109.635 Y76.748 E1.02025
G1 X110.528 Y77.037 E1.05147
G1 X111.392 Y77.401 E1.08266
G1 X112.222 Y77.837 E1.11384
G1 X113.03 Y78.354 E1.14574
G1 X113.429 Y78.635 E1.16197
G1 X113.704 Y78.836 E1.1733
G1 X113.978 Y79.043 E1.18473
G1 X115.564 Y80.271 E1.25144
G1 X116.147 Y80.736 E1.27624
G1 X116.372 Y80.921 E1.28593
G1 X116.987 Y81.44 E1.3127
G1 X118.452 Y82.711 E1.3772
G1 X119.073 Y83.264 E1.40486
G1 X120.981 Y84.917 E1.48883
G1 X122.951 Y86.528 E1.57347
G1 X124.934 Y88.059 E1.65679
G1 X126.971 Y89.539 E1.74054
G1 X129.07 Y90.978 E1.82518
G1 X131.148 Y92.316 E1.90738
G1 X133.327 Y93.635 E1.9921
G1 X135.521 Y94.878 E2.07597
G1 X137.866 Y96.121 E2.16425
G1 X138.998 Y96.701 E2.20655
G1 X140.255 Y97.37 E2.25391
G1 X140.817 Y97.678 E2.27523
G1 X141.124 Y97.852 E2.28696
G1 X141.93 Y98.328 E2.3181
G1 X143.315 Y99.174 E2.37208
G1 X143.857 Y99.516 E2.39339
G1 X144.125 Y99.691 E2.40404
G1 X144.882 Y100.2 E2.43438
G1 X146.105 Y101.051 E2.48393
G1 X146.236 Y101.143 E2.48926
G1 X146.795 Y101.545 E2.51216
G1 X147.058 Y101.741 E2.52307
G1 X147.842 Y102.342 E2.55592
G1 X149.039 Y103.289 E2.60669
G1 X149.497 Y103.661 E2.62631
G1 X149.763 Y103.884 E2.63786
G1 X150.597 Y104.607 E2.67457
G1 X151.742 Y105.631 E2.72566
G1 X152.164 Y106.019 E2.74473
G1 X152.399 Y106.242 E2.7555
G1 X153.22 Y107.045 E2.7937
G1 X154.265 Y108.101 E2.84311
G1 X154.662 Y108.512 E2.86212
G1 X155.532 Y109.53 E2.90666
G1 X155.845 Y109.945 E2.92395
G1 X156.377 Y110.717 E2.95513
G1 X156.842 Y111.532 E2.98634
G1 X157.148 Y112.177 E3.01008
G1 X157.337 Y112.611 E3.02583
G1 X157.675 Y113.486 E3.05703
G1 X157.936 Y114.387 E3.08822
G1 X158.072 Y115.021 E3.10979
G1 X158.096 Y115.152 E3.11422
G1 X158.184 Y115.714 E3.13314
G1 X158.228 Y116.052 E3.14448
G1 X158.309 Y116.986 E3.17566
G1 X158.292 Y118.256 E3.2179
G1 X158.282 Y118.396 E3.22257
G1 X158.248 Y118.779 E3.23536
G1 X158.221 Y119.032 E3.24382
G1 X158.082 Y119.96 E3.27503
G1 X157.733 Y121.301 E3.32112
G1 X157.589 Y121.739 E3.33646
G1 X157.258 Y122.616 E3.36763
G1 X156.854 Y123.462 E3.39881
G1 X156.498 Y124.083 E3.42262
G1 X156.267 Y124.457 E3.43724
G1 X155.74 Y125.234 E3.46847
G1 X155.25 Y125.847 E3.49457
G1 X154.547 Y126.665 E3.53045
G1 X154.399 Y126.834 E3.53792
G1 X153.373 Y127.979 E3.58905
G1 X153.058 Y128.323 E3.60457
G1 X152.778 Y128.617 E3.61807
G1 X151.942 Y129.465 E3.65768
G1 X150.722 Y130.661 E3.7145
G1 X150.269 Y131.093 E3.73532
G1 X150.021 Y131.321 E3.74652
G1 X149.156 Y132.092 E3.78506
G1 X148.993 Y132.234 E3.79225
G1 X147.704 Y133.337 E3.84868
G1 X147.385 Y133.603 E3.86249
G1 X147.096 Y133.836 E3.87484
G1 X146.149 Y134.573 E3.91475
G1 X145.98 Y134.702 E3.92182
G1 X144.631 Y135.709 E3.97781
G1 X144.296 Y135.952 E3.99158
G1 X143.998 Y136.161 E4.00369
G1 X142.964 Y136.86 E4.0452
G1 X141.613 Y137.739 E4.09881
G1 X141.03 Y138.108 E4.12175
G1 X140.709 Y138.303 E4.13425
G1 X139.703 Y138.89 E4.17298
G1 X138.249 Y139.706 E4.22844
G1 X137.652 Y140.03 E4.25103
G1 X137.336 Y140.194 E4.26287
G1 X136.047 Y140.837 E4.31078
G1 X133.748 Y142.026 E4.39687
G1 X131.514 Y143.261 E4.48177
G1 X129.371 Y144.527 E4.56456
G1 X127.218 Y145.884 E4.6492
G1 X125.167 Y147.257 E4.73129
G1 X123.073 Y148.748 E4.81679
G1 X121.104 Y150.235 E4.89886
G1 X119.098 Y151.84 E4.98431
G1 X116.991 Y153.611 E5.07585
G1 X116.751 Y153.807 E5.08616
G1 X116.231 Y154.219 E5.10822
G1 X114.228 Y155.767 E5.19242
G1 X113.418 Y156.372 E5.22605
G1 X113.23 Y156.523 E5.23407
G1 X112.451 Y157.045 E5.26526
G1 X111.63 Y157.498 E5.29644
G1 X110.773 Y157.88 E5.32765
G1 X109.887 Y158.188 E5.35885
G1 X108.978 Y158.419 E5.39004
G1 X108.053 Y158.572 E5.42123
G1 X106.88 Y158.651 E5.46033
G1 X106.013 Y158.662 E5.48917
G1 X88.219 Y158.661 E6.081
G1 X87.521 Y158.651 E6.10422
G1 X86.585 Y158.597 E6.1354
G1 X85.657 Y158.465 E6.16658
G1 X84.743 Y158.253 E6.19778
G1 X83.851 Y157.964 E6.22897
G1 X82.986 Y157.601 E6.26017
G1 X82.156 Y157.165 E6.29135
G1 X81.365 Y156.66 E6.32257
G1 X80.621 Y156.089 E6.35376
G1 X79.928 Y155.457 E6.38495
G1 X79.291 Y154.769 E6.41614
G1 X78.716 Y154.028 E6.44733
G1 X78.205 Y153.242 E6.47852
G1 X77.763 Y152.414 E6.50973
G1 X77.394 Y151.552 E6.54092
G1 X77.099 Y150.662 E6.57211
G1 X76.881 Y149.75 E6.60329
G1 X76.741 Y148.822 E6.63451
G1 X76.683 Y147.947 E6.66367
G1 X76.674 Y147.612 E6.67482
G1 X76.67 Y147.317 E6.68463
G1 X76.671 Y87.863 E8.66208
G1 X76.68 Y87.198 E8.6842
G1 X76.733 Y86.262 E8.71538
G1 X76.865 Y85.333 E8.74659
G1 X77.076 Y84.419 E8.77779
G1 X77.364 Y83.527 E8.80897
G1 X77.727 Y82.662 E8.84017
G1 X78.162 Y81.831 E8.87137
G1 X78.666 Y81.041 E8.90253
G1 X79.236 Y80.296 E8.93373
G1 X79.868 Y79.602 E8.96495
G0 F6000 X80.259 Y79.777
G1 F1200 X80.944 Y79.161 E8.99559
G1 X81.68 Y78.608 E9.02621
G1 X82.461 Y78.12 E9.05684
G1 X83.281 Y77.702 E9.08745
G1 X84.135 Y77.357 E9.11809
G1 X85.015 Y77.087 E9.1487
G1 X85.915 Y76.895 E9.17931
G1 X86.829 Y76.781 E9.20995
G1 X87.382 Y76.751 E9.22837
G1 X87.703 Y76.742 E9.23905
G1 X88 Y76.738 E9.24893
G1 X106.013 Y76.738 E9.84804
G1 X106.851 Y76.749 E9.87592
G1 X107.77 Y76.803 E9.90653
G1 X108.681 Y76.936 E9.93716
G1 X109.577 Y77.147 E9.96777
G1 X110.452 Y77.436 E9.99842
G1 X111.298 Y77.799 E10.02904
G1 X112.109 Y78.234 E10.05965
G1 X112.799 Y78.682 E10.08701
G1 X113.198 Y78.963 E10.10324
G1 X113.464 Y79.156 E10.11417
G1 X113.733 Y79.36 E10.1254
G1 X115.315 Y80.584 E10.19193
G1 X115.898 Y81.049 E10.21673
G1 X116.114 Y81.227 E10.22604
G1 X116.725 Y81.742 E10.25262
G1 X118.078 Y82.915 E10.31218
G1 X118.752 Y83.515 E10.34219
G1 X120.732 Y85.23 E10.42932
G1 X122.699 Y86.839 E10.51384
G1 X124.7 Y88.383 E10.5979
G1 X126.732 Y89.861 E10.68147
G1 X128.833 Y91.3 E10.76617
G1 X130.946 Y92.661 E10.84977
G1 X133.129 Y93.982 E10.93463
G1 X135.331 Y95.229 E11.0188
G1 X137.675 Y96.472 E11.10705
G1 X138.811 Y97.054 E11.1495
G1 X140.062 Y97.72 E11.19664
G1 X140.624 Y98.028 E11.21795
G1 X140.92 Y98.197 E11.22929
G1 X141.859 Y98.753 E11.26558
G1 X143.102 Y99.512 E11.31402
G1 X143.644 Y99.854 E11.33534
G1 X143.902 Y100.023 E11.3456
G1 X144.659 Y100.532 E11.37594
G1 X145.876 Y101.379 E11.42525
G1 X146.003 Y101.468 E11.43041
G1 X146.562 Y101.87 E11.45331
G1 X146.815 Y102.058 E11.4638
G1 X147.594 Y102.656 E11.49646
G1 X148.787 Y103.599 E11.54704
G1 X149.245 Y103.971 E11.56666
G1 X149.501 Y104.186 E11.57778
G1 X150.33 Y104.906 E11.6143
G1 X151.471 Y105.926 E11.66521
G1 X151.893 Y106.314 E11.68427
G1 X152.12 Y106.528 E11.69465
G1 X152.936 Y107.326 E11.73261
G1 X153.977 Y108.379 E11.78186
G1 X154.374 Y108.79 E11.80086
G1 X155.213 Y109.771 E11.8438
G1 X155.526 Y110.186 E11.86109
G1 X156.048 Y110.945 E11.89172
G1 X156.502 Y111.745 E11.92232
G1 X156.781 Y112.337 E11.94409
G1 X156.97 Y112.771 E11.95983
G1 X157.301 Y113.63 E11.99045
G1 X157.556 Y114.515 E12.02108
G1 X157.678 Y115.093 E12.04073
G1 X157.702 Y115.224 E12.04516
G1 X157.787 Y115.766 E12.06341
G1 X157.831 Y116.104 E12.07474
G1 X157.91 Y117.021 E12.10536
G1 X157.893 Y118.227 E12.14547
G1 X157.883 Y118.367 E12.15014
G1 X157.85 Y118.737 E12.16249
G1 X157.823 Y118.99 E12.17096
G1 X157.686 Y119.9 E12.20157
G1 X157.353 Y121.176 E12.24543
G1 X157.209 Y121.614 E12.26076
G1 X156.884 Y122.475 E12.29137
G1 X156.485 Y123.305 E12.322
G1 X156.157 Y123.873 E12.34382
G1 X155.926 Y124.247 E12.35844
G1 X155.409 Y125.009 E12.38906
G1 X154.947 Y125.586 E12.41365
G1 X154.244 Y126.404 E12.44952
G1 X154.101 Y126.567 E12.45673
G1 X153.078 Y127.709 E12.50773
G1 X152.763 Y128.053 E12.52324
G1 X152.494 Y128.336 E12.53623
G1 X151.658 Y129.184 E12.57583
G1 X150.442 Y130.375 E12.63245
G1 X149.994 Y130.802 E12.65303
G1 X149.755 Y131.022 E12.66384
G1 X148.733 Y131.931 E12.70933
G1 X147.555 Y132.94 E12.76092
G1 X147.128 Y133.296 E12.77941
G1 X146.85 Y133.52 E12.79128
G1 X145.741 Y134.381 E12.83798
G1 X144.396 Y135.385 E12.8938
G1 X144.061 Y135.628 E12.90757
G1 X143.774 Y135.83 E12.91924
G1 X142.74 Y136.529 E12.96075
G1 X141.395 Y137.404 E13.01412
G1 X140.816 Y137.77 E13.0369
G1 X140.507 Y137.957 E13.04892
G1 X139.338 Y138.638 E13.09391
G1 X137.912 Y139.435 E13.14825
G1 X137.462 Y139.678 E13.16526
G1 X137.157 Y139.836 E13.17668
G1 X135.835 Y140.495 E13.22581
G1 X133.549 Y141.677 E13.31141
G1 X131.363 Y142.886 E13.39449
G1 X129.161 Y144.188 E13.47958
G1 X127.004 Y145.546 E13.56435
G1 X124.918 Y146.943 E13.64785
G1 X122.846 Y148.419 E13.73247
G1 X120.836 Y149.936 E13.81622
G1 X118.851 Y151.525 E13.90079
G1 X116.734 Y153.304 E13.99276
G1 X116.502 Y153.494 E14.00274
G1 X115.986 Y153.902 E14.02462
G1 X113.983 Y155.45 E14.10881
G1 X113.094 Y156.115 E14.14574
G1 X112.843 Y156.309 E14.15629
G1 X112.068 Y156.807 E14.18693
G1 X111.254 Y157.236 E14.21753
G1 X110.405 Y157.593 E14.24817
G1 X109.529 Y157.875 E14.27877
G1 X108.631 Y158.079 E14.3094
G1 X107.719 Y158.205 E14.34002
G1 X106.875 Y158.251 E14.36814
G1 X106.013 Y158.262 E14.39681
G1 X88.225 Y158.261 E14.98844
G1 X87.527 Y158.251 E15.01166
G1 X86.608 Y158.198 E15.04228
G1 X85.697 Y158.065 E15.0729
G1 X84.801 Y157.854 E15.10351
G1 X83.927 Y157.566 E15.13412
G1 X83.08 Y157.203 E15.16477
G1 X82.269 Y156.768 E15.19538
G1 X81.499 Y156.264 E15.22599
G1 X80.775 Y155.695 E15.25662
G1 X80.103 Y155.065 E15.28725
G1 X79.488 Y154.38 E15.31787
G1 X78.935 Y153.644 E15.34849
G1 X78.448 Y152.863 E15.3791
G1 X78.031 Y152.042 E15.40973
G1 X77.686 Y151.188 E15.44036
G1 X77.417 Y150.308 E15.47097
G1 X77.225 Y149.407 E15.50161
G1 X77.112 Y148.494 E15.53221
G1 X77.083 Y147.937 E15.55076
G1 X77.074 Y147.602 E15.56191
G1 X77.07 Y147.317 E15.57139
G1 X77.071 Y87.869 E17.54863
G1 X77.08 Y87.204 E17.57075
G1 X77.132 Y86.284 E17.6014
G1 X77.264 Y85.373 E17.63202
G1 X77.475 Y84.477 E17.66263
G1 X77.762 Y83.602 E17.69326
G1 X78.125 Y82.756 E17.72388
G1 X78.559 Y81.944 E17.7545
G1 X79.062 Y81.173 E17.78512
G1 X79.631 Y80.449 E17.81575
G1 X80.259 Y79.777 E17.84634
G0 F6000 X80.651 Y79.955
G1 F1200 X81.332 Y79.362 E17.87638
G1 X82.064 Y78.832 E17.90643
G1 X82.839 Y78.369 E17.93646
G1 X83.652 Y77.976 E17.96649
G1 X84.497 Y77.656 E17.99655
G1 X85.366 Y77.413 E18.02656
G1 X86.254 Y77.247 E18.05661
G1 X87.393 Y77.151 E18.09462
G1 X87.714 Y77.142 E18.1053
G1 X88 Y77.138 E18.11482
G1 X106.013 Y77.138 E18.71393
G1 X106.845 Y77.149 E18.74161
G1 X107.747 Y77.202 E18.77166
G1 X108.64 Y77.335 E18.80169
G1 X109.518 Y77.546 E18.83172
G1 X110.374 Y77.834 E18.86176
G1 X111.201 Y78.197 E18.8918
G1 X111.993 Y78.631 E18.92184
G1 X112.569 Y79.009 E18.94475
G1 X112.968 Y79.29 E18.96098
G1 X113.224 Y79.475 E18.97149
G1 X113.489 Y79.676 E18.98255
G1 X114.946 Y80.803 E19.04382
G1 X115.648 Y81.362 E19.07366
G1 X115.857 Y81.533 E19.08265
G1 X116.463 Y82.044 E19.10901
G1 X117.919 Y83.308 E19.17314
G1 X118.508 Y83.833 E19.19938
G1 X120.5 Y85.558 E19.28703
G1 X122.447 Y87.15 E19.37068
G1 X124.427 Y88.679 E19.45388
G1 X126.517 Y90.198 E19.53981
G1 X128.612 Y91.634 E19.62429
G1 X130.753 Y93.013 E19.70899
G1 X132.905 Y94.315 E19.79265
G1 X135.125 Y95.573 E19.87752
G1 X137.511 Y96.838 E19.96734
G1 X138.623 Y97.407 E20.00889
G1 X139.87 Y98.071 E20.05588
G1 X140.432 Y98.379 E20.07719
G1 X140.717 Y98.541 E20.0881
G1 X141.651 Y99.094 E20.1242
G1 X142.76 Y99.771 E20.16741
G1 X143.43 Y100.193 E20.19375
G1 X143.678 Y100.355 E20.2036
G1 X144.578 Y100.961 E20.23969
G1 X145.769 Y101.793 E20.28801
G1 X146.328 Y102.195 E20.31091
G1 X146.572 Y102.376 E20.32101
G1 X147.346 Y102.97 E20.35347
G1 X148.535 Y103.91 E20.40388
G1 X148.993 Y104.282 E20.4235
G1 X149.239 Y104.488 E20.43417
G1 X150.064 Y105.204 E20.47051
G1 X151.201 Y106.22 E20.52122
G1 X151.623 Y106.608 E20.54029
G1 X151.84 Y106.815 E20.55026
G1 X152.651 Y107.608 E20.58799
G1 X153.689 Y108.657 E20.63707
G1 X154.086 Y109.068 E20.65608
G1 X154.893 Y110.012 E20.69739
G1 X155.206 Y110.427 E20.71467
G1 X155.718 Y111.171 E20.74471
G1 X156.161 Y111.958 E20.77475
G1 X156.415 Y112.496 E20.79454
G1 X156.604 Y112.93 E20.81028
G1 X156.927 Y113.774 E20.84034
G1 X157.175 Y114.642 E20.87036
G1 X157.285 Y115.165 E20.88814
G1 X157.309 Y115.296 E20.89257
G1 X157.391 Y115.817 E20.91011
G1 X157.435 Y116.155 E20.92145
G1 X157.511 Y117.055 E20.95149
G1 X157.494 Y118.199 E20.98954
G1 X157.484 Y118.339 E20.99421
G1 X157.452 Y118.694 E21.00607
G1 X157.425 Y118.947 E21.01453
G1 X157.29 Y119.84 E21.04457
G1 X156.973 Y121.051 E21.0862
G1 X156.829 Y121.489 E21.10154
G1 X156.509 Y122.333 E21.13156
G1 X156.116 Y123.146 E21.16159
G1 X155.817 Y123.663 E21.18146
G1 X155.586 Y124.037 E21.19608
G1 X155.078 Y124.784 E21.22612
G1 X154.644 Y125.325 E21.24919
G1 X153.803 Y126.301 E21.29204
G1 X152.783 Y127.438 E21.34285
G1 X152.468 Y127.782 E21.35836
G1 X152.209 Y128.055 E21.37088
G1 X151.244 Y129.032 E21.41655
G1 X150.163 Y130.09 E21.46686
G1 X149.719 Y130.512 E21.48723
G1 X149.489 Y130.723 E21.49761
G1 X148.624 Y131.494 E21.53615
G1 X148.472 Y131.627 E21.54287
G1 X147.191 Y132.723 E21.59894
G1 X146.872 Y132.989 E21.61276
G1 X146.605 Y133.205 E21.62418
G1 X145.658 Y133.942 E21.66409
G1 X144.28 Y134.974 E21.72135
G1 X143.826 Y135.305 E21.74004
G1 X143.55 Y135.498 E21.75124
G1 X142.516 Y136.197 E21.79276
G1 X142.359 Y136.301 E21.79902
G1 X141.06 Y137.143 E21.85051
G1 X140.603 Y137.431 E21.86847
G1 X140.306 Y137.612 E21.88004
G1 X139.143 Y138.289 E21.9248
G1 X137.722 Y139.083 E21.97894
G1 X137.272 Y139.326 E21.99595
G1 X136.979 Y139.478 E22.00693
G1 X135.681 Y140.126 E22.05518
G1 X133.336 Y141.338 E22.14298
G1 X131.146 Y142.549 E22.22621
G1 X128.949 Y143.848 E22.3111
G1 X126.814 Y145.192 E22.39501
G1 X124.685 Y146.618 E22.48024
G1 X122.618 Y148.089 E22.56462
G1 X120.591 Y149.62 E22.64911
G1 X118.604 Y151.21 E22.73375
G1 X116.477 Y152.998 E22.82617
G1 X116.254 Y153.18 E22.83574
G1 X115.741 Y153.586 E22.8575
G1 X113.738 Y155.134 E22.9417
G1 X112.824 Y155.817 E22.97965
G1 X112.456 Y156.09 E22.99489
G1 X111.687 Y156.564 E23.02493
G1 X110.88 Y156.968 E23.05495
G1 X110.039 Y157.299 E23.08501
G1 X109.173 Y157.554 E23.11503
G1 X108.288 Y157.732 E23.14506
G1 X107.39 Y157.83 E23.1751
G1 X106.869 Y157.851 E23.19245
G1 X106.013 Y157.862 E23.22092
G1 X88.231 Y157.861 E23.81235
G1 X87.533 Y157.851 E23.83557
G1 X86.631 Y157.798 E23.86562
G1 X85.738 Y157.666 E23.89565
G1 X84.86 Y157.455 E23.92568
G1 X84.004 Y157.167 E23.95572
G1 X83.177 Y156.805 E23.98574
G1 X82.385 Y156.37 E24.0158
G1 X81.634 Y155.868 E24.04584
G1 X80.931 Y155.301 E24.07588
G1 X80.281 Y154.674 E24.10592
G1 X79.689 Y153.992 E24.13596
G1 X79.159 Y153.261 E24.16599
G1 X78.697 Y152.485 E24.19603
G1 X78.304 Y151.672 E24.22606
G1 X77.986 Y150.827 E24.25609
G1 X77.743 Y149.957 E24.28613
G1 X77.578 Y149.069 E24.31617
G1 X77.483 Y147.926 E24.35432
G1 X77.474 Y147.591 E24.36547
G1 X77.47 Y147.317 E24.37458
G1 X77.471 Y87.874 E26.35166
G1 X77.48 Y87.209 E26.37378
G1 X77.532 Y86.307 E26.40383
G1 X77.664 Y85.414 E26.43386
G1 X77.874 Y84.536 E26.46388
G1 X78.161 Y83.679 E26.49394
G1 X78.523 Y82.852 E26.52397
G1 X78.956 Y82.06 E26.55399
G1 X79.458 Y81.309 E26.58404
G1 X80.025 Y80.605 E26.6141
