;FLAVOR:Marlin
;TIME:12893
;Filament used: 9.5426m
;Layer height: 0.2
;MINX:76.558
;MINY:76.288
;MINZ:0.2
;MAXX:158.413
;MAXY:158.612
;MAXZ:12.6
;Generated with Cura_SteamEngine 4.10.0
M140 S50
M105
M190 S50
M104 S220
M105
M109 S220
M82 ;absolute extrusion mode
; Ender 3 Custom Start G-code
G92 E0 ; Reset Extruder
G28 ; Home all axes
G1 Z2.0 F3000 ; Move Z Axis up little to prevent scratching of Heat Bed
G1 X0.1 Y20 Z0.3 F5000.0 ; Move to start position
G1 X0.1 Y200.0 Z0.3 F1500.0 E15 ; Draw the first line
G1 X0.4 Y200.0 Z0.3 F5000.0 ; Move to side a little
G1 X0.4 Y20 Z0.3 F1500.0 E30 ; Draw the second line
G92 E0 ; Reset Extruder
G1 Z2.0 F3000 ; Move Z Axis up little to prevent scratching of Heat Bed
G1 X5 Y20 Z0.3 F5000.0 ; Move over to prevent blob squish
G92 E0
G92 E0
G1 F2700 E-5
;LAYER_COUNT:64
;LAYER:0
M107
G0 F6000 X79.756 Y79.552 Z0.2
;TYPE:SKIRT
G1 F2700 E0
G1 F1200 X80.444 Y78.915 E0.03119
G1 X81.184 Y78.339 E0.06237
G1 X81.97 Y77.827 E0.09357
G1 X82.797 Y77.385 E0.12476
G1 X83.659 Y77.015 E0.15596
G1 X84.549 Y76.719 E0.18716
G1 X85.461 Y76.501 E0.21835
G1 X86.388 Y76.36 E0.24953
G1 X87.259 Y76.301 E0.27857
G1 X87.58 Y76.292 E0.28925
G1 X87.888 Y76.288 E0.29949
G1 X105.901 Y76.288 E0.89861
G1 X106.752 Y76.299 E0.92692
G1 X107.688 Y76.353 E0.9581
G1 X108.617 Y76.486 E0.98931
G1 X109.53 Y76.697 E1.02048
G1 X110.423 Y76.986 E1.0517
G1 X111.287 Y77.35 E1.08288
G1 X112.117 Y77.786 E1.11406
G1 X112.917 Y78.298 E1.14565
G1 X113.667 Y78.825 E1.17614
G1 X113.833 Y78.944 E1.18294
G1 X153.234 Y107.737 E2.80604
G1 X153.747 Y108.123 E2.8274
G1 X154.506 Y108.75 E2.86014
G1 X154.661 Y108.89 E2.86709
G1 X155.33 Y109.548 E2.8983
G1 X155.94 Y110.26 E2.92948
G1 X156.487 Y111.022 E2.96068
G1 X157.135 Y112.15 E3.00395
G1 X157.256 Y112.393 E3.01297
G1 X157.638 Y113.249 E3.04415
G1 X157.945 Y114.135 E3.07534
G1 X158.176 Y115.044 E3.10653
G1 X158.329 Y115.97 E3.13775
G1 X158.407 Y117.073 E3.17453
G1 X158.413 Y117.369 E3.18437
G1 X158.392 Y118.307 E3.21558
G1 X158.291 Y119.239 E3.24676
G1 X158.111 Y120.16 E3.27797
G1 X157.77 Y121.304 E3.31768
G1 X157.732 Y121.41 E3.32142
G1 X157.378 Y122.279 E3.35263
G1 X156.951 Y123.114 E3.38382
G1 X156.644 Y123.625 E3.40365
G1 X156.534 Y123.797 E3.41044
G1 X155.995 Y124.564 E3.44162
G1 X155.393 Y125.284 E3.47284
G1 X154.843 Y125.845 E3.49897
G1 X154.803 Y125.883 E3.5008
G1 X153.879 Y126.669 E3.54115
G1 X153.098 Y127.262 E3.57376
G1 X113.64 Y156.097 E5.19923
G1 X112.98 Y156.567 E5.22617
G1 X112.193 Y157.076 E5.25735
G1 X111.365 Y157.517 E5.28855
G1 X110.502 Y157.885 E5.31975
G1 X109.612 Y158.179 E5.35093
G1 X108.699 Y158.395 E5.38213
G1 X107.772 Y158.533 E5.41331
G1 X106.824 Y158.592 E5.4449
G1 X105.868 Y158.61 E5.4767
G1 X105.661 Y158.612 E5.48358
G1 X88.107 Y158.611 E6.06743
G1 X87.409 Y158.601 E6.09065
G1 X86.473 Y158.547 E6.12183
G1 X85.545 Y158.415 E6.15301
G1 X84.631 Y158.203 E6.18422
G1 X83.739 Y157.914 E6.2154
G1 X82.874 Y157.551 E6.2466
G1 X82.044 Y157.115 E6.27779
G1 X81.253 Y156.61 E6.309
G1 X80.509 Y156.039 E6.34019
G1 X79.816 Y155.407 E6.37139
G1 X79.179 Y154.719 E6.40257
G1 X78.604 Y153.978 E6.43377
G1 X78.093 Y153.192 E6.46495
G1 X77.651 Y152.364 E6.49617
G1 X77.282 Y151.502 E6.52736
G1 X76.987 Y150.612 E6.55854
G1 X76.769 Y149.7 E6.58973
G1 X76.629 Y148.772 E6.62094
G1 X76.571 Y147.9 E6.65001
G1 X76.562 Y147.568 E6.66106
G1 X76.558 Y147.27 E6.67097
G1 X76.559 Y87.813 E8.64852
G1 X76.568 Y87.148 E8.67064
G1 X76.621 Y86.212 E8.70182
G1 X76.753 Y85.283 E8.73303
G1 X76.964 Y84.369 E8.76423
G1 X77.252 Y83.477 E8.7954
G1 X77.615 Y82.612 E8.8266
G1 X78.05 Y81.781 E8.8578
G1 X78.554 Y80.991 E8.88897
G1 X79.124 Y80.246 E8.92017
G1 X79.756 Y79.552 E8.95139
G0 F6000 X80.147 Y79.727
G1 F1200 X80.832 Y79.111 E8.98203
G1 X81.568 Y78.558 E9.01265
G1 X82.349 Y78.07 E9.04328
G1 X83.169 Y77.652 E9.07389
G1 X84.023 Y77.307 E9.10452
G1 X84.903 Y77.037 E9.13514
G1 X85.803 Y76.845 E9.16575
G1 X86.717 Y76.731 E9.19638
G1 X87.27 Y76.701 E9.2148
G1 X87.591 Y76.692 E9.22548
G1 X87.888 Y76.688 E9.23536
G1 X105.901 Y76.688 E9.83448
G1 X106.746 Y76.699 E9.86258
G1 X107.665 Y76.752 E9.8932
G1 X108.576 Y76.885 E9.92382
G1 X109.472 Y77.097 E9.95445
G1 X110.347 Y77.385 E9.98508
G1 X111.193 Y77.748 E10.0157
G1 X112.004 Y78.183 E10.04631
G1 X112.687 Y78.625 E10.07337
G1 X113.437 Y79.152 E10.10386
G1 X113.597 Y79.267 E10.11041
G1 X152.993 Y108.057 E11.73333
G1 X153.506 Y108.443 E11.75468
G1 X154.238 Y109.047 E11.78624
G1 X154.393 Y109.187 E11.79319
G1 X155.049 Y109.833 E11.82381
G1 X155.646 Y110.534 E11.85444
G1 X156.18 Y111.283 E11.88503
G1 X156.777 Y112.328 E11.92506
G1 X156.898 Y112.571 E11.93409
G1 X157.272 Y113.412 E11.9647
G1 X157.572 Y114.283 E11.99534
G1 X157.795 Y115.176 E12.02596
G1 X157.94 Y116.085 E12.05657
G1 X158.007 Y117.081 E12.08977
G1 X158.013 Y117.377 E12.09962
G1 X157.991 Y118.298 E12.13026
G1 X157.89 Y119.213 E12.16088
G1 X157.71 Y120.116 E12.1915
G1 X157.393 Y121.169 E12.22808
G1 X157.355 Y121.275 E12.23182
G1 X157.007 Y122.127 E12.26244
G1 X156.586 Y122.946 E12.29306
G1 X156.307 Y123.409 E12.31104
G1 X156.197 Y123.581 E12.31783
G1 X155.668 Y124.334 E12.34844
G1 X155.075 Y125.039 E12.37908
G1 X154.568 Y125.555 E12.40314
G1 X154.528 Y125.593 E12.40498
G1 X153.637 Y126.35 E12.44386
G1 X152.856 Y126.943 E12.47648
G1 X152.7 Y127.059 E12.48294
G1 X113.282 Y155.862 E14.1067
G1 X112.749 Y156.24 E14.12844
G1 X111.976 Y156.74 E14.15906
G1 X111.162 Y157.17 E14.18968
G1 X110.314 Y157.529 E14.2203
G1 X109.438 Y157.812 E14.25092
G1 X108.54 Y158.018 E14.28157
G1 X107.629 Y158.146 E14.31216
G1 X106.817 Y158.192 E14.33921
G1 X105.861 Y158.21 E14.37102
G1 X105.661 Y158.212 E14.37767
G1 X88.113 Y158.211 E14.96132
G1 X87.415 Y158.201 E14.98454
G1 X86.496 Y158.148 E15.01515
G1 X85.585 Y158.015 E15.04577
G1 X84.689 Y157.804 E15.07639
G1 X83.815 Y157.516 E15.107
G1 X82.968 Y157.153 E15.13765
G1 X82.157 Y156.718 E15.16826
G1 X81.387 Y156.214 E15.19886
G1 X80.663 Y155.645 E15.22949
G1 X79.991 Y155.015 E15.26013
G1 X79.376 Y154.33 E15.29075
G1 X78.823 Y153.594 E15.32137
G1 X78.336 Y152.813 E15.35198
G1 X77.919 Y151.992 E15.3826
G1 X77.574 Y151.138 E15.41324
G1 X77.305 Y150.258 E15.44385
G1 X77.113 Y149.357 E15.47449
G1 X77 Y148.444 E15.50508
G1 X76.971 Y147.889 E15.52357
G1 X76.962 Y147.557 E15.53461
G1 X76.958 Y147.27 E15.54416
G1 X76.959 Y87.819 E17.52151
G1 X76.968 Y87.154 E17.54363
G1 X77.02 Y86.234 E17.57428
G1 X77.152 Y85.323 E17.60489
G1 X77.363 Y84.427 E17.63551
G1 X77.65 Y83.552 E17.66614
G1 X78.013 Y82.706 E17.69676
G1 X78.447 Y81.894 E17.72738
G1 X78.95 Y81.123 E17.758
G1 X79.519 Y80.399 E17.78863
G1 X80.147 Y79.727 E17.81922
G0 F6000 X80.539 Y79.905
G1 F1200 X81.22 Y79.312 E17.84925
G1 X81.952 Y78.782 E17.87931
G1 X82.727 Y78.319 E17.90934
G1 X83.54 Y77.926 E17.93937
G1 X84.385 Y77.606 E17.96942
G1 X85.254 Y77.363 E17.99943
G1 X86.142 Y77.197 E18.02948
G1 X87.281 Y77.101 E18.0675
G1 X87.602 Y77.092 E18.07818
G1 X87.888 Y77.088 E18.08769
G1 X105.901 Y77.088 E18.68681
G1 X106.74 Y77.099 E18.71471
G1 X107.642 Y77.152 E18.74477
G1 X108.535 Y77.285 E18.7748
G1 X109.413 Y77.496 E18.80483
G1 X110.269 Y77.784 E18.83487
G1 X111.097 Y78.146 E18.86492
G1 X111.888 Y78.58 E18.89493
G1 X112.457 Y78.952 E18.91754
G1 X113.207 Y79.479 E18.94803
G1 X152.638 Y108.292 E20.57234
G1 X153.266 Y108.763 E20.59845
G1 X153.97 Y109.344 E20.62881
G1 X154.125 Y109.484 E20.63575
G1 X154.768 Y110.118 E20.66579
G1 X155.352 Y110.807 E20.69583
G1 X155.873 Y111.544 E20.72585
G1 X156.419 Y112.506 E20.76264
G1 X156.54 Y112.749 E20.77167
G1 X156.906 Y113.575 E20.80171
G1 X157.198 Y114.43 E20.83176
G1 X157.413 Y115.307 E20.8618
G1 X157.55 Y116.199 E20.89181
G1 X157.607 Y117.089 E20.92148
G1 X157.613 Y117.385 E20.93132
G1 X157.591 Y118.288 E20.96137
G1 X157.49 Y119.186 E20.99142
G1 X157.309 Y120.07 E21.02143
G1 X157.017 Y121.034 E21.05493
G1 X156.979 Y121.14 E21.05868
G1 X156.637 Y121.976 E21.08872
G1 X156.222 Y122.778 E21.11876
G1 X155.97 Y123.194 E21.13493
G1 X155.86 Y123.366 E21.14172
G1 X155.34 Y124.104 E21.17175
G1 X154.757 Y124.794 E21.2018
G1 X154.292 Y125.265 E21.22381
G1 X154.252 Y125.303 E21.22564
G1 X153.395 Y126.032 E21.26307
G1 X152.464 Y126.737 E21.30191
G1 X113.051 Y155.536 E22.92545
G1 X112.518 Y155.914 E22.94719
G1 X111.758 Y156.403 E22.97725
G1 X110.959 Y156.824 E23.00728
G1 X110.126 Y157.172 E23.03731
G1 X109.265 Y157.444 E23.06734
G1 X108.383 Y157.64 E23.09739
G1 X107.488 Y157.757 E23.12741
G1 X106.809 Y157.792 E23.15003
G1 X105.661 Y157.812 E23.18822
G1 X88.119 Y157.811 E23.77167
G1 X87.421 Y157.801 E23.79488
G1 X86.519 Y157.748 E23.82494
G1 X85.626 Y157.616 E23.85496
G1 X84.748 Y157.405 E23.88499
G1 X83.892 Y157.117 E23.91503
G1 X83.065 Y156.755 E23.94506
G1 X82.273 Y156.32 E23.97511
G1 X81.522 Y155.818 E24.00516
G1 X80.819 Y155.251 E24.0352
G1 X80.169 Y154.624 E24.06523
G1 X79.577 Y153.942 E24.09527
G1 X79.047 Y153.211 E24.1253
G1 X78.585 Y152.435 E24.15534
G1 X78.192 Y151.622 E24.18537
G1 X77.874 Y150.777 E24.2154
G1 X77.631 Y149.907 E24.24545
G1 X77.466 Y149.019 E24.27549
G1 X77.371 Y147.878 E24.31357
G1 X77.362 Y147.546 E24.32462
G1 X77.358 Y147.27 E24.3338
G1 X77.359 Y87.824 E26.31098
G1 X77.368 Y87.159 E26.3331
G1 X77.42 Y86.257 E26.36315
G1 X77.552 Y85.364 E26.39317
G1 X77.762 Y84.486 E26.4232
G1 X78.049 Y83.629 E26.45326
G1 X78.411 Y82.802 E26.48328
G1 X78.844 Y82.01 E26.51331
G1 X79.346 Y81.259 E26.54335
G1 X79.913 Y80.555 E26.57342
G1 X80.539 Y79.905 E26.60343
G1 F2700 E21.60343
;MESH:AA-Point-Rubber.stl
G0 F6000 X95.667 Y113.947
G0 X95.125 Y112.592
G0 X93.436 Y114.201
G0 X92.983 Y114.795
G0 X92.625 Y115.452
G0 X92.373 Y116.156
G0 X92.23 Y116.89
G0 X92.202 Y117.637
G0 X92.286 Y118.379
G0 X92.485 Y119.101
G0 X92.791 Y119.784
G0 X93.197 Y120.413
G0 X93.696 Y120.971
G0 X94.274 Y121.446
G0 X94.916 Y121.828
G0 X95.608 Y122.108
G0 X96.021 Y122.203
G0 X97.854 Y122.437
;TYPE:WALL-INNER
G1 F2700 E26.60343
G1 F1200 X98.606 Y122.261 E26.62912
G1 X99.322 Y121.972 E26.6548
G1 X99.986 Y121.578 E26.68048
G1 X100.582 Y121.087 E26.70616
G1 X101.097 Y120.51 E26.73189
G1 X101.517 Y119.86 E26.75763
G1 X101.833 Y119.156 E26.78329
G1 X102.038 Y118.41 E26.80902
G1 X102.126 Y117.643 E26.8347
G1 X102.097 Y116.871 E26.8604
G1 X101.949 Y116.113 E26.88608
G1 X101.688 Y115.386 E26.91178
G1 X101.319 Y114.707 E26.93748
G1 X100.852 Y114.093 E26.96314
G1 X100.294 Y113.557 E26.98887
G1 X99.663 Y113.112 E27.01455
G1 X98.97 Y112.769 E27.04027
G1 X98.233 Y112.536 E27.06598
G1 X97.469 Y112.418 E27.09169
G1 X96.697 Y112.418 E27.11737
G1 X95.933 Y112.536 E27.14308
G1 X95.197 Y112.769 E27.16876
G1 X94.504 Y113.112 E27.19447
G1 X93.872 Y113.557 E27.22018
G1 X93.315 Y114.093 E27.24589
G1 X92.847 Y114.707 E27.27157
G1 X92.478 Y115.386 E27.29727
G1 X92.217 Y116.113 E27.32296
G1 X92.069 Y116.871 E27.34865
G1 X92.04 Y117.643 E27.37435
G1 X92.128 Y118.41 E27.40002
G1 X92.333 Y119.156 E27.42576
G1 X92.649 Y119.86 E27.45142
G1 X93.069 Y120.51 E27.47716
G1 X93.584 Y121.087 E27.50288
G1 X94.18 Y121.578 E27.52857
G1 X94.844 Y121.972 E27.55425
G1 X95.56 Y122.261 E27.57993
G1 X96.313 Y122.437 E27.60565
G1 X97.083 Y122.497 E27.63134
G1 X97.854 Y122.437 E27.65706
G0 F6000 X97.793 Y122.041
;TYPE:WALL-OUTER
G1 F1200 X98.485 Y121.879 E27.6807
G1 X99.144 Y121.613 E27.70433
G1 X99.755 Y121.25 E27.72797
G1 X100.304 Y120.798 E27.75162
G1 X100.778 Y120.267 E27.7753
G1 X101.164 Y119.669 E27.79897
G1 X101.455 Y119.02 E27.82263
G1 X101.644 Y118.334 E27.84629
G1 X101.725 Y117.628 E27.86993
G1 X101.698 Y116.917 E27.89359
G1 X101.562 Y116.219 E27.91725
G1 X101.322 Y115.55 E27.94089
G1 X100.982 Y114.925 E27.96455
G1 X100.552 Y114.36 E27.98817
G1 X100.039 Y113.866 E28.01185
G1 X99.458 Y113.457 E28.03549
G1 X98.82 Y113.141 E28.05917
G1 X98.142 Y112.927 E28.08281
G1 X97.438 Y112.818 E28.10651
G1 X96.728 Y112.818 E28.13012
G1 X96.024 Y112.927 E28.15382
G1 X95.347 Y113.141 E28.17743
G1 X94.709 Y113.457 E28.20111
G1 X94.127 Y113.866 E28.22477
G1 X93.615 Y114.36 E28.24843
G1 X93.184 Y114.925 E28.27207
G1 X92.844 Y115.55 E28.29573
G1 X92.604 Y116.219 E28.31937
G1 X92.468 Y116.917 E28.34302
G1 X92.441 Y117.628 E28.36669
G1 X92.522 Y118.334 E28.39033
G1 X92.711 Y119.02 E28.41399
G1 X93.002 Y119.669 E28.43765
G1 X93.388 Y120.267 E28.46132
G1 X93.862 Y120.798 E28.485
G1 X94.411 Y121.25 E28.50865
G1 X95.022 Y121.613 E28.53229
G1 X95.681 Y121.879 E28.55592
G1 X96.374 Y122.041 E28.57959
G1 X97.083 Y122.096 E28.60325
G1 X97.793 Y122.041 E28.62693
G0 F6000 X97.86 Y122.475
G1 F2700 E23.62693
G0 F6000 X98.664 Y122.443
G0 X98.228 Y121.051
G0 X113.81 Y143.172
G0 X112.951 Y141.998
G0 X106.412 Y147.012
;TYPE:WALL-INNER
G1 F2700 E28.62693
G1 F1200 X88.158 Y147.012 E29.23406
G1 X88.158 Y87.888 E31.20053
G1 X106.412 Y87.888 E31.80766
G1 X146.63 Y117.277 E33.46441
G1 X146.778 Y117.385 E33.4705
G1 X146.828 Y117.458 E33.47344
G1 X146.779 Y117.515 E33.47594
G1 X146.631 Y117.623 E33.48204
G1 X106.412 Y147.012 E35.13881
G0 F6000 X106.543 Y147.412
;TYPE:WALL-OUTER
G1 F1200 X87.758 Y147.412 E35.7636
G1 X87.758 Y87.488 E37.75668
G1 X106.543 Y87.488 E38.38147
G1 X147.053 Y117.091 E40.05025
G1 X147.194 Y117.258 E40.05752
G1 X147.24 Y117.457 E40.06432
G1 X147.193 Y117.648 E40.07086
G1 X147.05 Y117.812 E40.0781
G1 X106.543 Y147.412 E41.74674
G0 F6000 X106.407 Y146.994
G0 X106.286 Y146.622
;TYPE:SKIN
G1 F1200 X88.548 Y146.622 E42.33671
G1 X88.548 Y88.278 E44.27724
G1 X106.286 Y88.278 E44.8672
G1 X146.208 Y117.45 E46.51174
G1 X106.286 Y146.622 E48.15627
G1 F2700 E43.15627
G0 F6000 X106.45 Y146.847
G0 X112.973 Y141.982
G0 X113.832 Y143.156
G0 X98.754 Y120.839
G0 X99.407 Y122.144
G0 X98.641 Y122.366
G0 X98.725 Y122.634
G1 F2700 E48.15627
G1 F1200 X99.496 Y122.323 E48.18393
G1 X100.211 Y121.898 E48.21159
G1 X100.853 Y121.369 E48.23926
G1 X101.409 Y120.747 E48.26701
G1 X101.86 Y120.047 E48.2947
G1 X102.201 Y119.288 E48.32238
G1 X102.422 Y118.484 E48.35011
G1 X102.516 Y117.658 E48.37776
G1 X102.485 Y116.826 E48.40545
G1 X102.326 Y116.009 E48.43314
G1 X102.045 Y115.226 E48.46081
G1 X101.647 Y114.495 E48.48849
G1 X101.144 Y113.833 E48.51614
G1 X100.543 Y113.255 E48.54388
G1 X99.863 Y112.776 E48.57154
G1 X99.116 Y112.406 E48.59927
G1 X98.322 Y112.155 E48.62696
G1 X97.499 Y112.028 E48.65466
G1 X96.667 Y112.028 E48.68233
G1 X95.844 Y112.155 E48.71003
G1 X95.051 Y112.406 E48.73769
G1 X94.304 Y112.776 E48.76542
G1 X93.623 Y113.255 E48.79311
G1 X93.023 Y113.833 E48.82082
G1 X92.519 Y114.494 E48.84847
G1 X92.121 Y115.226 E48.87618
G1 X91.84 Y116.009 E48.90385
G1 X91.681 Y116.826 E48.93153
G1 X91.65 Y117.658 E48.95923
G1 X91.744 Y118.484 E48.98688
G1 X91.965 Y119.288 E49.01461
G1 X92.306 Y120.047 E49.04228
G1 X92.757 Y120.747 E49.06998
G1 X93.313 Y121.369 E49.09773
G1 X93.955 Y121.898 E49.1254
G1 X94.67 Y122.323 E49.15306
G1 X95.442 Y122.634 E49.18074
G1 X96.253 Y122.823 E49.20844
G1 X97.083 Y122.889 E49.23613
G1 X97.914 Y122.823 E49.26386
G1 X98.725 Y122.634 E49.29156
G1 F2700 E44.29156
G0 F6000 X98.641 Y122.366
G0 X97.083 Y122.688
G0 X97.083 Y121.228
G0 X97.083 Y148.277
G0 X97.083 Y146.802
G0 X89.327 Y146.902
G0 X89.327 Y146.461
G1 F2700 E49.29156
G1 F1200 X88.707 Y145.841 E49.32072
G0 F6000 X88.707 Y145.275
G1 F1200 X89.893 Y146.461 E49.3765
G0 F6000 X90.458 Y146.461
G1 F1200 X88.707 Y144.71 E49.45887
G0 F6000 X88.707 Y144.144
G1 F1200 X91.024 Y146.461 E49.56785
G0 F6000 X91.59 Y146.461
G1 F1200 X88.707 Y143.578 E49.70346
G0 F6000 X88.707 Y143.013
G1 F1200 X92.155 Y146.461 E49.86564
G0 F6000 X92.721 Y146.461
G1 F1200 X88.707 Y142.447 E50.05445
G0 F6000 X88.707 Y141.881
G1 F1200 X93.287 Y146.461 E50.26988
G0 F6000 X93.852 Y146.461
G1 F1200 X88.707 Y141.315 E50.51191
G0 F6000 X88.707 Y140.75
G1 F1200 X94.418 Y146.461 E50.78053
G0 F6000 X94.984 Y146.461
G1 F1200 X88.707 Y140.184 E51.07578
G0 F6000 X88.707 Y139.618
G1 F1200 X95.549 Y146.461 E51.39763
G0 F6000 X96.115 Y146.461
G1 F1200 X88.707 Y139.053 E51.74608
G0 F6000 X88.707 Y138.487
G1 F1200 X96.681 Y146.461 E52.12116
G0 F6000 X97.246 Y146.461
G1 F1200 X88.707 Y137.921 E52.52283
G0 F6000 X88.707 Y137.356
G1 F1200 X97.812 Y146.461 E52.9511
G0 F6000 X98.378 Y146.461
G1 F1200 X88.707 Y136.79 E53.40599
G0 F6000 X88.707 Y136.224
G1 F1200 X98.944 Y146.461 E53.88751
