;FLAVOR:Marlin
;TIME:12892
;Filament used: 9.54301m
;Layer height: 0.2
;MINX:76.558
;MINY:76.288
;MINZ:0.2
;MAXX:158.417
;MAXY:158.612
;MAXZ:12.6
;Generated with Cura_SteamEngine 4.10.0
M140 S50
M105
M190 S50
M104 S220
M105
M109 S220
M82 ;absolute extrusion mode
; Ender 3 Custom Start G-code
G92 E0 ; Reset Extruder
G28 ; Home all axes
G1 Z2.0 F3000 ; Move Z Axis up little to prevent scratching of Heat Bed
G1 X0.1 Y20 Z0.3 F5000.0 ; Move to start position
G1 X0.1 Y200.0 Z0.3 F1500.0 E15 ; Draw the first line
G1 X0.4 Y200.0 Z0.3 F5000.0 ; Move to side a little
G1 X0.4 Y20 Z0.3 F1500.0 E30 ; Draw the second line
G92 E0 ; Reset Extruder
G1 Z2.0 F3000 ; Move Z Axis up little to prevent scratching of Heat Bed
G1 X5 Y20 Z0.3 F5000.0 ; Move over to prevent blob squish
G92 E0
G92 E0
G1 F2700 E-5
;LAYER_COUNT:64
;LAYER:0
M107
G0 F6000 X79.756 Y79.552 Z0.2
;TYPE:SKIRT
G1 F2700 E0
G1 F1200 X80.444 Y78.915 E0.03119
G1 X81.184 Y78.339 E0.06237
G1 X81.97 Y77.827 E0.09357
G1 X82.797 Y77.385 E0.12476
G1 X83.659 Y77.015 E0.15596
G1 X84.549 Y76.719 E0.18716
G1 X85.461 Y76.501 E0.21835
G1 X86.388 Y76.36 E0.24953
G1 X87.259 Y76.301 E0.27857
G1 X87.58 Y76.292 E0.28925
G1 X87.888 Y76.288 E0.29949
G1 X105.901 Y76.288 E0.89861
G1 X106.752 Y76.299 E0.92692
G1 X107.688 Y76.353 E0.9581
G1 X108.617 Y76.486 E0.98931
G1 X109.53 Y76.697 E1.02048
G1 X110.423 Y76.986 E1.0517
G1 X111.287 Y77.35 E1.08288
G1 X112.117 Y77.786 E1.11406
G1 X112.917 Y78.298 E1.14565
G1 X113.667 Y78.825 E1.17614
G1 X113.833 Y78.944 E1.18294
G1 X153.234 Y107.737 E2.80604
G1 X153.747 Y108.123 E2.8274
G1 X154.506 Y108.75 E2.86014
G1 X154.661 Y108.89 E2.86709
G1 X155.33 Y109.548 E2.8983
G1 X155.94 Y110.26 E2.92948
G1 X156.386 Y110.871 E2.95464
G1 X156.439 Y110.949 E2.95778
G1 X156.933 Y111.746 E2.98896
G1 X157.357 Y112.583 E3.02017
G1 X157.636 Y113.257 E3.04443
G1 X157.712 Y113.459 E3.05161
G1 X158.005 Y114.351 E3.08284
G1 X158.221 Y115.263 E3.11401
G1 X158.358 Y116.191 E3.14521
G1 X158.417 Y117.418 E3.18607
G1 X158.415 Y117.677 E3.19468
G1 X158.367 Y118.614 E3.22589
G1 X158.241 Y119.543 E3.25707
G1 X158.035 Y120.458 E3.28827
G1 X157.77 Y121.304 E3.31775
G1 X157.732 Y121.41 E3.3215
G1 X157.378 Y122.279 E3.35271
G1 X156.951 Y123.114 E3.3839
G1 X156.644 Y123.625 E3.40373
G1 X156.534 Y123.797 E3.41052
G1 X155.995 Y124.564 E3.4417
G1 X155.393 Y125.284 E3.47291
G1 X154.843 Y125.845 E3.49904
G1 X154.803 Y125.883 E3.50088
G1 X153.879 Y126.669 E3.54122
G1 X153.098 Y127.262 E3.57384
G1 X113.64 Y156.097 E5.1993
G1 X112.98 Y156.567 E5.22625
G1 X112.193 Y157.076 E5.25742
G1 X111.365 Y157.517 E5.28863
G1 X110.502 Y157.885 E5.31983
G1 X109.612 Y158.179 E5.351
G1 X108.699 Y158.395 E5.38221
G1 X107.772 Y158.533 E5.41338
G1 X106.824 Y158.592 E5.44497
G1 X105.868 Y158.61 E5.47677
G1 X105.661 Y158.612 E5.48366
G1 X88.107 Y158.611 E6.06751
G1 X87.409 Y158.601 E6.09073
G1 X86.473 Y158.547 E6.12191
G1 X85.545 Y158.415 E6.15309
G1 X84.631 Y158.203 E6.18429
G1 X83.739 Y157.914 E6.21548
G1 X82.874 Y157.551 E6.24668
G1 X82.044 Y157.115 E6.27786
G1 X81.253 Y156.61 E6.30908
G1 X80.509 Y156.039 E6.34027
G1 X79.816 Y155.407 E6.37146
G1 X79.179 Y154.719 E6.40265
G1 X78.604 Y153.978 E6.43384
G1 X78.093 Y153.192 E6.46503
G1 X77.651 Y152.364 E6.49624
G1 X77.282 Y151.502 E6.52743
G1 X76.987 Y150.612 E6.55862
G1 X76.769 Y149.7 E6.5898
G1 X76.629 Y148.772 E6.62102
G1 X76.571 Y147.9 E6.65009
G1 X76.562 Y147.568 E6.66113
G1 X76.558 Y147.27 E6.67104
G1 X76.559 Y87.813 E8.64859
G1 X76.568 Y87.148 E8.67071
G1 X76.621 Y86.212 E8.70189
G1 X76.753 Y85.283 E8.7331
G1 X76.964 Y84.369 E8.7643
G1 X77.252 Y83.477 E8.79548
G1 X77.615 Y82.612 E8.82668
G1 X78.05 Y81.781 E8.85788
G1 X78.554 Y80.991 E8.88904
G1 X79.124 Y80.246 E8.92024
G1 X79.756 Y79.552 E8.95146
G0 F6000 X80.147 Y79.727
G1 F1200 X80.832 Y79.111 E8.9821
G1 X81.568 Y78.558 E9.01272
G1 X82.349 Y78.07 E9.04335
G1 X83.169 Y77.652 E9.07396
G1 X84.023 Y77.307 E9.1046
G1 X84.903 Y77.037 E9.13521
G1 X85.803 Y76.845 E9.16582
G1 X86.717 Y76.731 E9.19646
G1 X87.27 Y76.701 E9.21488
G1 X87.591 Y76.692 E9.22556
G1 X87.888 Y76.688 E9.23544
G1 X105.901 Y76.688 E9.83455
G1 X106.746 Y76.699 E9.86266
G1 X107.665 Y76.752 E9.89328
G1 X108.576 Y76.885 E9.9239
G1 X109.472 Y77.097 E9.95452
G1 X110.347 Y77.385 E9.98516
G1 X111.193 Y77.748 E10.01578
G1 X112.004 Y78.183 E10.04639
G1 X112.687 Y78.625 E10.07345
G1 X113.437 Y79.152 E10.10393
G1 X113.597 Y79.267 E10.11049
G1 X152.993 Y108.057 E11.7334
G1 X153.506 Y108.443 E11.75475
G1 X154.238 Y109.047 E11.78632
G1 X154.393 Y109.187 E11.79327
G1 X155.049 Y109.833 E11.82389
G1 X155.646 Y110.534 E11.85451
G1 X156.056 Y111.096 E11.87765
G1 X156.109 Y111.174 E11.88079
G1 X156.592 Y111.957 E11.91139
G1 X157.006 Y112.779 E11.942
G1 X157.262 Y113.398 E11.96428
G1 X157.338 Y113.6 E11.97145
G1 X157.625 Y114.475 E12.00208
G1 X157.834 Y115.372 E12.03272
G1 X157.965 Y116.283 E12.06333
G1 X158.017 Y117.415 E12.10102
G1 X158.015 Y117.674 E12.10963
G1 X157.968 Y118.593 E12.14024
G1 X157.841 Y119.505 E12.17086
G1 X157.636 Y120.403 E12.2015
G1 X157.393 Y121.169 E12.22823
G1 X157.355 Y121.275 E12.23197
G1 X157.007 Y122.127 E12.26258
G1 X156.586 Y122.946 E12.29321
G1 X156.307 Y123.409 E12.31119
G1 X156.197 Y123.581 E12.31798
G1 X155.668 Y124.334 E12.34859
G1 X155.075 Y125.039 E12.37923
G1 X154.568 Y125.555 E12.40329
G1 X154.528 Y125.593 E12.40513
G1 X153.637 Y126.35 E12.44401
G1 X152.856 Y126.943 E12.47663
G1 X152.7 Y127.059 E12.48309
G1 X113.282 Y155.862 E14.10685
G1 X112.749 Y156.24 E14.12859
G1 X111.976 Y156.74 E14.15921
G1 X111.162 Y157.17 E14.18982
G1 X110.314 Y157.529 E14.22045
G1 X109.438 Y157.812 E14.25107
G1 X108.54 Y158.018 E14.28171
G1 X107.629 Y158.146 E14.31231
G1 X106.817 Y158.192 E14.33936
G1 X105.861 Y158.21 E14.37117
G1 X105.661 Y158.212 E14.37782
G1 X88.113 Y158.211 E14.96147
G1 X87.415 Y158.201 E14.98468
G1 X86.496 Y158.148 E15.0153
G1 X85.585 Y158.015 E15.04592
G1 X84.689 Y157.804 E15.07654
G1 X83.815 Y157.516 E15.10715
G1 X82.968 Y157.153 E15.1378
G1 X82.157 Y156.718 E15.1684
G1 X81.387 Y156.214 E15.19901
G1 X80.663 Y155.645 E15.22964
G1 X79.991 Y155.015 E15.26028
G1 X79.376 Y154.33 E15.2909
G1 X78.823 Y153.594 E15.32151
G1 X78.336 Y152.813 E15.35213
G1 X77.919 Y151.992 E15.38275
G1 X77.574 Y151.138 E15.41339
G1 X77.305 Y150.258 E15.44399
G1 X77.113 Y149.357 E15.47463
G1 X77 Y148.444 E15.50523
G1 X76.971 Y147.889 E15.52372
G1 X76.962 Y147.557 E15.53476
G1 X76.958 Y147.27 E15.54431
G1 X76.959 Y87.819 E17.52166
G1 X76.968 Y87.154 E17.54378
G1 X77.02 Y86.234 E17.57443
G1 X77.152 Y85.323 E17.60504
G1 X77.363 Y84.427 E17.63566
G1 X77.65 Y83.552 E17.66629
G1 X78.013 Y82.706 E17.69691
G1 X78.447 Y81.894 E17.72753
G1 X78.95 Y81.123 E17.75815
G1 X79.519 Y80.399 E17.78877
G1 X80.147 Y79.727 E17.81937
G0 F6000 X80.539 Y79.905
G1 F1200 X81.22 Y79.312 E17.8494
G1 X81.952 Y78.782 E17.87946
G1 X82.727 Y78.319 E17.90948
G1 X83.54 Y77.926 E17.93952
G1 X84.385 Y77.606 E17.96957
G1 X85.254 Y77.363 E17.99958
G1 X86.142 Y77.197 E18.02963
G1 X87.281 Y77.101 E18.06765
G1 X87.602 Y77.092 E18.07833
G1 X87.888 Y77.088 E18.08784
G1 X105.901 Y77.088 E18.68696
G1 X106.74 Y77.099 E18.71486
G1 X107.642 Y77.152 E18.74492
G1 X108.535 Y77.285 E18.77495
G1 X109.413 Y77.496 E18.80498
G1 X110.269 Y77.784 E18.83502
G1 X111.097 Y78.146 E18.86507
G1 X111.888 Y78.58 E18.89508
G1 X112.457 Y78.952 E18.91769
G1 X113.207 Y79.479 E18.94818
G1 X152.638 Y108.292 E20.57249
G1 X153.266 Y108.763 E20.5986
G1 X153.97 Y109.344 E20.62895
G1 X154.125 Y109.484 E20.6359
G1 X154.768 Y110.118 E20.66594
G1 X155.352 Y110.807 E20.69598
G1 X155.725 Y111.32 E20.71707
G1 X155.778 Y111.398 E20.72021
G1 X156.252 Y112.167 E20.75025
G1 X156.656 Y112.975 E20.7803
G1 X156.888 Y113.539 E20.80058
G1 X156.964 Y113.741 E20.80776
G1 X157.244 Y114.6 E20.83781
G1 X157.447 Y115.48 E20.86785
G1 X157.572 Y116.374 E20.89787
G1 X157.617 Y117.412 E20.93243
G1 X157.615 Y117.671 E20.94104
G1 X157.568 Y118.573 E20.97109
G1 X157.441 Y119.467 E21.00112
G1 X157.236 Y120.346 E21.03114
G1 X157.017 Y121.034 E21.05515
G1 X156.979 Y121.14 E21.0589
G1 X156.637 Y121.976 E21.08894
G1 X156.222 Y122.778 E21.11898
G1 X155.97 Y123.194 E21.13515
G1 X155.86 Y123.366 E21.14194
G1 X155.34 Y124.104 E21.17197
G1 X154.757 Y124.794 E21.20201
G1 X154.292 Y125.265 E21.22403
G1 X154.252 Y125.303 E21.22586
G1 X153.395 Y126.032 E21.26328
G1 X152.464 Y126.737 E21.30213
G1 X113.051 Y155.536 E22.92567
G1 X112.518 Y155.914 E22.94741
G1 X111.758 Y156.403 E22.97746
G1 X110.959 Y156.824 E23.0075
G1 X110.126 Y157.172 E23.03753
G1 X109.265 Y157.444 E23.06756
G1 X108.383 Y157.64 E23.09761
G1 X107.488 Y157.757 E23.12763
G1 X106.809 Y157.792 E23.15025
G1 X105.661 Y157.812 E23.18844
G1 X88.119 Y157.811 E23.77188
G1 X87.421 Y157.801 E23.7951
G1 X86.519 Y157.748 E23.82515
G1 X85.626 Y157.616 E23.85518
G1 X84.748 Y157.405 E23.88521
G1 X83.892 Y157.117 E23.91525
G1 X83.065 Y156.755 E23.94528
G1 X82.273 Y156.32 E23.97533
G1 X81.522 Y155.818 E24.00538
G1 X80.819 Y155.251 E24.03542
G1 X80.169 Y154.624 E24.06545
G1 X79.577 Y153.942 E24.09549
G1 X79.047 Y153.211 E24.12552
G1 X78.585 Y152.435 E24.15556
G1 X78.192 Y151.622 E24.18559
G1 X77.874 Y150.777 E24.21562
G1 X77.631 Y149.907 E24.24567
G1 X77.466 Y149.019 E24.27571
G1 X77.371 Y147.878 E24.31379
G1 X77.362 Y147.546 E24.32483
G1 X77.358 Y147.27 E24.33402
G1 X77.359 Y87.824 E26.3112
G1 X77.368 Y87.159 E26.33332
G1 X77.42 Y86.257 E26.36337
G1 X77.552 Y85.364 E26.39339
G1 X77.762 Y84.486 E26.42342
G1 X78.049 Y83.629 E26.45348
G1 X78.411 Y82.802 E26.4835
G1 X78.844 Y82.01 E26.51353
G1 X79.346 Y81.259 E26.54357
G1 X79.913 Y80.555 E26.57364
G1 X80.539 Y79.905 E26.60365
G1 F2700 E21.60365
;MESH:AA-Point-Rubber-1.stl
G0 F6000 X95.444 Y114.048
G0 X94.809 Y112.729
G0 X93.263 Y114.403
G0 X92.68 Y115.33
G0 X92.32 Y116.363
G0 X92.196 Y117.45
G0 X92.32 Y118.537
G0 X92.68 Y119.57
G0 X93.263 Y120.497
G0 X94.037 Y121.27
G0 X94.964 Y121.853
G0 X95.996 Y122.214
G0 X96.304 Y122.248
G0 X98.207 Y122.372
;TYPE:WALL-INNER
G1 F2700 E26.60365
G1 F1200 X99.274 Y121.999 E26.64124
G1 X100.232 Y121.397 E26.67888
G1 X101.03 Y120.597 E26.71646
G1 X101.632 Y119.641 E26.75403
G1 X102.005 Y118.574 E26.79163
G1 X102.132 Y117.45 E26.82925
G1 X102.005 Y116.326 E26.86687
G1 X101.632 Y115.259 E26.90447
G1 X101.03 Y114.303 E26.94204
G1 X100.232 Y113.503 E26.97963
G1 X99.274 Y112.901 E27.01726
G1 X98.207 Y112.528 E27.05485
G1 X97.083 Y112.401 E27.09248
G1 X95.959 Y112.528 E27.1301
G1 X94.893 Y112.901 E27.16766
G1 X93.935 Y113.503 E27.20529
G1 X93.136 Y114.302 E27.24288
G1 X92.534 Y115.259 E27.28048
G1 X92.162 Y116.326 E27.31806
G1 X92.034 Y117.45 E27.35569
G1 X92.162 Y118.574 E27.39331
G1 X92.534 Y119.641 E27.4309
G1 X93.136 Y120.598 E27.4685
G1 X93.935 Y121.397 E27.50608
G1 X94.893 Y121.999 E27.54372
G1 X95.959 Y122.372 E27.58128
G1 X97.083 Y122.499 E27.6189
G1 X98.207 Y122.372 E27.65652
G0 F6000 X98.117 Y121.98
;TYPE:WALL-OUTER
G1 F1200 X99.099 Y121.636 E27.69113
G1 X99.981 Y121.082 E27.72577
G1 X100.715 Y120.346 E27.76035
G1 X101.269 Y119.466 E27.79493
G1 X101.613 Y118.484 E27.82954
G1 X101.729 Y117.45 E27.86415
G1 X101.613 Y116.416 E27.89875
G1 X101.269 Y115.434 E27.93336
G1 X100.715 Y114.554 E27.96795
G1 X99.981 Y113.818 E28.00252
G1 X99.099 Y113.264 E28.03716
G1 X98.117 Y112.92 E28.07177
G1 X97.083 Y112.804 E28.10638
G1 X96.049 Y112.92 E28.14098
G1 X95.068 Y113.264 E28.17556
G1 X94.186 Y113.818 E28.2102
G1 X93.451 Y114.553 E28.24477
G1 X92.897 Y115.434 E28.27939
G1 X92.554 Y116.416 E28.31398
G1 X92.437 Y117.45 E28.34859
G1 X92.554 Y118.484 E28.3832
G1 X92.897 Y119.466 E28.4178
G1 X93.451 Y120.347 E28.45242
G1 X94.186 Y121.082 E28.48699
G1 X95.068 Y121.636 E28.52163
G1 X96.049 Y121.98 E28.55621
G1 X97.083 Y122.096 E28.59081
G1 X98.117 Y121.98 E28.62542
G0 F6000 X98.214 Y122.409
G1 F2700 E23.62542
G0 F6000 X97.924 Y121.132
G0 X98.25 Y148.277
G0 X98.25 Y146.802
G0 X106.412 Y147.012
;TYPE:WALL-INNER
G1 F2700 E28.62542
G1 F1200 X88.158 Y147.012 E29.23255
G1 X88.158 Y87.888 E31.19902
G1 X106.412 Y87.888 E31.80615
G1 X146.631 Y117.278 E33.46294
G1 X146.78 Y117.387 E33.46908
G1 X146.828 Y117.458 E33.47193
G1 X146.779 Y117.515 E33.47443
G1 X146.63 Y117.624 E33.48057
G1 X106.412 Y147.012 E35.13729
G0 F6000 X106.543 Y147.412
;TYPE:WALL-OUTER
G1 F1200 X87.758 Y147.412 E35.76209
G1 X87.758 Y87.488 E37.75517
G1 X106.543 Y87.488 E38.37996
G1 X147.053 Y117.091 E40.04874
G1 X147.194 Y117.255 E40.05594
G1 X147.24 Y117.457 E40.06283
G1 X147.193 Y117.648 E40.06937
G1 X147.05 Y117.812 E40.0766
G1 X106.543 Y147.412 E41.74525
G0 F6000 X106.407 Y146.994
G0 X106.286 Y146.622
;TYPE:SKIN
G1 F1200 X88.548 Y146.622 E42.33522
G1 X88.548 Y88.278 E44.27575
G1 X106.286 Y88.278 E44.86571
G1 X146.208 Y117.451 E46.51027
G1 X106.286 Y146.622 E48.15478
G1 F2700 E43.15478
G0 F6000 X106.448 Y146.848
G0 X98.232 Y146.802
G0 X98.232 Y148.277
G0 X97.083 Y121.226
G0 X97.083 Y122.69
G0 X98.232 Y122.48
G0 X98.295 Y122.754
G1 F2700 E48.15478
G1 F1200 X99.444 Y122.352 E48.19527
G1 X100.477 Y121.703 E48.23585
G1 X101.337 Y120.841 E48.27635
G1 X101.985 Y119.811 E48.31682
G1 X102.387 Y118.662 E48.35731
G1 X102.524 Y117.45 E48.39788
G1 X102.387 Y116.238 E48.43844
G1 X101.985 Y115.089 E48.47893
G1 X101.337 Y114.059 E48.51941
G1 X100.477 Y113.197 E48.5599
G1 X99.444 Y112.548 E48.60048
G1 X98.295 Y112.146 E48.64097
G1 X97.083 Y112.009 E48.68154
G1 X95.871 Y112.146 E48.7221
G1 X94.723 Y112.548 E48.76256
G1 X93.691 Y113.196 E48.80309
G1 X92.83 Y114.057 E48.84359
G1 X92.181 Y115.089 E48.88414
G1 X91.78 Y116.238 E48.92461
G1 X91.642 Y117.45 E48.96518
G1 X91.78 Y118.662 E49.00576
G1 X92.181 Y119.811 E49.04623
G1 X92.83 Y120.843 E49.08678
G1 X93.691 Y121.704 E49.12728
G1 X94.723 Y122.352 E49.16781
G1 X95.871 Y122.754 E49.20826
G1 X97.083 Y122.891 E49.24883
G1 X98.295 Y122.754 E49.2894
G1 F2700 E44.2894
G0 F6000 X98.232 Y122.48
G0 X97.083 Y122.69
G0 X97.083 Y121.226
G0 X97.083 Y148.277
G0 X97.083 Y146.802
G0 X89.327 Y146.902
G0 X89.327 Y146.461
G1 F2700 E49.2894
G1 F1200 X88.707 Y145.841 E49.31856
G0 F6000 X88.707 Y145.275
G1 F1200 X89.893 Y146.461 E49.37435
G0 F6000 X90.458 Y146.461
G1 F1200 X88.707 Y144.71 E49.45671
G0 F6000 X88.707 Y144.144
G1 F1200 X91.024 Y146.461 E49.5657
G0 F6000 X91.59 Y146.461
G1 F1200 X88.707 Y143.578 E49.7013
G0 F6000 X88.707 Y143.013
G1 F1200 X92.155 Y146.461 E49.86349
G0 F6000 X92.721 Y146.461
G1 F1200 X88.707 Y142.447 E50.05229
G0 F6000 X88.707 Y141.881
G1 F1200 X93.287 Y146.461 E50.26772
G0 F6000 X93.852 Y146.461
G1 F1200 X88.707 Y141.315 E50.50975
G0 F6000 X88.707 Y140.75
G1 F1200 X94.418 Y146.461 E50.77838
G0 F6000 X94.984 Y146.461
G1 F1200 X88.707 Y140.184 E51.07363
G0 F6000 X88.707 Y139.618
G1 F1200 X95.549 Y146.461 E51.39548
G0 F6000 X96.115 Y146.461
G1 F1200 X88.707 Y139.053 E51.74393
G0 F6000 X88.707 Y138.487
G1 F1200 X96.681 Y146.461 E52.119
G0 F6000 X97.246 Y146.461
G1 F1200 X88.707 Y137.921 E52.52067
G0 F6000 X88.707 Y137.356
G1 F1200 X97.812 Y146.461 E52.94894
G0 F6000 X98.378 Y146.461
G1 F1200 X88.707 Y136.79 E53.40384
G0 F6000 X88.707 Y136.224
G1 F1200 X98.944 Y146.461 E53.88536
G0 F6000 X99.509 Y146.461
G1 F1200 X88.707 Y135.659 E54.39345
G0 F6000 X88.707 Y135.093
G1 F1200 X100.075 Y146.461 E54.92816
G0 F6000 X100.641 Y146.461
G1 F1200 X88.707 Y134.527 E55.4895
G0 F6000 X88.707 Y133.962
G1 F1200 X101.206 Y146.461 E56.07742
G0 F6000 X101.772 Y146.461
G1 F1200 X88.707 Y133.396 E56.69196
G0 F6000 X88.707 Y132.83
G1 F1200 X102.338 Y146.461 E57.33312
G0 F6000 X102.903 Y146.461
G1 F1200 X88.707 Y132.265 E58.00085
G0 F6000 X88.707 Y131.699
G1 F1200 X103.469 Y146.461 E58.69521
G0 F6000 X104.035 Y146.461
G1 F1200 X88.707 Y131.133 E59.41619
G0 F6000 X88.707 Y130.567
G1 F1200 X104.6 Y146.461 E60.16378
G0 F6000 X105.166 Y146.461
G1 F1200 X88.707 Y130.002 E60.93796
G0 F6000 X88.707 Y129.436
G1 F1200 X105.732 Y146.461 E61.73876
G0 F6000 X106.271 Y146.434
G1 F1200 X88.707 Y128.87 E62.56492
G0 F6000 X88.707 Y128.305
G1 F1200 X106.597 Y146.195 E63.40641
G0 F6000 X106.924 Y145.956
G1 F1200 X88.707 Y127.739 E64.26328
G0 F6000 X88.707 Y127.173
G1 F1200 X107.251 Y145.717 E65.13553
G0 F6000 X107.577 Y145.478
G1 F1200 X88.707 Y126.608 E66.02312
G0 F6000 X88.707 Y126.042
