;FLAVOR:Marlin
;TIME:29207
;Filament used: 21.6792m
;Layer height: 0.2
;MINX:43.05
;MINY:87.5
;MINZ:0.2
;MAXX:176.95
;MAXY:132.5
;MAXZ:19
;Generated with Cura_SteamEngine 4.11.0
M140 S50
M105
M190 S50
M104 S200
M105
M109 S200
M82 ;absolute extrusion mode
; Ender 3 Custom Start G-code
G92 E0 ; Reset Extruder
G28 ; Home all axes
G29 ; Auto bed-level (BL-Touch)
G1 Z2.0 F3000 ; Move Z Axis up little to prevent scratching of Heat Bed
G1 X0.1 Y20 Z0.3 F5000.0 ; Move to start position
G1 X0.1 Y200.0 Z0.3 F1500.0 E15 ; Draw the first line
G1 X0.4 Y200.0 Z0.3 F5000.0 ; Move to side a little
G1 X0.4 Y20 Z0.3 F1500.0 E30 ; Draw the second line
G92 E0 ; Reset Extruder
G1 Z2.0 F3000 ; Move Z Axis up little to prevent scratching of Heat Bed
G1 X5 Y20 Z0.3 F5000.0 ; Move over to prevent blob squish
G92 E0
G92 E0
G1 F2700 E-5
;LAYER_COUNT:95
;LAYER:0
M107
G0 F6000 X48.268 Y91.812 Z0.2
;TYPE:SKIRT
G1 F2700 E0
G1 F1200 X49.069 Y91.434 E0.02946
G1 X49.9 Y91.13 E0.05889
G1 X50.755 Y90.902 E0.08832
G1 X51.628 Y90.752 E0.11778
G1 X52.85 Y90.675 E0.15851
G1 X64.942 Y90.675 E0.56069
G1 X65.42 Y90.18 E0.58358
G1 X66.09 Y89.602 E0.61301
G1 X66.809 Y89.086 E0.64244
G1 X67.572 Y88.637 E0.67189
G1 X68.373 Y88.259 E0.70135
G1 X69.204 Y87.955 E0.73078
G1 X70.059 Y87.727 E0.76021
G1 X70.932 Y87.577 E0.78967
G1 X72.154 Y87.5 E0.83039
G1 X126.129 Y87.5 E2.62561
G1 X127.013 Y87.54 E2.65504
G1 X127.89 Y87.66 E2.68448
G1 X128.753 Y87.858 E2.71393
G1 X129.594 Y88.133 E2.74336
G1 X130.407 Y88.483 E2.7728
G1 X131.186 Y88.905 E2.80227
G1 X131.922 Y89.396 E2.83169
G1 X132.612 Y89.951 E2.86115
G1 X133.249 Y90.566 E2.8906
G1 X133.562 Y90.929 E2.90654
G1 X137.994 Y90.929 E3.05395
G1 X138.084 Y90.817 E3.05873
G1 X138.699 Y90.18 E3.08818
G1 X139.369 Y89.602 E3.11761
G1 X140.088 Y89.086 E3.14704
G1 X140.851 Y88.637 E3.17649
G1 X141.652 Y88.259 E3.20595
G1 X142.483 Y87.955 E3.23538
G1 X143.338 Y87.727 E3.26481
G1 X144.211 Y87.577 E3.29427
G1 X145.433 Y87.5 E3.33499
G1 X167.15 Y87.5 E4.0573
G1 X168.034 Y87.54 E4.08674
G1 X168.911 Y87.66 E4.11618
G1 X169.774 Y87.858 E4.14563
G1 X170.615 Y88.133 E4.17505
G1 X171.428 Y88.483 E4.20449
G1 X172.207 Y88.905 E4.23396
G1 X172.943 Y89.396 E4.26339
G1 X173.633 Y89.951 E4.29284
G1 X174.27 Y90.566 E4.32229
G1 X174.848 Y91.236 E4.35172
G1 X175.364 Y91.955 E4.38116
G1 X175.813 Y92.718 E4.4106
G1 X176.191 Y93.519 E4.44006
G1 X176.495 Y94.35 E4.46949
G1 X176.723 Y95.205 E4.49892
G1 X176.873 Y96.078 E4.52838
G1 X176.95 Y97.3 E4.56911
G1 X176.95 Y122.7 E5.41392
G1 X176.91 Y123.584 E5.44335
G1 X176.79 Y124.461 E5.47279
G1 X176.592 Y125.324 E5.50224
G1 X176.317 Y126.165 E5.53167
G1 X175.967 Y126.978 E5.56111
G1 X175.545 Y127.757 E5.59057
G1 X175.054 Y128.493 E5.62
G1 X174.499 Y129.183 E5.64945
G1 X173.884 Y129.82 E5.6789
G1 X173.214 Y130.398 E5.70833
G1 X172.495 Y130.914 E5.73777
G1 X171.732 Y131.363 E5.76721
G1 X170.931 Y131.741 E5.79667
G1 X170.1 Y132.045 E5.8261
G1 X169.245 Y132.273 E5.85553
G1 X168.372 Y132.423 E5.885
G1 X167.15 Y132.5 E5.92572
G1 X52.85 Y132.5 E9.72735
G1 X51.966 Y132.46 E9.75679
G1 X51.089 Y132.34 E9.78623
G1 X50.226 Y132.142 E9.81568
G1 X49.385 Y131.867 E9.84511
G1 X48.572 Y131.517 E9.87455
G1 X47.793 Y131.095 E9.90401
G1 X47.057 Y130.604 E9.93344
G1 X46.367 Y130.049 E9.96289
G1 X45.73 Y129.434 E9.99234
G1 X45.152 Y128.764 E10.02177
G1 X44.636 Y128.045 E10.05121
G1 X44.187 Y127.282 E10.08065
G1 X43.809 Y126.481 E10.11011
G1 X43.505 Y125.65 E10.13954
G1 X43.277 Y124.795 E10.16897
G1 X43.127 Y123.922 E10.19843
G1 X43.05 Y122.7 E10.23916
G1 X43.05 Y100.475 E10.97837
G1 X43.09 Y99.591 E11.0078
G1 X43.21 Y98.714 E11.03724
G1 X43.408 Y97.851 E11.06669
G1 X43.683 Y97.01 E11.09612
G1 X44.033 Y96.197 E11.12556
G1 X44.455 Y95.418 E11.15502
G1 X44.946 Y94.682 E11.18445
G1 X45.501 Y93.992 E11.2139
G1 X46.116 Y93.355 E11.24335
G1 X46.786 Y92.777 E11.27278
G1 X47.505 Y92.261 E11.30222
G1 X48.268 Y91.812 E11.33166
G0 F6000 X48.646 Y92.067
G1 F1200 X49.439 Y91.716 E11.36051
G1 X50.26 Y91.439 E11.38933
G1 X51.104 Y91.239 E11.41818
G1 X51.962 Y91.117 E11.447
G1 X52.85 Y91.075 E11.47657
G1 X65.117 Y91.075 E11.88457
G1 X65.2 Y90.975 E11.88889
G1 X65.813 Y90.361 E11.91775
G1 X66.479 Y89.806 E11.94658
G1 X67.193 Y89.316 E11.97539
G1 X67.95 Y88.892 E12.00424
G1 X68.743 Y88.541 E12.03309
G1 X69.564 Y88.264 E12.06191
G1 X70.408 Y88.064 E12.09076
G1 X71.266 Y87.942 E12.11958
G1 X72.154 Y87.9 E12.14915
G1 X126.129 Y87.9 E13.94436
G1 X126.995 Y87.94 E13.9732
G1 X127.854 Y88.06 E14.00205
G1 X128.698 Y88.258 E14.03088
G1 X129.52 Y88.533 E14.05971
G1 X130.313 Y88.883 E14.08854
G1 X131.071 Y89.304 E14.11738
G1 X131.786 Y89.793 E14.14619
G1 X132.454 Y90.346 E14.17503
G1 X133.068 Y90.959 E14.20389
G1 X133.376 Y91.329 E14.2199
G1 X138.186 Y91.329 E14.37988
G1 X138.479 Y90.975 E14.39517
G1 X139.092 Y90.361 E14.42402
G1 X139.758 Y89.806 E14.45286
G1 X140.472 Y89.316 E14.48166
G1 X141.229 Y88.892 E14.51052
G1 X142.022 Y88.541 E14.53936
G1 X142.843 Y88.264 E14.56818
G1 X143.687 Y88.064 E14.59703
G1 X144.545 Y87.942 E14.62585
G1 X145.433 Y87.9 E14.65542
G1 X167.15 Y87.9 E15.37773
G1 X168.016 Y87.94 E15.40657
G1 X168.875 Y88.06 E15.43541
G1 X169.719 Y88.258 E15.46425
G1 X170.541 Y88.533 E15.49308
G1 X171.334 Y88.883 E15.52191
G1 X172.092 Y89.304 E15.55074
G1 X172.807 Y89.793 E15.57956
G1 X173.475 Y90.346 E15.6084
G1 X174.089 Y90.959 E15.63726
G1 X174.644 Y91.625 E15.66609
G1 X175.134 Y92.339 E15.69489
G1 X175.558 Y93.096 E15.72375
G1 X175.909 Y93.889 E15.75259
G1 X176.186 Y94.71 E15.78141
G1 X176.386 Y95.554 E15.81026
G1 X176.508 Y96.412 E15.83909
G1 X176.55 Y97.3 E15.86865
G1 X176.55 Y122.7 E16.71346
G1 X176.51 Y123.566 E16.7423
G1 X176.39 Y124.425 E16.77114
G1 X176.192 Y125.269 E16.79998
G1 X175.917 Y126.091 E16.82881
G1 X175.567 Y126.884 E16.85764
G1 X175.146 Y127.642 E16.88648
G1 X174.657 Y128.357 E16.91529
G1 X174.104 Y129.025 E16.94413
G1 X173.491 Y129.639 E16.97299
G1 X172.825 Y130.194 E17.00182
G1 X172.111 Y130.684 E17.03062
G1 X171.354 Y131.108 E17.05948
G1 X170.561 Y131.459 E17.08832
G1 X169.74 Y131.736 E17.11714
G1 X168.896 Y131.936 E17.14599
G1 X168.038 Y132.058 E17.17482
G1 X167.15 Y132.1 E17.20438
G1 X52.85 Y132.1 E21.00602
G1 X51.984 Y132.06 E21.03485
G1 X51.125 Y131.94 E21.0637
G1 X50.281 Y131.742 E21.09253
G1 X49.459 Y131.467 E21.12136
G1 X48.666 Y131.117 E21.15019
G1 X47.908 Y130.696 E21.17903
G1 X47.193 Y130.207 E21.20784
G1 X46.525 Y129.654 E21.23669
G1 X45.911 Y129.041 E21.26554
G1 X45.356 Y128.375 E21.29438
G1 X44.866 Y127.661 E21.32318
G1 X44.442 Y126.904 E21.35204
G1 X44.091 Y126.111 E21.38088
G1 X43.814 Y125.29 E21.4097
G1 X43.614 Y124.446 E21.43855
G1 X43.492 Y123.588 E21.46737
G1 X43.45 Y122.7 E21.49694
G1 X43.45 Y100.475 E22.23615
G1 X43.49 Y99.609 E22.26498
G1 X43.61 Y98.75 E22.29383
G1 X43.808 Y97.906 E22.32266
G1 X44.083 Y97.084 E22.35149
G1 X44.433 Y96.291 E22.38032
G1 X44.854 Y95.533 E22.40916
G1 X45.343 Y94.818 E22.43797
G1 X45.896 Y94.15 E22.46682
G1 X46.509 Y93.536 E22.49567
G1 X47.175 Y92.981 E22.52451
G1 X47.889 Y92.491 E22.55331
G1 X48.646 Y92.067 E22.58217
G0 F6000 X48.272 Y92.726
G1 F1200 X49.022 Y92.33 E22.61038
G1 X49.806 Y92.005 E22.6386
G1 X50.617 Y91.756 E22.66682
G1 X51.448 Y91.585 E22.69504
G1 X52.291 Y91.492 E22.72325
G1 X52.85 Y91.475 E22.74185
G1 X65.306 Y91.475 E23.15614
G1 X65.595 Y91.137 E23.17093
G1 X66.205 Y90.547 E23.19915
G1 X66.867 Y90.017 E23.22736
G1 X67.576 Y89.551 E23.25558
G1 X68.326 Y89.155 E23.28379
G1 X69.11 Y88.83 E23.31201
G1 X69.921 Y88.581 E23.34023
G1 X70.752 Y88.41 E23.36845
G1 X71.595 Y88.317 E23.39666
G1 X72.154 Y88.3 E23.41526
G1 X126.129 Y88.3 E25.21047
G1 X126.976 Y88.34 E25.23868
G1 X127.816 Y88.46 E25.2669
G1 X128.641 Y88.658 E25.29512
G1 X129.444 Y88.933 E25.32335
G1 X130.217 Y89.282 E25.35156
G1 X130.953 Y89.702 E25.37974
G1 X131.647 Y90.19 E25.40796
G1 X132.292 Y90.741 E25.43618
G1 X132.882 Y91.351 E25.4644
G1 X133.185 Y91.729 E25.48051
G1 X138.368 Y91.729 E25.6529
G1 X138.874 Y91.137 E25.6788
G1 X139.484 Y90.547 E25.70703
G1 X140.146 Y90.017 E25.73524
G1 X140.855 Y89.551 E25.76345
G1 X141.605 Y89.155 E25.79166
G1 X142.389 Y88.83 E25.81989
G1 X143.2 Y88.581 E25.84811
G1 X144.031 Y88.41 E25.87633
G1 X144.874 Y88.317 E25.90453
G1 X145.433 Y88.3 E25.92314
G1 X167.15 Y88.3 E26.64545
G1 X167.997 Y88.34 E26.67365
G1 X168.837 Y88.46 E26.70187
G1 X169.662 Y88.658 E26.73009
G1 X170.465 Y88.933 E26.75832
G1 X171.238 Y89.282 E26.78653
G1 X171.974 Y89.702 E26.81471
G1 X172.668 Y90.19 E26.84293
G1 X173.313 Y90.741 E26.87115
G1 X173.903 Y91.351 E26.89937
G1 X174.433 Y92.013 E26.92758
G1 X174.899 Y92.722 E26.9558
G1 X175.295 Y93.472 E26.98401
G1 X175.62 Y94.256 E27.01223
G1 X175.869 Y95.067 E27.04045
G1 X176.04 Y95.898 E27.06867
G1 X176.133 Y96.741 E27.09688
G1 X176.15 Y97.3 E27.11548
G1 X176.15 Y122.7 E27.96029
G1 X176.11 Y123.547 E27.98849
G1 X175.99 Y124.387 E28.01671
G1 X175.792 Y125.212 E28.04493
G1 X175.517 Y126.015 E28.07316
G1 X175.168 Y126.788 E28.10137
G1 X174.748 Y127.524 E28.12955
G1 X174.26 Y128.218 E28.15777
G1 X173.709 Y128.863 E28.18599
G1 X173.099 Y129.453 E28.21421
G1 X172.437 Y129.983 E28.24242
G1 X171.728 Y130.449 E28.27064
G1 X170.978 Y130.845 E28.29885
G1 X170.194 Y131.17 E28.32707
G1 X169.383 Y131.419 E28.35529
G1 X168.552 Y131.59 E28.38351
G1 X167.709 Y131.683 E28.41172
G1 X167.15 Y131.7 E28.43032
G1 X52.85 Y131.7 E32.23195
G1 X52.003 Y131.66 E32.26015
G1 X51.163 Y131.54 E32.28838
G1 X50.338 Y131.342 E32.31659
G1 X49.535 Y131.067 E32.34483
G1 X48.762 Y130.718 E32.37303
G1 X48.026 Y130.298 E32.40122
G1 X47.332 Y129.81 E32.42944
G1 X46.687 Y129.259 E32.45765
G1 X46.097 Y128.649 E32.48588
G1 X45.567 Y127.987 E32.51408
G1 X45.101 Y127.278 E32.5423
G1 X44.705 Y126.528 E32.57051
G1 X44.38 Y125.744 E32.59874
G1 X44.131 Y124.933 E32.62696
G1 X43.96 Y124.102 E32.65517
G1 X43.867 Y123.259 E32.68338
G1 X43.85 Y122.7 E32.70198
G1 X43.85 Y100.475 E33.44119
G1 X43.89 Y99.628 E33.46939
G1 X44.01 Y98.788 E33.49761
G1 X44.208 Y97.963 E33.52583
G1 X44.483 Y97.16 E33.55406
G1 X44.832 Y96.387 E33.58227
G1 X45.252 Y95.651 E33.61046
G1 X45.74 Y94.957 E33.63868
G1 X46.291 Y94.312 E33.66689
G1 X46.901 Y93.722 E33.69512
G1 X47.563 Y93.192 E33.72332
G1 X48.272 Y92.726 E33.75154
G0 F6000 X48.653 Y92.968
G1 F1200 X49.396 Y92.599 E33.77913
G1 X50.171 Y92.303 E33.80673
G1 X50.97 Y92.083 E33.83429
G1 X51.787 Y91.941 E33.86187
G1 X52.85 Y91.875 E33.89729
G1 X65.485 Y91.875 E34.31754
G1 X65.99 Y91.303 E34.34291
G1 X66.596 Y90.737 E34.37049
G1 X67.254 Y90.232 E34.39808
G1 X67.957 Y89.793 E34.42565
G1 X68.7 Y89.424 E34.45324
G1 X69.475 Y89.128 E34.48083
G1 X70.274 Y88.908 E34.5084
G1 X71.091 Y88.766 E34.53598
G1 X72.154 Y88.7 E34.5714
G1 X126.129 Y88.7 E36.36662
G1 X126.957 Y88.74 E36.39419
G1 X127.778 Y88.86 E36.42179
G1 X128.583 Y89.058 E36.44936
G1 X129.365 Y89.332 E36.47692
G1 X130.118 Y89.681 E36.50452
G1 X130.833 Y90.101 E36.5321
G1 X131.504 Y90.587 E36.55966
G1 X132.126 Y91.136 E36.58725
G1 X132.692 Y91.742 E36.61483
G1 X132.989 Y92.129 E36.63106
G1 X138.572 Y92.129 E36.81675
G1 X138.72 Y91.925 E36.82513
G1 X139.269 Y91.303 E36.85272
G1 X139.875 Y90.737 E36.8803
G1 X140.533 Y90.232 E36.90789
G1 X141.236 Y89.793 E36.93546
G1 X141.979 Y89.424 E36.96305
G1 X142.754 Y89.128 E36.99064
G1 X143.553 Y88.908 E37.01821
G1 X144.37 Y88.766 E37.04579
G1 X145.433 Y88.7 E37.08121
G1 X167.15 Y88.7 E37.80352
G1 X167.978 Y88.74 E37.83109
G1 X168.799 Y88.86 E37.85869
G1 X169.604 Y89.058 E37.88626
G1 X170.386 Y89.332 E37.91382
G1 X171.139 Y89.681 E37.94143
G1 X171.854 Y90.101 E37.96901
G1 X172.525 Y90.587 E37.99656
G1 X173.147 Y91.136 E38.02416
G1 X173.713 Y91.742 E38.05174
G1 X174.218 Y92.4 E38.07932
G1 X174.657 Y93.103 E38.10689
G1 X175.026 Y93.846 E38.13448
G1 X175.322 Y94.621 E38.16208
G1 X175.542 Y95.42 E38.18964
G1 X175.684 Y96.237 E38.21722
G1 X175.75 Y97.3 E38.25264
G1 X175.75 Y122.7 E39.09745
G1 X175.71 Y123.528 E39.12502
G1 X175.59 Y124.349 E39.15262
G1 X175.392 Y125.154 E39.18019
G1 X175.118 Y125.936 E39.20775
G1 X174.769 Y126.689 E39.23536
G1 X174.349 Y127.404 E39.26294
G1 X173.863 Y128.075 E39.29049
G1 X173.314 Y128.697 E39.31809
G1 X172.708 Y129.263 E39.34567
G1 X172.05 Y129.768 E39.37325
G1 X171.347 Y130.207 E39.40082
G1 X170.604 Y130.576 E39.42841
G1 X169.829 Y130.872 E39.456
G1 X169.03 Y131.092 E39.48357
G1 X168.213 Y131.234 E39.51115
G1 X167.15 Y131.3 E39.54657
G1 X52.85 Y131.3 E43.34821
G1 X52.022 Y131.26 E43.37578
G1 X51.201 Y131.14 E43.40337
G1 X50.396 Y130.942 E43.43095
G1 X49.614 Y130.668 E43.45851
G1 X48.861 Y130.319 E43.48611
G1 X48.146 Y129.899 E43.51369
G1 X47.475 Y129.413 E43.54125
G1 X46.853 Y128.864 E43.56884
G1 X46.287 Y128.258 E43.59642
G1 X45.782 Y127.6 E43.62401
G1 X45.343 Y126.897 E43.65157
G1 X44.974 Y126.154 E43.67917
G1 X44.678 Y125.379 E43.70676
G1 X44.458 Y124.58 E43.73432
G1 X44.316 Y123.763 E43.7619
G1 X44.25 Y122.7 E43.79733
G1 X44.25 Y100.475 E44.53653
G1 X44.29 Y99.647 E44.56411
G1 X44.41 Y98.826 E44.5917
G1 X44.608 Y98.021 E44.61928
G1 X44.882 Y97.239 E44.64684
G1 X45.231 Y96.486 E44.67444
G1 X45.651 Y95.771 E44.70202
G1 X46.137 Y95.1 E44.72958
G1 X46.686 Y94.478 E44.75717
G1 X47.292 Y93.912 E44.78475
G1 X47.95 Y93.407 E44.81234
G1 X48.653 Y92.968 E44.8399
G0 F6000 X49.033 Y93.218
G1 F1200 X49.767 Y92.876 E44.86684
G1 X50.532 Y92.61 E44.89377
G1 X51.319 Y92.419 E44.92071
G1 X52.121 Y92.307 E44.94764
G1 X52.85 Y92.275 E44.97191
G1 X65.685 Y92.275 E45.39881
G1 X65.838 Y92.071 E45.40729
G1 X66.384 Y91.474 E45.4342
G1 X66.987 Y90.933 E45.46114
G1 X67.64 Y90.454 E45.48808
G1 X68.337 Y90.043 E45.51499
G1 X69.071 Y89.701 E45.54192
G1 X69.836 Y89.435 E45.56886
G1 X70.623 Y89.244 E45.5958
G1 X71.425 Y89.132 E45.62273
G1 X72.154 Y89.1 E45.647
G1 X126.129 Y89.1 E47.44222
G1 X126.938 Y89.14 E47.46916
G1 X127.739 Y89.26 E47.49609
G1 X128.524 Y89.457 E47.52301
G1 X129.285 Y89.732 E47.54993
G1 X130.016 Y90.08 E47.57685
G1 X130.71 Y90.499 E47.60382
G1 X131.358 Y90.984 E47.63074
G1 X131.955 Y91.53 E47.65765
G1 X132.496 Y92.133 E47.68459
G1 X132.786 Y92.529 E47.70092
G1 X138.774 Y92.529 E47.90008
G1 X139.117 Y92.071 E47.91911
G1 X139.663 Y91.474 E47.94602
G1 X140.266 Y90.933 E47.97296
G1 X140.919 Y90.454 E47.9999
G1 X141.616 Y90.043 E48.02681
G1 X142.35 Y89.701 E48.05374
G1 X143.115 Y89.435 E48.08068
G1 X143.902 Y89.244 E48.10762
G1 X144.704 Y89.132 E48.13455
G1 X145.433 Y89.1 E48.15882
G1 X167.15 Y89.1 E48.88113
G1 X167.959 Y89.14 E48.90807
G1 X168.76 Y89.26 E48.93501
G1 X169.545 Y89.457 E48.96193
G1 X170.306 Y89.732 E48.98884
G1 X171.037 Y90.08 E49.01577
G1 X171.731 Y90.499 E49.04273
G1 X172.379 Y90.984 E49.06965
G1 X172.976 Y91.53 E49.09656
G1 X173.517 Y92.133 E49.12351
G1 X173.996 Y92.786 E49.15044
G1 X174.407 Y93.483 E49.17735
G1 X174.749 Y94.217 E49.20429
G1 X175.015 Y94.982 E49.23123
G1 X175.206 Y95.769 E49.25816
G1 X175.318 Y96.571 E49.28509
G1 X175.35 Y97.3 E49.30936
G1 X175.35 Y122.7 E50.15417
G1 X175.31 Y123.509 E50.18111
G1 X175.19 Y124.31 E50.20805
G1 X174.993 Y125.095 E50.23497
G1 X174.718 Y125.856 E50.26188
G1 X174.37 Y126.587 E50.28881
G1 X173.951 Y127.281 E50.31577
G1 X173.466 Y127.929 E50.34269
G1 X172.92 Y128.526 E50.3696
G1 X172.317 Y129.067 E50.39655
G1 X171.664 Y129.546 E50.42348
G1 X170.967 Y129.957 E50.4504
G1 X170.233 Y130.299 E50.47733
G1 X169.468 Y130.565 E50.50427
G1 X168.681 Y130.756 E50.5312
G1 X167.879 Y130.868 E50.55814
G1 X167.15 Y130.9 E50.58241
G1 X52.85 Y130.9 E54.38404
G1 X52.041 Y130.86 E54.41098
G1 X51.24 Y130.74 E54.43792
G1 X50.455 Y130.543 E54.46484
G1 X49.694 Y130.268 E54.49175
G1 X48.963 Y129.92 E54.51868
G1 X48.269 Y129.501 E54.54564
G1 X47.621 Y129.016 E54.57256
G1 X47.024 Y128.47 E54.59947
G1 X46.483 Y127.867 E54.62641
G1 X46.004 Y127.214 E54.65335
G1 X45.593 Y126.517 E54.68026
G1 X45.251 Y125.783 E54.7072
G1 X44.985 Y125.018 E54.73413
G1 X44.794 Y124.231 E54.76107
G1 X44.682 Y123.429 E54.788
G1 X44.65 Y122.7 E54.81227
G1 X44.65 Y100.475 E55.55148
G1 X44.69 Y99.666 E55.57842
G1 X44.81 Y98.865 E55.60536
G1 X45.007 Y98.08 E55.63228
G1 X45.282 Y97.319 E55.65919
G1 X45.63 Y96.588 E55.68612
G1 X46.049 Y95.894 E55.71308
G1 X46.534 Y95.246 E55.74
G1 X47.08 Y94.649 E55.76691
G1 X47.683 Y94.108 E55.79385
