;FLAVOR:Marlin
;TIME:19181
;Filament used: 14.6386m
;Layer height: 0.2
;MINX:76.354
;MINY:76.388
;MINZ:0.2
;MAXX:158.646
;MAXY:158.712
;MAXZ:12.6
;Generated with Cura_SteamEngine 4.10.0
M140 S50
M105
M190 S50
M104 S220
M105
M109 S220
M82 ;absolute extrusion mode
; Ender 3 Custom Start G-code
G92 E0 ; Reset Extruder
G28 ; Home all axes
G1 Z2.0 F3000 ; Move Z Axis up little to prevent scratching of Heat Bed
G1 X0.1 Y20 Z0.3 F5000.0 ; Move to start position
G1 X0.1 Y200.0 Z0.3 F1500.0 E15 ; Draw the first line
G1 X0.4 Y200.0 Z0.3 F5000.0 ; Move to side a little
G1 X0.4 Y20 Z0.3 F1500.0 E30 ; Draw the second line
G92 E0 ; Reset Extruder
G1 Z2.0 F3000 ; Move Z Axis up little to prevent scratching of Heat Bed
G1 X5 Y20 Z0.3 F5000.0 ; Move over to prevent blob squish
G92 E0
G92 E0
G1 F2700 E-5
;LAYER_COUNT:64
;LAYER:0
M107
G0 F6000 X79.552 Y79.652 Z0.2
;TYPE:SKIRT
G1 F2700 E0
G1 F1200 X80.24 Y79.015 E0.03119
G1 X80.98 Y78.439 E0.06237
G1 X81.766 Y77.927 E0.09357
G1 X82.593 Y77.485 E0.12476
G1 X83.455 Y77.115 E0.15596
G1 X84.345 Y76.819 E0.18716
G1 X85.257 Y76.601 E0.21835
G1 X86.184 Y76.46 E0.24953
G1 X87.055 Y76.401 E0.27857
G1 X87.376 Y76.392 E0.28925
G1 X87.684 Y76.388 E0.29949
G1 X132.129 Y76.388 E1.77774
G1 X132.985 Y76.399 E1.80621
G1 X133.921 Y76.453 E1.8374
G1 X134.849 Y76.585 E1.86857
G1 X135.763 Y76.797 E1.89978
G1 X136.655 Y77.086 E1.93097
G1 X137.52 Y77.449 E1.96217
G1 X138.35 Y77.885 E1.99335
G1 X139.141 Y78.39 E2.02456
G1 X139.634 Y78.757 E2.04501
G1 X140.401 Y79.363 E2.07752
G1 X140.888 Y79.76 E2.09842
G1 X141.525 Y80.294 E2.12606
G1 X141.741 Y80.48 E2.13554
G1 X142.235 Y80.918 E2.1575
G1 X142.821 Y81.451 E2.18385
G1 X143.437 Y82.024 E2.21183
G1 X143.655 Y82.232 E2.22185
G1 X144.094 Y82.665 E2.24236
G1 X144.693 Y83.269 E2.27065
G1 X145.214 Y83.808 E2.29559
G1 X145.394 Y83.998 E2.30429
G1 X145.794 Y84.432 E2.32392
G1 X146.37 Y85.076 E2.35266
G1 X146.959 Y85.753 E2.3825
G1 X147.148 Y85.976 E2.39223
G1 X147.569 Y86.488 E2.41427
G1 X148.023 Y87.055 E2.43843
G1 X148.581 Y87.769 E2.46857
G1 X148.744 Y87.982 E2.47749
G1 X149.109 Y88.475 E2.4979
G1 X149.56 Y89.1 E2.52353
G1 X150.08 Y89.842 E2.55367
G1 X150.228 Y90.059 E2.5624
G1 X150.545 Y90.536 E2.58145
G1 X151.048 Y91.315 E2.61229
G1 X151.447 Y91.952 E2.63729
G1 X151.606 Y92.213 E2.64746
G1 X151.899 Y92.712 E2.6667
G1 X152.349 Y93.495 E2.69674
G1 X152.742 Y94.203 E2.72367
G1 X152.87 Y94.441 E2.73266
G1 X153.14 Y94.96 E2.75212
G1 X153.546 Y95.763 E2.78205
G1 X153.897 Y96.48 E2.8086
G1 X154.011 Y96.721 E2.81747
G1 X154.263 Y97.273 E2.83765
G1 X154.596 Y98.027 E2.86506
G1 X154.938 Y98.829 E2.89406
G1 X155.042 Y99.08 E2.9031
G1 X155.256 Y99.62 E2.92242
G1 X155.548 Y100.384 E2.94962
G1 X155.84 Y101.179 E2.97779
G1 X155.943 Y101.475 E2.98822
G1 X156.15 Y102.095 E3.00996
G1 X156.397 Y102.861 E3.03672
G1 X156.648 Y103.676 E3.06509
G1 X156.727 Y103.947 E3.07448
G1 X156.874 Y104.476 E3.09274
G1 X157.099 Y105.326 E3.12198
G1 X157.295 Y106.102 E3.1486
G1 X157.363 Y106.386 E3.15832
G1 X157.509 Y107.043 E3.1807
G1 X157.676 Y107.839 E3.20775
G1 X157.826 Y108.604 E3.23368
G1 X157.878 Y108.884 E3.24315
G1 X157.992 Y109.561 E3.26599
G1 X158.093 Y110.201 E3.28754
G1 X158.231 Y111.165 E3.31993
G1 X158.267 Y111.436 E3.32902
G1 X158.339 Y112.056 E3.34978
G1 X158.425 Y112.891 E3.3777
G1 X158.499 Y113.712 E3.40512
G1 X158.52 Y113.984 E3.41419
G1 X158.56 Y114.612 E3.43512
G1 X158.599 Y115.404 E3.46149
G1 X158.632 Y116.279 E3.49062
G1 X158.639 Y116.552 E3.4997
G1 X158.646 Y117.175 E3.52042
G1 X158.644 Y118.057 E3.54976
G1 X158.633 Y118.805 E3.57464
G1 X158.626 Y119.072 E3.58352
G1 X158.6 Y119.702 E3.60449
G1 X158.555 Y120.547 E3.63264
G1 X158.499 Y121.394 E3.66087
G1 X158.475 Y121.699 E3.67105
G1 X158.421 Y122.258 E3.68973
G1 X158.334 Y123.08 E3.71722
G1 X158.234 Y123.916 E3.74522
G1 X158.198 Y124.19 E3.75441
G1 X158.105 Y124.828 E3.77586
G1 X157.972 Y125.666 E3.80408
G1 X157.832 Y126.474 E3.83135
G1 X157.779 Y126.753 E3.8408
G1 X157.668 Y127.309 E3.85966
G1 X157.478 Y128.203 E3.89006
G1 X157.298 Y128.991 E3.91694
G1 X157.232 Y129.264 E3.92628
G1 X157.081 Y129.851 E3.94644
G1 X156.851 Y130.705 E3.97586
G1 X156.645 Y131.435 E4.00108
G1 X156.562 Y131.713 E4.01073
G1 X156.376 Y132.309 E4.0315
G1 X156.124 Y133.085 E4.05864
G1 X155.852 Y133.886 E4.08677
G1 X155.757 Y134.155 E4.09626
G1 X155.555 Y134.7 E4.11559
G1 X155.224 Y135.561 E4.14627
G1 X154.937 Y136.278 E4.17196
G1 X154.826 Y136.546 E4.18161
G1 X154.597 Y137.075 E4.20078
G1 X154.227 Y137.905 E4.23101
G1 X153.901 Y138.612 E4.2569
G1 X153.777 Y138.873 E4.26651
G1 X153.487 Y139.457 E4.2882
G1 X153.126 Y140.163 E4.31457
G1 X152.724 Y140.928 E4.34331
G1 X152.592 Y141.172 E4.35254
G1 X152.299 Y141.695 E4.37248
G1 X151.901 Y142.382 E4.39889
G1 X151.455 Y143.133 E4.42794
G1 X151.305 Y143.378 E4.43749
G1 X150.983 Y143.887 E4.45753
G1 X150.498 Y144.635 E4.48718
G1 X150.09 Y145.247 E4.51164
G1 X149.921 Y145.493 E4.52157
G1 X149.557 Y146.006 E4.54249
G1 X149.051 Y146.702 E4.57111
G1 X148.579 Y147.335 E4.59737
G1 X148.399 Y147.57 E4.60722
G1 X147.998 Y148.078 E4.62874
G1 X147.473 Y148.73 E4.65658
G1 X146.954 Y149.355 E4.6836
G1 X146.746 Y149.598 E4.69424
G1 X146.386 Y150.006 E4.71234
G1 X145.775 Y150.686 E4.74275
G1 X145.257 Y151.247 E4.76814
G1 X145.076 Y151.438 E4.77689
G1 X144.622 Y151.905 E4.79856
G1 X144.039 Y152.489 E4.826
G1 X143.427 Y153.087 E4.85446
G1 X143.209 Y153.293 E4.86444
G1 X142.788 Y153.682 E4.8835
G1 X142.159 Y154.248 E4.91165
G1 X141.537 Y154.795 E4.9392
G1 X141.327 Y154.975 E4.9484
G1 X140.877 Y155.35 E4.96788
G1 X140.168 Y155.927 E4.99828
G1 X139.655 Y156.332 E5.02002
G1 X138.895 Y156.881 E5.0512
G1 X138.091 Y157.363 E5.08238
G1 X137.248 Y157.776 E5.1136
G1 X136.374 Y158.115 E5.14478
G1 X135.474 Y158.378 E5.17597
G1 X134.554 Y158.563 E5.20718
G1 X133.622 Y158.67 E5.23838
G1 X133.023 Y158.696 E5.25833
G1 X132.002 Y158.712 E5.29229
G1 X87.903 Y158.711 E6.75903
G1 X87.205 Y158.701 E6.78224
G1 X86.269 Y158.647 E6.81343
G1 X85.341 Y158.515 E6.8446
G1 X84.427 Y158.303 E6.87581
G1 X83.535 Y158.014 E6.907
G1 X82.67 Y157.651 E6.9382
G1 X81.84 Y157.215 E6.96938
G1 X81.049 Y156.71 E7.00059
G1 X80.305 Y156.139 E7.03179
G1 X79.612 Y155.507 E7.06298
G1 X78.975 Y154.819 E7.09417
G1 X78.4 Y154.078 E7.12536
G1 X77.889 Y153.292 E7.15654
G1 X77.447 Y152.464 E7.18776
G1 X77.078 Y151.602 E7.21895
G1 X76.783 Y150.712 E7.25013
G1 X76.565 Y149.8 E7.28132
G1 X76.425 Y148.872 E7.31254
G1 X76.367 Y148 E7.3416
G1 X76.358 Y147.668 E7.35265
G1 X76.354 Y147.37 E7.36256
G1 X76.355 Y87.913 E9.34011
G1 X76.364 Y87.248 E9.36223
G1 X76.417 Y86.312 E9.39341
G1 X76.549 Y85.383 E9.42462
G1 X76.76 Y84.469 E9.45582
G1 X77.048 Y83.577 E9.487
G1 X77.411 Y82.712 E9.5182
G1 X77.846 Y81.881 E9.54939
G1 X78.35 Y81.091 E9.58056
G1 X78.92 Y80.346 E9.61176
G1 X79.552 Y79.652 E9.64298
G0 F6000 X79.943 Y79.827
G1 F1200 X80.628 Y79.211 E9.67362
G1 X81.364 Y78.658 E9.70424
G1 X82.145 Y78.17 E9.73487
G1 X82.965 Y77.752 E9.76548
G1 X83.819 Y77.407 E9.79612
G1 X84.699 Y77.137 E9.82673
G1 X85.599 Y76.945 E9.85734
G1 X86.513 Y76.831 E9.88798
G1 X87.066 Y76.801 E9.9064
G1 X87.387 Y76.792 E9.91708
G1 X87.684 Y76.788 E9.92696
G1 X132.129 Y76.788 E11.4052
G1 X132.979 Y76.799 E11.43348
G1 X133.898 Y76.852 E11.46409
G1 X134.809 Y76.985 E11.49471
G1 X135.705 Y77.196 E11.52533
G1 X136.579 Y77.484 E11.55594
G1 X137.426 Y77.847 E11.58659
G1 X138.237 Y78.282 E11.6172
G1 X139.007 Y78.786 E11.6478
G1 X139.386 Y79.071 E11.66358
G1 X140.149 Y79.674 E11.69592
G1 X140.631 Y80.067 E11.71661
G1 X141.268 Y80.601 E11.74425
G1 X141.476 Y80.78 E11.75338
G1 X141.966 Y81.214 E11.77515
G1 X142.549 Y81.744 E11.80136
G1 X143.165 Y82.317 E11.82934
G1 X143.375 Y82.518 E11.83901
G1 X143.81 Y82.946 E11.8593
G1 X144.406 Y83.547 E11.88746
G1 X144.927 Y84.086 E11.91239
G1 X145.099 Y84.269 E11.92074
G1 X145.604 Y84.818 E11.94555
G1 X146.068 Y85.338 E11.96873
G1 X146.657 Y86.015 E11.99858
G1 X146.839 Y86.23 E12.00795
G1 X147.257 Y86.739 E12.02985
G1 X147.708 Y87.301 E12.05382
G1 X148.266 Y88.015 E12.08396
G1 X148.423 Y88.221 E12.09257
G1 X148.785 Y88.709 E12.11278
G1 X149.233 Y89.33 E12.13825
G1 X149.753 Y90.072 E12.16839
G1 X149.895 Y90.281 E12.17679
G1 X150.21 Y90.754 E12.19569
G1 X150.621 Y91.388 E12.22082
G1 X151.108 Y92.164 E12.2513
G1 X151.261 Y92.416 E12.2611
G1 X151.552 Y92.912 E12.28023
G1 X151.999 Y93.69 E12.31007
G1 X152.392 Y94.398 E12.337
G1 X152.515 Y94.626 E12.34562
G1 X152.783 Y95.141 E12.36493
G1 X153.186 Y95.939 E12.39466
G1 X153.537 Y96.656 E12.42122
G1 X153.648 Y96.888 E12.42977
G1 X153.898 Y97.435 E12.44977
G1 X154.228 Y98.184 E12.477
G1 X154.57 Y98.986 E12.50599
G1 X154.67 Y99.228 E12.5147
G1 X154.882 Y99.763 E12.53384
G1 X155.172 Y100.522 E12.56087
G1 X155.464 Y101.317 E12.58904
G1 X155.564 Y101.602 E12.59908
G1 X155.77 Y102.218 E12.62069
G1 X156.014 Y102.979 E12.64727
G1 X156.265 Y103.794 E12.67563
G1 X156.342 Y104.055 E12.68468
G1 X156.488 Y104.579 E12.70277
G1 X156.711 Y105.424 E12.73184
G1 X156.907 Y106.2 E12.75846
G1 X156.972 Y106.473 E12.76779
G1 X157.118 Y107.126 E12.79005
G1 X157.284 Y107.916 E12.8169
G1 X157.434 Y108.681 E12.84283
G1 X157.483 Y108.951 E12.85195
G1 X157.596 Y109.624 E12.87465
G1 X157.72 Y110.417 E12.90135
G1 X157.835 Y111.222 E12.92839
G1 X157.869 Y111.482 E12.93711
G1 X157.941 Y112.098 E12.95774
G1 X158.026 Y112.926 E12.98543
G1 X158.1 Y113.747 E13.01284
G1 X158.121 Y114.01 E13.02162
G1 X158.16 Y114.633 E13.04238
G1 X158.199 Y115.42 E13.06859
G1 X158.232 Y116.295 E13.09771
G1 X158.239 Y116.558 E13.10646
G1 X158.246 Y117.174 E13.12695
G1 X158.244 Y118.051 E13.15612
G1 X158.233 Y118.799 E13.181
G1 X158.226 Y119.056 E13.18955
G1 X158.201 Y119.681 E13.21036
G1 X158.156 Y120.52 E13.2383
G1 X158.1 Y121.367 E13.26654
G1 X158.076 Y121.662 E13.27638
G1 X158.024 Y122.216 E13.29489
G1 X157.937 Y123.033 E13.32221
G1 X157.837 Y123.869 E13.35022
G1 X157.802 Y124.132 E13.35904
G1 X157.709 Y124.766 E13.38035
G1 X157.577 Y125.598 E13.40837
G1 X157.437 Y126.406 E13.43565
G1 X157.387 Y126.675 E13.44475
G1 X157.276 Y127.226 E13.46344
G1 X157.088 Y128.114 E13.49363
G1 X156.908 Y128.902 E13.52052
G1 X156.844 Y129.165 E13.52952
G1 X156.695 Y129.747 E13.5495
G1 X156.466 Y130.597 E13.57878
G1 X156.26 Y131.327 E13.60401
G1 X156.18 Y131.594 E13.61328
G1 X155.996 Y132.186 E13.6339
G1 X155.745 Y132.956 E13.66083
G1 X155.473 Y133.757 E13.68897
G1 X155.381 Y134.017 E13.69814
G1 X155.181 Y134.557 E13.7173
G1 X154.853 Y135.412 E13.74775
G1 X154.566 Y136.129 E13.77344
G1 X154.458 Y136.388 E13.78277
G1 X154.231 Y136.913 E13.8018
G1 X153.864 Y137.738 E13.83183
G1 X153.538 Y138.445 E13.85772
G1 X153.418 Y138.696 E13.86698
G1 X153.131 Y139.275 E13.88847
G1 X152.772 Y139.977 E13.9147
G1 X152.37 Y140.742 E13.94344
G1 X152.243 Y140.978 E13.95235
G1 X151.953 Y141.494 E13.97204
G1 X151.557 Y142.178 E13.99833
G1 X151.111 Y142.929 E14.02738
G1 X150.966 Y143.165 E14.03659
G1 X150.647 Y143.67 E14.05646
G1 X150.165 Y144.413 E14.08591
G1 X149.757 Y145.025 E14.11038
G1 X149.594 Y145.262 E14.11995
G1 X149.233 Y145.772 E14.14073
G1 X148.731 Y146.463 E14.16914
G1 X148.259 Y147.096 E14.1954
G1 X148.085 Y147.323 E14.20491
G1 X147.687 Y147.827 E14.22627
G1 X147.165 Y148.475 E14.25395
G1 X146.646 Y149.1 E14.28097
G1 X146.446 Y149.333 E14.29118
G1 X146.088 Y149.739 E14.30918
G1 X145.481 Y150.415 E14.3394
G1 X144.963 Y150.976 E14.3648
G1 X144.789 Y151.16 E14.37322
G1 X144.339 Y151.623 E14.39469
G1 X143.759 Y152.203 E14.42198
G1 X143.147 Y152.801 E14.45044
G1 X142.938 Y153 E14.46003
G1 X142.52 Y153.385 E14.47893
G1 X141.895 Y153.948 E14.50691
G1 X141.273 Y154.495 E14.53446
G1 X141.07 Y154.669 E14.54336
G1 X140.624 Y155.04 E14.56265
G1 X139.92 Y155.613 E14.59284
G1 X139.407 Y156.018 E14.61458
G1 X138.661 Y156.556 E14.64517
G1 X137.87 Y157.028 E14.67581
G1 X137.041 Y157.429 E14.70644
G1 X136.181 Y157.757 E14.73705
G1 X135.296 Y158.009 E14.76766
G1 X134.392 Y158.184 E14.79828
G1 X133.016 Y158.297 E14.8442
G1 X132.179 Y158.311 E14.87204
G1 X88.061 Y158.312 E16.33941
G1 X87.211 Y158.301 E16.36769
G1 X86.292 Y158.248 E16.3983
G1 X85.381 Y158.115 E16.42893
G1 X84.485 Y157.904 E16.45954
G1 X83.611 Y157.616 E16.49015
G1 X82.764 Y157.253 E16.5208
G1 X81.953 Y156.818 E16.55141
G1 X81.183 Y156.314 E16.58202
G1 X80.459 Y155.745 E16.61264
G1 X79.787 Y155.115 E16.64328
G1 X79.172 Y154.43 E16.6739
G1 X78.619 Y153.694 E16.70452
G1 X78.132 Y152.913 E16.73513
G1 X77.715 Y152.092 E16.76576
G1 X77.37 Y151.238 E16.79639
G1 X77.101 Y150.358 E16.827
G1 X76.909 Y149.457 E16.85764
G1 X76.796 Y148.544 E16.88824
G1 X76.767 Y147.989 E16.90672
G1 X76.758 Y147.657 E16.91777
G1 X76.754 Y147.37 E16.92731
G1 X76.755 Y87.919 E18.90466
G1 X76.764 Y87.254 E18.92678
G1 X76.816 Y86.334 E18.95743
G1 X76.948 Y85.423 E18.98805
G1 X77.159 Y84.527 E19.01866
G1 X77.446 Y83.652 E19.04929
G1 X77.809 Y82.806 E19.07991
G1 X78.243 Y81.994 E19.11053
G1 X78.746 Y81.223 E19.14115
G1 X79.315 Y80.499 E19.17178
G1 X79.943 Y79.827 E19.20237
G0 F6000 X80.335 Y80.005
G1 F1200 X81.016 Y79.412 E19.2324
G1 X81.748 Y78.882 E19.26246
G1 X82.523 Y78.419 E19.29249
G1 X83.336 Y78.026 E19.32252
G1 X84.181 Y77.706 E19.35257
G1 X85.05 Y77.463 E19.38259
G1 X85.938 Y77.297 E19.41263
G1 X87.077 Y77.201 E19.45065
G1 X87.398 Y77.192 E19.46133
G1 X87.684 Y77.188 E19.47084
G1 X132.129 Y77.188 E20.94909
G1 X132.973 Y77.199 E20.97717
G1 X133.875 Y77.252 E21.00722
G1 X134.768 Y77.384 E21.03724
G1 X135.646 Y77.595 E21.06728
G1 X136.502 Y77.883 E21.09731
G1 X137.329 Y78.245 E21.12734
G1 X138.121 Y78.68 E21.15739
G1 X139.139 Y79.385 E21.19858
G1 X139.897 Y79.984 E21.23071
G1 X140.374 Y80.373 E21.25118
G1 X141.011 Y80.907 E21.27883
G1 X141.211 Y81.08 E21.28763
G1 X141.698 Y81.511 E21.30926
G1 X142.276 Y82.037 E21.33525
G1 X142.892 Y82.61 E21.36323
G1 X143.094 Y82.803 E21.37252
G1 X143.526 Y83.228 E21.39268
G1 X144.118 Y83.825 E21.42064
G1 X144.639 Y84.364 E21.44558
G1 X144.805 Y84.54 E21.45362
G1 X145.306 Y85.085 E21.47825
G1 X145.766 Y85.601 E21.50124
G1 X146.355 Y86.278 E21.53108
G1 X146.53 Y86.485 E21.5401
G1 X146.945 Y86.989 E21.56181
G1 X147.393 Y87.547 E21.58561
G1 X147.951 Y88.261 E21.61575
G1 X148.102 Y88.459 E21.62404
G1 X148.461 Y88.944 E21.64411
G1 X148.905 Y89.559 E21.66933
G1 X149.425 Y90.301 E21.69947
G1 X149.562 Y90.502 E21.70756
G1 X149.874 Y90.972 E21.72632
G1 X150.37 Y91.739 E21.7567
G1 X150.769 Y92.376 E21.7817
G1 X150.916 Y92.618 E21.79112
G1 X151.206 Y93.112 E21.81017
G1 X151.649 Y93.884 E21.83978
G1 X152.042 Y94.592 E21.86671
G1 X152.161 Y94.812 E21.87503
G1 X152.426 Y95.321 E21.89412
G1 X152.827 Y96.115 E21.9237
G1 X153.178 Y96.832 E21.95025
G1 X153.284 Y97.055 E21.95846
G1 X153.532 Y97.597 E21.97829
G1 X153.861 Y98.341 E22.00535
G1 X154.203 Y99.143 E22.03434
G1 X154.463 Y99.791 E22.05757
G1 X154.746 Y100.525 E22.08373
G1 X155.089 Y101.455 E22.1167
G1 X155.185 Y101.729 E22.12636
G1 X155.389 Y102.341 E22.14781
G1 X155.632 Y103.097 E22.17423
G1 X155.883 Y103.912 E22.20259
G1 X155.957 Y104.163 E22.21129
G1 X156.101 Y104.681 E22.22917
G1 X156.323 Y105.522 E22.2581
G1 X156.519 Y106.298 E22.28472
G1 X156.582 Y106.561 E22.29372
G1 X156.727 Y107.209 E22.31581
G1 X156.891 Y107.993 E22.34245
G1 X157.041 Y108.758 E22.36837
G1 X157.089 Y109.018 E22.37717
G1 X157.201 Y109.686 E22.3997
G1 X157.324 Y110.474 E22.42622
G1 X157.439 Y111.279 E22.45327
G1 X157.472 Y111.529 E22.46166
G1 X157.543 Y112.139 E22.48208
G1 X157.628 Y112.962 E22.5096
G1 X157.702 Y113.783 E22.53702
G1 X157.721 Y114.036 E22.54546
G1 X157.761 Y114.653 E22.56602
G1 X157.8 Y115.435 E22.59206
G1 X157.833 Y116.31 E22.62119
G1 X157.839 Y116.563 E22.6296
G1 X157.846 Y117.174 E22.64993
G1 X157.844 Y118.045 E22.6789
G1 X157.833 Y118.793 E22.70378
G1 X157.826 Y119.041 E22.71203
G1 X157.801 Y119.661 E22.73267
G1 X157.757 Y120.494 E22.76041
G1 X157.701 Y121.341 E22.78864
G1 X157.678 Y121.624 E22.79809
G1 X157.626 Y122.175 E22.8165
G1 X157.54 Y122.985 E22.84359
G1 X157.44 Y123.821 E22.87159
G1 X157.406 Y124.075 E22.88011
G1 X157.314 Y124.704 E22.90126
G1 X157.183 Y125.529 E22.92904
G1 X157.043 Y126.337 E22.95632
G1 X156.995 Y126.596 E22.96508
G1 X156.885 Y127.144 E22.98367
G1 X156.698 Y128.024 E23.01359
