;FLAVOR:Marlin
;TIME:16857
;Filament used: 12.6978m
;Layer height: 0.2
;MINX:76.494
;MINY:76.288
;MINZ:0.2
;MAXX:158.487
;MAXY:158.612
;MAXZ:12.6
;Generated with Cura_SteamEngine 4.10.0
M140 S50
M105
M190 S50
M104 S220
M105
M109 S220
M82 ;absolute extrusion mode
; Ender 3 Custom Start G-code
G92 E0 ; Reset Extruder
G28 ; Home all axes
G1 Z2.0 F3000 ; Move Z Axis up little to prevent scratching of Heat Bed
G1 X0.1 Y20 Z0.3 F5000.0 ; Move to start position
G1 X0.1 Y200.0 Z0.3 F1500.0 E15 ; Draw the first line
G1 X0.4 Y200.0 Z0.3 F5000.0 ; Move to side a little
G1 X0.4 Y20 Z0.3 F1500.0 E30 ; Draw the second line
G92 E0 ; Reset Extruder
G1 Z2.0 F3000 ; Move Z Axis up little to prevent scratching of Heat Bed
G1 X5 Y20 Z0.3 F5000.0 ; Move over to prevent blob squish
G92 E0
G92 E0
G1 F2700 E-5
;LAYER_COUNT:64
;LAYER:0
M107
G0 F6000 X79.688 Y79.556 Z0.2
;TYPE:SKIRT
G1 F2700 E0
G1 F1200 X80.376 Y78.918 E0.03121
G1 X81.115 Y78.342 E0.06237
G1 X81.901 Y77.83 E0.09357
G1 X82.728 Y77.387 E0.12477
G1 X83.59 Y77.017 E0.15597
G1 X84.48 Y76.721 E0.18717
G1 X85.392 Y76.502 E0.21837
G1 X86.319 Y76.361 E0.24955
G1 X87.195 Y76.301 E0.27876
G1 X87.516 Y76.292 E0.28944
G1 X87.824 Y76.288 E0.29968
G1 X105.837 Y76.288 E0.8988
G1 X106.716 Y76.3 E0.92804
G1 X107.652 Y76.355 E0.95922
G1 X108.58 Y76.489 E0.99041
G1 X109.494 Y76.702 E1.02162
G1 X110.361 Y76.982 E1.05192
G1 X110.77 Y77.133 E1.06642
G1 X113.191 Y77.987 E1.15181
G1 X115.584 Y78.756 E1.23541
G1 X117.984 Y79.453 E1.31853
G1 X120.444 Y80.092 E1.40307
G1 X122.943 Y80.666 E1.48835
G1 X125.373 Y81.153 E1.57078
G1 X127.337 Y81.496 E1.63709
G1 X127.842 Y81.578 E1.65411
G1 X128.215 Y81.645 E1.66671
G1 X129.549 Y81.91 E1.71195
G1 X130.249 Y82.061 E1.73576
G1 X131.044 Y82.246 E1.76291
G1 X131.665 Y82.41 E1.78428
G1 X132.838 Y82.759 E1.82498
G1 X133.76 Y83.052 E1.85716
G1 X134.235 Y83.21 E1.87381
G1 X134.864 Y83.441 E1.89609
G1 X135.887 Y83.852 E1.93276
G1 X136.693 Y84.192 E1.96186
G1 X137.42 Y84.511 E1.98826
G1 X138.008 Y84.792 E2.00994
G1 X138.938 Y85.27 E2.04472
G1 X139.134 Y85.373 E2.05208
G1 X140.008 Y85.846 E2.08513
G1 X140.47 Y86.105 E2.10275
G1 X141.014 Y86.431 E2.12384
G1 X142.035 Y87.085 E2.16417
G1 X142.715 Y87.538 E2.19135
G1 X143.289 Y87.932 E2.2145
G1 X143.832 Y88.33 E2.2369
G1 X144.672 Y88.987 E2.27237
G1 X145.434 Y89.605 E2.305
G1 X145.994 Y90.073 E2.32927
G1 X146.475 Y90.5 E2.35066
G1 X147.243 Y91.224 E2.38577
G1 X147.4 Y91.375 E2.39301
G1 X148.037 Y92.002 E2.42274
G1 X148.447 Y92.416 E2.44212
G1 X148.897 Y92.898 E2.46405
G1 X149.574 Y93.669 E2.49818
G1 X150.172 Y94.373 E2.5289
G1 X150.673 Y94.982 E2.55513
G1 X151.077 Y95.506 E2.57714
G1 X151.713 Y96.385 E2.61322
G1 X152.249 Y97.154 E2.6444
G1 X152.678 Y97.788 E2.66986
G1 X153.041 Y98.364 E2.69251
G1 X153.644 Y99.391 E2.73212
G1 X154.013 Y100.044 E2.75706
G1 X154.372 Y100.701 E2.78196
G1 X154.676 Y101.301 E2.80434
G1 X155.134 Y102.279 E2.84025
G1 X155.508 Y103.113 E2.87066
G1 X155.827 Y103.853 E2.89746
G1 X156.069 Y104.468 E2.91944
G1 X156.389 Y105.358 E2.9509
G1 X156.459 Y105.558 E2.95794
G1 X156.768 Y106.476 E2.99016
G1 X156.936 Y106.995 E3.0083
G1 X157.125 Y107.647 E3.03088
G1 X157.436 Y108.863 E3.07263
G1 X157.61 Y109.595 E3.09765
G1 X157.769 Y110.31 E3.12201
G1 X157.894 Y110.969 E3.14432
G1 X158.098 Y112.268 E3.18806
G1 X158.192 Y112.942 E3.21069
G1 X158.291 Y113.732 E3.23717
G1 X158.354 Y114.401 E3.25952
G1 X158.43 Y115.624 E3.30028
G1 X158.47 Y116.531 E3.33047
G1 X158.487 Y117.081 E3.34878
G1 X158.487 Y117.749 E3.37099
G1 X158.447 Y119.037 E3.41385
G1 X158.402 Y119.923 E3.44336
G1 X158.362 Y120.549 E3.46422
G1 X158.299 Y121.211 E3.48634
G1 X158.149 Y122.402 E3.52627
G1 X158.01 Y123.356 E3.55833
G1 X157.924 Y123.9 E3.57665
G1 X157.799 Y124.561 E3.59903
G1 X157.568 Y125.604 E3.63456
G1 X157.522 Y125.803 E3.64135
G1 X157.366 Y126.45 E3.66349
G1 X157.168 Y127.225 E3.69009
G1 X156.985 Y127.86 E3.71207
G1 X156.67 Y128.841 E3.74634
G1 X156.603 Y129.043 E3.75342
G1 X156.31 Y129.896 E3.78342
G1 X156.11 Y130.456 E3.80319
G1 X155.856 Y131.101 E3.82625
G1 X155.432 Y132.087 E3.86195
G1 X155.351 Y132.271 E3.86863
G1 X154.997 Y133.053 E3.89718
G1 X154.74 Y133.6 E3.91729
G1 X154.442 Y134.186 E3.93915
G1 X153.855 Y135.26 E3.97986
G1 X153.384 Y136.085 E4.01146
G1 X153.106 Y136.557 E4.02968
G1 X152.757 Y137.112 E4.05148
G1 X152.154 Y138.009 E4.08743
G1 X152.021 Y138.202 E4.09523
G1 X151.531 Y138.897 E4.12351
G1 X151.165 Y139.404 E4.14431
G1 X150.755 Y139.937 E4.16667
G1 X150.093 Y140.745 E4.20142
G1 X149.962 Y140.902 E4.20822
G1 X149.388 Y141.575 E4.23764
G1 X149.016 Y142 E4.25642
G1 X148.553 Y142.497 E4.27901
G1 X147.669 Y143.387 E4.32074
G1 X147.018 Y144.02 E4.35094
G1 X146.58 Y144.435 E4.37101
G1 X146.062 Y144.895 E4.39405
G1 X145.123 Y145.677 E4.43469
G1 X144.434 Y146.231 E4.4641
G1 X143.968 Y146.596 E4.48378
G1 X143.419 Y146.999 E4.50643
G1 X142.567 Y147.585 E4.54083
G1 X142.398 Y147.699 E4.54761
G1 X141.636 Y148.202 E4.57798
G1 X141.136 Y148.523 E4.59774
G1 X140.553 Y148.872 E4.62034
G1 X139.451 Y149.485 E4.66228
G1 X138.746 Y149.86 E4.68884
G1 X138.152 Y150.167 E4.71108
G1 X137.541 Y150.459 E4.7336
G1 X136.614 Y150.868 E4.7673
G1 X136.426 Y150.949 E4.77411
G1 X135.564 Y151.309 E4.80518
G1 X135.053 Y151.515 E4.8235
G1 X134.415 Y151.75 E4.84612
G1 X133.397 Y152.089 E4.88181
G1 X132.367 Y152.411 E4.9177
G1 X131.746 Y152.595 E4.93924
G1 X131.107 Y152.763 E4.96122
G1 X129.925 Y153.036 E5.00156
G1 X129.056 Y153.22 E5.03111
G1 X128.352 Y153.359 E5.05498
G1 X128.049 Y153.414 E5.06522
G1 X127.073 Y153.577 E5.09813
G1 X126.543 Y153.657 E5.11596
G1 X124.095 Y154.096 E5.19868
G1 X121.646 Y154.606 E5.28188
G1 X119.156 Y155.2 E5.36702
G1 X116.728 Y155.853 E5.45064
G1 X114.336 Y156.567 E5.53367
G1 X111.94 Y157.359 E5.6176
G1 X110.629 Y157.83 E5.66394
G1 X110.118 Y158.005 E5.6819
G1 X109.218 Y158.27 E5.71311
G1 X108.3 Y158.459 E5.74428
G1 X107.368 Y158.568 E5.77549
G1 X106.737 Y158.596 E5.7965
G1 X105.711 Y158.612 E5.83063
G1 X88.043 Y158.611 E6.41827
G1 X87.345 Y158.601 E6.44148
G1 X86.409 Y158.547 E6.47267
G1 X85.481 Y158.415 E6.50384
G1 X84.567 Y158.203 E6.53505
G1 X83.675 Y157.914 E6.56624
G1 X82.81 Y157.551 E6.59744
G1 X81.98 Y157.115 E6.62862
G1 X81.189 Y156.61 E6.65983
G1 X80.445 Y156.039 E6.69103
G1 X79.752 Y155.407 E6.72222
G1 X79.115 Y154.719 E6.75341
G1 X78.54 Y153.978 E6.7846
G1 X78.029 Y153.192 E6.81578
G1 X77.587 Y152.364 E6.847
G1 X77.218 Y151.502 E6.87819
G1 X76.923 Y150.612 E6.90937
G1 X76.705 Y149.7 E6.94056
G1 X76.565 Y148.772 E6.97178
G1 X76.507 Y147.9 E7.00084
G1 X76.498 Y147.568 E7.01189
G1 X76.494 Y147.27 E7.0218
G1 X76.495 Y87.842 E8.99838
G1 X76.504 Y87.153 E9.0213
G1 X76.556 Y86.217 E9.05248
G1 X76.688 Y85.288 E9.08369
G1 X76.898 Y84.374 E9.11488
G1 X77.186 Y83.482 E9.14606
G1 X77.548 Y82.617 E9.17725
G1 X77.983 Y81.786 E9.20844
G1 X78.487 Y80.995 E9.23964
G1 X79.057 Y80.25 E9.27084
G1 X79.688 Y79.556 E9.30204
G0 F6000 X80.08 Y79.73
G1 F1200 X80.765 Y79.115 E9.33265
G1 X81.5 Y78.561 E9.36327
G1 X82.281 Y78.073 E9.3939
G1 X83.101 Y77.654 E9.42453
G1 X83.954 Y77.309 E9.45513
G1 X84.834 Y77.038 E9.48575
G1 X85.734 Y76.846 E9.51636
G1 X86.648 Y76.732 E9.547
G1 X87.206 Y76.701 E9.56558
G1 X87.527 Y76.692 E9.57627
G1 X87.824 Y76.688 E9.58614
G1 X105.837 Y76.688 E10.18526
G1 X106.71 Y76.7 E10.2143
G1 X107.629 Y76.755 E10.24492
G1 X108.54 Y76.888 E10.27554
G1 X109.435 Y77.101 E10.30614
G1 X110.222 Y77.357 E10.33367
G1 X110.624 Y77.506 E10.34792
G1 X113.041 Y78.359 E10.43317
G1 X115.498 Y79.147 E10.51899
G1 X117.909 Y79.848 E10.6025
G1 X120.318 Y80.474 E10.68529
G1 X122.854 Y81.056 E10.77183
G1 X125.304 Y81.547 E10.85494
G1 X127.283 Y81.893 E10.92176
G1 X127.778 Y81.973 E10.93844
G1 X128.137 Y82.037 E10.95056
G1 X129.464 Y82.301 E10.99557
G1 X130.164 Y82.452 E11.01938
G1 X130.953 Y82.635 E11.04632
G1 X131.552 Y82.794 E11.06693
G1 X132.718 Y83.141 E11.1074
G1 X133.634 Y83.432 E11.13936
G1 X134.109 Y83.59 E11.15601
G1 X134.715 Y83.812 E11.17748
G1 X135.738 Y84.223 E11.21415
G1 X136.537 Y84.56 E11.24299
G1 X137.259 Y84.877 E11.26922
G1 X137.826 Y85.147 E11.2901
G1 X138.756 Y85.625 E11.32488
G1 X139.663 Y86.113 E11.35914
G1 X140.274 Y86.454 E11.38241
G1 X140.799 Y86.768 E11.40276
G1 X141.813 Y87.418 E11.44282
G1 X142.624 Y87.96 E11.47526
G1 X143.063 Y88.262 E11.49298
G1 X143.585 Y88.646 E11.51454
G1 X144.586 Y89.43 E11.55683
G1 X145.299 Y90.012 E11.58744
G1 X145.737 Y90.379 E11.60644
G1 X146.2 Y90.791 E11.62706
G1 X146.968 Y91.515 E11.66216
G1 X147.12 Y91.661 E11.66917
G1 X147.753 Y92.283 E11.69869
G1 X148.163 Y92.697 E11.71807
G1 X148.596 Y93.162 E11.7392
G1 X149.396 Y94.075 E11.77958
G1 X149.978 Y94.764 E11.80957
G1 X150.364 Y95.235 E11.82983
G1 X150.753 Y95.74 E11.85103
G1 X151.389 Y96.619 E11.88712
G1 X151.921 Y97.382 E11.91805
G1 X152.347 Y98.012 E11.94335
G1 X152.697 Y98.566 E11.96514
G1 X153.205 Y99.43 E11.99848
G1 X153.664 Y100.241 E12.02947
G1 X154.021 Y100.893 E12.0542
G1 X154.314 Y101.471 E12.07575
G1 X154.772 Y102.449 E12.11167
G1 X155.143 Y103.276 E12.14182
G1 X155.459 Y104.01 E12.16839
G1 X155.693 Y104.604 E12.18963
G1 X156.013 Y105.494 E12.22109
G1 X156.08 Y105.686 E12.22785
G1 X156.388 Y106.6 E12.25993
G1 X156.556 Y107.119 E12.27807
G1 X156.738 Y107.746 E12.29979
G1 X157.001 Y108.77 E12.33495
G1 X157.221 Y109.688 E12.36635
G1 X157.379 Y110.397 E12.39051
G1 X157.499 Y111.031 E12.41197
G1 X157.673 Y112.132 E12.44904
G1 X157.795 Y112.997 E12.4781
G1 X157.894 Y113.781 E12.50438
G1 X157.955 Y114.426 E12.52593
G1 X158.02 Y115.456 E12.56026
G1 X158.064 Y116.389 E12.59132
G1 X158.087 Y117.094 E12.61478
G1 X158.087 Y117.737 E12.63617
G1 X158.055 Y118.81 E12.67187
G1 X158.047 Y119.018 E12.6788
G1 X158.002 Y119.898 E12.7081
G1 X157.962 Y120.524 E12.72897
G1 X157.902 Y121.161 E12.75025
G1 X157.753 Y122.345 E12.78994
G1 X157.615 Y123.293 E12.8218
G1 X157.529 Y123.837 E12.84012
G1 X157.408 Y124.474 E12.86168
G1 X157.133 Y125.71 E12.9038
G1 X156.941 Y126.501 E12.93087
G1 X156.781 Y127.126 E12.95233
G1 X156.604 Y127.738 E12.97352
G1 X156.225 Y128.914 E13.01461
G1 X155.979 Y129.632 E13.03986
G1 X155.733 Y130.321 E13.06419
G1 X155.489 Y130.943 E13.08641
G1 X155.065 Y131.929 E13.12211
G1 X154.701 Y132.739 E13.15165
G1 X154.378 Y133.43 E13.17702
G1 X154.091 Y133.995 E13.19809
G1 X153.507 Y135.063 E13.23858
G1 X153.04 Y135.882 E13.26994
G1 X152.762 Y136.354 E13.28816
G1 X152.425 Y136.889 E13.30919
G1 X151.822 Y137.786 E13.34514
G1 X151.281 Y138.558 E13.37649
G1 X150.841 Y139.17 E13.40156
G1 X150.445 Y139.684 E13.42314
G1 X149.658 Y140.642 E13.46438
G1 X149.087 Y141.311 E13.49363
G1 X148.715 Y141.736 E13.51242
G1 X148.269 Y142.215 E13.53419
G1 X147.389 Y143.101 E13.57572
G1 X146.743 Y143.73 E13.60571
G1 X146.305 Y144.145 E13.62578
G1 X145.806 Y144.588 E13.64797
G1 X144.872 Y145.366 E13.6884
G1 X144.187 Y145.916 E13.71762
G1 X143.721 Y146.281 E13.73731
G1 X143.192 Y146.67 E13.75915
G1 X142.34 Y147.256 E13.79354
G1 X141.538 Y147.788 E13.82555
G1 X140.92 Y148.186 E13.85
G1 X140.358 Y148.523 E13.87179
G1 X139.435 Y149.038 E13.90695
G1 X138.687 Y149.439 E13.93518
G1 X137.968 Y149.812 E13.96212
G1 X137.38 Y150.093 E13.98379
G1 X136.453 Y150.502 E14.01749
G1 X135.548 Y150.883 E14.05015
G1 X134.903 Y151.144 E14.07329
G1 X134.289 Y151.37 E14.09505
G1 X133.077 Y151.772 E14.13752
G1 X132.397 Y151.984 E14.16122
G1 X131.632 Y152.211 E14.18776
G1 X131.017 Y152.374 E14.20892
G1 X130.03 Y152.603 E14.24262
G1 X129.133 Y152.795 E14.27313
G1 X128.274 Y152.966 E14.30226
G1 X127.983 Y153.02 E14.3121
G1 X127.194 Y153.153 E14.33871
G1 X126.519 Y153.256 E14.36142
G1 X123.987 Y153.709 E14.44698
G1 X121.545 Y154.218 E14.52994
G1 X119.09 Y154.804 E14.61389
G1 X116.624 Y155.467 E14.69882
G1 X114.202 Y156.191 E14.7829
G1 X111.816 Y156.979 E14.86648
G1 X110.658 Y157.396 E14.90741
G1 X109.988 Y157.626 E14.93097
G1 X109.105 Y157.886 E14.96159
G1 X108.203 Y158.069 E14.9922
G1 X107.288 Y158.173 E15.02283
G1 X106.73 Y158.197 E15.04141
G1 X105.887 Y158.211 E15.06945
G1 X88.201 Y158.212 E15.65769
G1 X87.351 Y158.201 E15.68596
G1 X86.432 Y158.148 E15.71658
G1 X85.521 Y158.015 E15.7472
G1 X84.625 Y157.804 E15.77781
G1 X83.751 Y157.516 E15.80842
G1 X82.904 Y157.153 E15.83907
G1 X82.093 Y156.718 E15.86968
G1 X81.323 Y156.214 E15.90029
G1 X80.599 Y155.645 E15.93092
G1 X79.927 Y155.015 E15.96155
G1 X79.312 Y154.33 E15.99217
G1 X78.759 Y153.594 E16.02279
G1 X78.272 Y152.813 E16.0534
G1 X77.855 Y151.992 E16.08403
G1 X77.51 Y151.138 E16.11466
G1 X77.241 Y150.258 E16.14527
G1 X77.049 Y149.357 E16.17591
G1 X76.936 Y148.444 E16.20651
G1 X76.907 Y147.889 E16.22499
G1 X76.898 Y147.557 E16.23604
G1 X76.894 Y147.27 E16.24559
G1 X76.895 Y87.848 E18.22197
G1 X76.904 Y87.159 E18.24489
G1 X76.956 Y86.239 E18.27554
G1 X77.087 Y85.328 E18.30615
G1 X77.298 Y84.432 E18.33676
G1 X77.585 Y83.557 E18.36739
G1 X77.947 Y82.711 E18.398
G1 X78.381 Y81.899 E18.42862
G1 X78.883 Y81.127 E18.45925
G1 X79.451 Y80.403 E18.48986
G1 X80.08 Y79.73 E18.52049
G0 F6000 X80.471 Y79.908
G1 F1200 X81.153 Y79.315 E18.55055
G1 X81.884 Y78.785 E18.58058
G1 X82.658 Y78.321 E18.6106
G1 X83.471 Y77.928 E18.64063
G1 X84.316 Y77.608 E18.67069
G1 X85.186 Y77.364 E18.70074
G1 X86.073 Y77.198 E18.73075
G1 X87.217 Y77.101 E18.76894
G1 X87.538 Y77.092 E18.77962
G1 X87.824 Y77.088 E18.78913
G1 X105.837 Y77.088 E19.38825
G1 X106.703 Y77.1 E19.41705
G1 X107.605 Y77.154 E19.44711
G1 X108.498 Y77.288 E19.47714
G1 X109.376 Y77.5 E19.50718
G1 X110.084 Y77.732 E19.53196
G1 X110.5 Y77.886 E19.54672
G1 X112.933 Y78.744 E19.63252
G1 X115.368 Y79.526 E19.71759
G1 X117.793 Y80.231 E19.80158
G1 X120.241 Y80.867 E19.88571
G1 X122.75 Y81.443 E19.97133
G1 X125.236 Y81.941 E20.05565
G1 X127.244 Y82.292 E20.12345
G1 X127.714 Y82.368 E20.13929
G1 X128.06 Y82.43 E20.15098
G1 X129.38 Y82.692 E20.19574
G1 X130.08 Y82.843 E20.21956
G1 X130.862 Y83.025 E20.24626
G1 X131.438 Y83.177 E20.26607
G1 X132.597 Y83.522 E20.30629
G1 X133.507 Y83.811 E20.33805
G1 X133.982 Y83.969 E20.3547
G1 X134.566 Y84.183 E20.37539
G1 X135.589 Y84.594 E20.41206
G1 X136.381 Y84.928 E20.44064
G1 X137.097 Y85.243 E20.46666
G1 X137.643 Y85.503 E20.48678
G1 X138.573 Y85.981 E20.52155
G1 X139.473 Y86.465 E20.55554
G1 X140.079 Y86.803 E20.57862
G1 X140.584 Y87.105 E20.59819
G1 X141.429 Y87.645 E20.63154
G1 X142.271 Y88.204 E20.66516
G1 X142.836 Y88.591 E20.68794
G1 X143.339 Y88.961 E20.70871
G1 X144.179 Y89.618 E20.74418
G1 X144.333 Y89.741 E20.75073
G1 X145.042 Y90.319 E20.78116
G1 X145.48 Y90.686 E20.80016
G1 X145.926 Y91.082 E20.82
G1 X146.694 Y91.806 E20.8551
G1 X146.84 Y91.946 E20.86183
G1 X147.364 Y92.46 E20.88624
G1 X147.878 Y92.979 E20.91054
G1 X148.296 Y93.426 E20.93089
G1 X148.973 Y94.197 E20.96502
G1 X149.562 Y94.89 E20.99527
G1 X150.054 Y95.489 E21.02105
G1 X150.429 Y95.975 E21.04147
G1 X151.065 Y96.854 E21.07755
G1 X151.592 Y97.61 E21.10821
G1 X152.015 Y98.235 E21.13331
G1 X152.352 Y98.769 E21.15431
G1 X152.86 Y99.633 E21.18764
G1 X153.316 Y100.438 E21.21842
G1 X153.67 Y101.084 E21.24292
G1 X153.951 Y101.64 E21.26364
G1 X154.486 Y102.786 E21.3057
G1 X154.838 Y103.576 E21.33447
G1 X155.092 Y104.168 E21.35589
G1 X155.316 Y104.739 E21.37629
G1 X155.701 Y105.814 E21.41427
G1 X156.007 Y106.723 E21.44617
G1 X156.175 Y107.242 E21.46432
G1 X156.35 Y107.846 E21.48523
G1 X156.613 Y108.87 E21.5204
G1 X156.831 Y109.78 E21.55152
G1 X156.988 Y110.483 E21.57548
G1 X157.104 Y111.094 E21.59616
G1 X157.278 Y112.195 E21.63324
G1 X157.399 Y113.052 E21.66202
G1 X157.497 Y113.831 E21.68814
G1 X157.556 Y114.452 E21.70888
G1 X157.621 Y115.482 E21.74321
G1 X157.664 Y116.407 E21.77401
G1 X157.687 Y117.106 E21.79727
G1 X157.687 Y117.725 E21.81786
G1 X157.648 Y118.998 E21.86022
G1 X157.612 Y119.726 E21.88446
G1 X157.563 Y120.498 E21.91019
G1 X157.505 Y121.112 E21.9307
G1 X157.357 Y122.288 E21.97013
G1 X157.22 Y123.231 E22.00182
G1 X157.134 Y123.775 E22.02014
G1 X157.018 Y124.388 E22.04089
G1 X156.787 Y125.431 E22.07642
G1 X156.588 Y126.263 E22.10487
G1 X156.393 Y127.027 E22.1311
G1 X156.224 Y127.615 E22.15145
G1 X155.909 Y128.596 E22.18571
G1 X155.557 Y129.627 E22.22195
G1 X155.357 Y130.187 E22.24173
G1 X155.121 Y130.785 E22.26311
G1 X154.622 Y131.942 E22.30502
