;FLAVOR:Marlin
;TIME:19187
;Filament used: 14.6353m
;Layer height: 0.2
;MINX:76.348
;MINY:76.388
;MINZ:0.2
;MAXX:158.642
;MAXY:158.712
;MAXZ:12.6
;Generated with Cura_SteamEngine 4.10.0
M140 S50
M105
M190 S50
M104 S220
M105
M109 S220
M82 ;absolute extrusion mode
; Ender 3 Custom Start G-code
G92 E0 ; Reset Extruder
G28 ; Home all axes
G1 Z2.0 F3000 ; Move Z Axis up little to prevent scratching of Heat Bed
G1 X0.1 Y20 Z0.3 F5000.0 ; Move to start position
G1 X0.1 Y200.0 Z0.3 F1500.0 E15 ; Draw the first line
G1 X0.4 Y200.0 Z0.3 F5000.0 ; Move to side a little
G1 X0.4 Y20 Z0.3 F1500.0 E30 ; Draw the second line
G92 E0 ; Reset Extruder
G1 Z2.0 F3000 ; Move Z Axis up little to prevent scratching of Heat Bed
G1 X5 Y20 Z0.3 F5000.0 ; Move over to prevent blob squish
G92 E0
G92 E0
G1 F2700 E-5
;LAYER_COUNT:64
;LAYER:0
M107
G0 F6000 X79.546 Y79.652 Z0.2
;TYPE:SKIRT
G1 F2700 E0
G1 F1200 X80.234 Y79.015 E0.03119
G1 X80.974 Y78.439 E0.06237
G1 X81.76 Y77.927 E0.09357
G1 X82.587 Y77.485 E0.12476
G1 X83.449 Y77.115 E0.15596
G1 X84.339 Y76.819 E0.18716
G1 X85.251 Y76.601 E0.21835
G1 X86.178 Y76.46 E0.24953
G1 X87.049 Y76.401 E0.27857
G1 X87.37 Y76.392 E0.28925
G1 X87.678 Y76.388 E0.29949
G1 X132.123 Y76.388 E1.77774
G1 X132.982 Y76.399 E1.80631
G1 X133.919 Y76.452 E1.83753
G1 X134.847 Y76.585 E1.86871
G1 X135.761 Y76.797 E1.89992
G1 X136.653 Y77.085 E1.93109
G1 X137.518 Y77.449 E1.96231
G1 X138.348 Y77.885 E1.99349
G1 X139.139 Y78.39 E2.0247
G1 X139.599 Y78.731 E2.04375
G1 X139.837 Y78.917 E2.05379
G1 X140.107 Y79.134 E2.06531
G1 X141.512 Y80.305 E2.12615
G1 X142.233 Y80.923 E2.15773
G1 X142.475 Y81.137 E2.16848
G1 X142.798 Y81.435 E2.18309
G1 X143.094 Y81.719 E2.19674
G1 X144.297 Y82.889 E2.25255
G1 X144.928 Y83.521 E2.28226
G1 X145.111 Y83.709 E2.29098
G1 X145.262 Y83.868 E2.29827
G1 X145.453 Y84.074 E2.30762
G1 X145.739 Y84.393 E2.32187
G1 X146.94 Y85.756 E2.38229
G1 X147.424 Y86.321 E2.40703
G1 X147.601 Y86.532 E2.41619
G1 X147.728 Y86.688 E2.42288
G1 X147.91 Y86.918 E2.43264
G1 X148.143 Y87.222 E2.44538
G1 X149.245 Y88.682 E2.50622
G1 X149.67 Y89.261 E2.53011
G1 X149.892 Y89.575 E2.5429
G1 X150.102 Y89.887 E2.55541
G1 X150.304 Y90.195 E2.56766
G1 X151.319 Y91.779 E2.63023
G1 X151.703 Y92.395 E2.65437
G1 X151.883 Y92.694 E2.66598
G1 X152.115 Y93.098 E2.68148
G1 X152.276 Y93.39 E2.69257
G1 X153.173 Y95.053 E2.75541
G1 X153.482 Y95.644 E2.77759
G1 X153.629 Y95.936 E2.78847
G1 X153.73 Y96.144 E2.79616
G1 X153.849 Y96.397 E2.80546
G1 X153.981 Y96.689 E2.81611
G1 X154.75 Y98.42 E2.87911
G1 X155.039 Y99.097 E2.9036
G1 X155.199 Y99.49 E2.91771
G1 X155.318 Y99.798 E2.92869
G1 X155.447 Y100.15 E2.94116
G1 X156.085 Y101.947 E3.00458
G1 X156.305 Y102.592 E3.02725
G1 X156.41 Y102.915 E3.03855
G1 X156.549 Y103.379 E3.05466
G1 X156.644 Y103.715 E3.06627
G1 X157.099 Y105.384 E3.12381
G1 X157.298 Y106.152 E3.15019
G1 X157.373 Y106.457 E3.16064
G1 X157.426 Y106.689 E3.16856
G1 X157.54 Y107.236 E3.18714
G1 X157.876 Y108.972 E3.24595
G1 X158.033 Y109.851 E3.27565
G1 X158.084 Y110.164 E3.2862
G1 X158.147 Y110.606 E3.30105
G1 X158.198 Y111.015 E3.31476
G1 X158.41 Y112.891 E3.37755
G1 X158.479 Y113.583 E3.40068
G1 X158.506 Y113.897 E3.41116
G1 X158.536 Y114.369 E3.42689
G1 X158.554 Y114.757 E3.43981
G1 X158.621 Y116.55 E3.49949
G1 X158.639 Y117.277 E3.52367
G1 X158.642 Y117.594 E3.53422
G1 X158.637 Y118.087 E3.55062
G1 X158.629 Y118.37 E3.56003
G1 X158.551 Y120.37 E3.6266
G1 X158.517 Y121.016 E3.64812
G1 X158.496 Y121.332 E3.65865
G1 X158.473 Y121.614 E3.66806
G1 X158.423 Y122.112 E3.68471
G1 X158.22 Y123.892 E3.7443
G1 X158.11 Y124.743 E3.77284
G1 X158.074 Y124.999 E3.78144
G1 X158.038 Y125.232 E3.78928
G1 X157.987 Y125.532 E3.7994
G1 X157.926 Y125.862 E3.81056
G1 X157.564 Y127.732 E3.87391
G1 X157.423 Y128.411 E3.89698
G1 X157.321 Y128.861 E3.91232
G1 X157.249 Y129.153 E3.92233
G1 X157.132 Y129.597 E3.9376
G1 X156.653 Y131.344 E3.99785
G1 X156.456 Y132.03 E4.02159
G1 X156.369 Y132.317 E4.03156
G1 X156.311 Y132.5 E4.03795
G1 X156.207 Y132.811 E4.04885
G1 X156.092 Y133.14 E4.06044
G1 X155.463 Y134.896 E4.12248
G1 X155.205 Y135.587 E4.14702
G1 X155.093 Y135.874 E4.15726
G1 X155.007 Y136.086 E4.16487
G1 X154.869 Y136.412 E4.17665
G1 X154.102 Y138.141 E4.23956
G1 X153.723 Y138.963 E4.26966
G1 X153.608 Y139.205 E4.27857
G1 X153.511 Y139.402 E4.28588
G1 X153.365 Y139.688 E4.29656
G1 X153.183 Y140.031 E4.30947
G1 X152.344 Y141.583 E4.36815
G1 X151.965 Y142.262 E4.39402
G1 X151.794 Y142.557 E4.40536
G1 X151.563 Y142.939 E4.42021
G1 X151.304 Y143.351 E4.43639
G1 X150.463 Y144.661 E4.48817
G1 X149.956 Y145.427 E4.51872
G1 X149.749 Y145.729 E4.5309
G1 X149.52 Y146.047 E4.54393
G1 X149.273 Y146.38 E4.55772
G1 X148.117 Y147.906 E4.6214
G1 X147.723 Y148.412 E4.64273
G1 X147.54 Y148.641 E4.65247
G1 X147.401 Y148.81 E4.65975
G1 X147.212 Y149.034 E4.6695
G1 X146.912 Y149.379 E4.68471
G1 X145.755 Y150.687 E4.74279
G1 X145.247 Y151.246 E4.76791
G1 X145.039 Y151.468 E4.77803
G1 X144.893 Y151.62 E4.78504
G1 X144.683 Y151.833 E4.79499
G1 X144.421 Y152.091 E4.80722
G1 X143.132 Y153.344 E4.86701
G1 X142.609 Y153.838 E4.89094
G1 X142.417 Y154.015 E4.89962
G1 X142.246 Y154.169 E4.90728
G1 X141.994 Y154.39 E4.91842
G1 X141.692 Y154.644 E4.93155
G1 X140.346 Y155.765 E4.98981
G1 X139.764 Y156.238 E5.01475
G1 X139.011 Y156.798 E5.04597
G1 X138.214 Y157.292 E5.07715
G1 X137.377 Y157.716 E5.10836
G1 X136.508 Y158.068 E5.13954
G1 X135.611 Y158.343 E5.17075
G1 X134.695 Y158.542 E5.20193
G1 X133.765 Y158.662 E5.23311
G1 X133.162 Y158.697 E5.2532
G1 X132.835 Y158.707 E5.26408
G1 X132.499 Y158.712 E5.27526
G1 X87.913 Y158.711 E6.7582
G1 X87.215 Y158.702 E6.78142
G1 X86.279 Y158.65 E6.81259
G1 X85.35 Y158.518 E6.8438
G1 X84.436 Y158.308 E6.875
G1 X83.543 Y158.021 E6.90619
G1 X82.678 Y157.658 E6.93739
G1 X81.847 Y157.224 E6.96858
G1 X81.056 Y156.72 E6.99977
G1 X80.311 Y156.15 E7.03097
G1 X79.617 Y155.519 E7.06217
G1 X78.98 Y154.832 E7.09333
G1 X78.403 Y154.092 E7.12454
G1 X77.891 Y153.306 E7.15574
G1 X77.448 Y152.479 E7.18694
G1 X77.077 Y151.618 E7.21812
G1 X76.781 Y150.728 E7.24932
G1 X76.562 Y149.816 E7.28052
G1 X76.421 Y148.889 E7.3117
G1 X76.361 Y148 E7.34134
G1 X76.352 Y147.667 E7.35242
G1 X76.348 Y147.37 E7.3623
G1 X76.349 Y87.913 E9.33984
G1 X76.358 Y87.248 E9.36196
G1 X76.411 Y86.312 E9.39315
G1 X76.543 Y85.383 E9.42435
G1 X76.754 Y84.469 E9.45555
G1 X77.042 Y83.577 E9.48673
G1 X77.405 Y82.712 E9.51793
G1 X77.84 Y81.881 E9.54913
G1 X78.344 Y81.091 E9.5803
G1 X78.914 Y80.346 E9.61149
G1 X79.546 Y79.652 E9.64271
G0 F6000 X79.937 Y79.827
G1 F1200 X80.622 Y79.211 E9.67335
G1 X81.358 Y78.658 E9.70397
G1 X82.139 Y78.17 E9.7346
G1 X82.959 Y77.752 E9.76522
G1 X83.813 Y77.407 E9.79585
G1 X84.693 Y77.137 E9.82647
G1 X85.593 Y76.945 E9.85707
G1 X86.507 Y76.831 E9.88771
G1 X87.06 Y76.801 E9.90613
G1 X87.381 Y76.792 E9.91681
G1 X87.678 Y76.788 E9.92669
G1 X132.123 Y76.788 E11.40494
G1 X132.977 Y76.799 E11.43334
G1 X133.896 Y76.852 E11.46396
G1 X134.807 Y76.985 E11.49458
G1 X135.703 Y77.196 E11.5252
G1 X136.577 Y77.484 E11.5558
G1 X137.424 Y77.847 E11.58645
G1 X138.235 Y78.282 E11.61706
G1 X139.353 Y79.046 E11.6621
G1 X139.591 Y79.232 E11.67215
G1 X139.851 Y79.441 E11.68324
G1 X141.256 Y80.612 E11.74408
G1 X141.973 Y81.227 E11.77549
G1 X142.206 Y81.432 E11.78582
G1 X142.329 Y81.544 E11.79135
G1 X142.521 Y81.724 E11.8001
G1 X142.815 Y82.006 E11.81365
G1 X144.138 Y83.294 E11.87506
G1 X144.645 Y83.803 E11.89896
G1 X144.972 Y84.144 E11.91467
G1 X145.156 Y84.342 E11.92366
G1 X145.439 Y84.657 E11.93775
G1 X146.636 Y86.016 E11.99798
G1 X147.12 Y86.581 E12.02272
G1 X147.417 Y86.941 E12.03825
G1 X147.593 Y87.163 E12.04767
G1 X147.824 Y87.463 E12.06026
G1 X148.922 Y88.919 E12.12092
G1 X149.347 Y89.498 E12.14481
G1 X149.561 Y89.8 E12.15712
G1 X149.768 Y90.107 E12.16943
G1 X149.967 Y90.411 E12.18152
G1 X150.979 Y91.991 E12.24392
G1 X151.363 Y92.607 E12.26807
G1 X151.537 Y92.895 E12.27926
G1 X151.671 Y93.126 E12.28814
G1 X151.924 Y93.579 E12.3054
G1 X152.819 Y95.239 E12.36812
G1 X153.128 Y95.83 E12.3903
G1 X153.269 Y96.111 E12.40076
G1 X153.37 Y96.319 E12.40845
G1 X153.485 Y96.563 E12.41742
G1 X153.616 Y96.851 E12.42795
G1 X154.382 Y98.577 E12.49075
G1 X154.671 Y99.254 E12.51523
G1 X154.828 Y99.639 E12.52906
G1 X154.943 Y99.936 E12.53966
G1 X155.07 Y100.284 E12.55198
G1 X155.706 Y102.076 E12.61522
G1 X155.926 Y102.721 E12.63789
G1 X156.027 Y103.032 E12.64876
G1 X156.164 Y103.487 E12.66457
G1 X156.258 Y103.82 E12.67608
G1 X156.748 Y105.622 E12.73819
G1 X156.911 Y106.252 E12.75983
G1 X156.983 Y106.546 E12.7699
G1 X157.036 Y106.778 E12.77782
G1 X157.148 Y107.316 E12.79609
G1 X157.513 Y109.209 E12.86021
G1 X157.639 Y109.92 E12.88423
G1 X157.688 Y110.222 E12.89441
G1 X157.75 Y110.656 E12.90899
G1 X157.8 Y111.061 E12.92256
G1 X158.012 Y112.93 E12.98512
G1 X158.081 Y113.622 E13.00825
G1 X158.107 Y113.925 E13.01837
G1 X158.137 Y114.388 E13.0338
G1 X158.155 Y114.772 E13.04658
G1 X158.221 Y116.56 E13.10609
G1 X158.239 Y117.287 E13.13028
G1 X158.242 Y117.592 E13.14043
G1 X158.237 Y118.077 E13.15656
G1 X158.229 Y118.355 E13.16581
G1 X158.151 Y120.349 E13.23218
G1 X158.117 Y120.995 E13.2537
G1 X158.097 Y121.3 E13.26386
G1 X158.074 Y121.582 E13.27327
G1 X158.017 Y122.147 E13.29216
G1 X157.823 Y123.847 E13.34907
G1 X157.714 Y124.691 E13.37737
G1 X157.643 Y125.171 E13.39351
G1 X157.594 Y125.46 E13.40326
G1 X157.534 Y125.786 E13.41429
G1 X157.173 Y127.65 E13.47744
G1 X157.032 Y128.329 E13.5005
G1 X156.932 Y128.77 E13.51554
G1 X156.862 Y129.051 E13.52517
G1 X156.746 Y129.491 E13.54031
G1 X156.268 Y131.234 E13.60042
G1 X156.071 Y131.92 E13.62416
G1 X155.988 Y132.197 E13.63378
G1 X155.93 Y132.38 E13.64016
G1 X155.83 Y132.679 E13.65065
G1 X155.715 Y133.006 E13.66218
G1 X155.088 Y134.756 E13.72401
G1 X154.83 Y135.447 E13.74854
G1 X154.723 Y135.724 E13.75841
G1 X154.637 Y135.936 E13.76602
G1 X154.503 Y136.249 E13.77735
G1 X153.668 Y138.129 E13.84577
G1 X153.36 Y138.795 E13.87017
G1 X153.249 Y139.028 E13.87876
G1 X153.152 Y139.225 E13.88606
G1 X153.011 Y139.501 E13.89637
G1 X152.831 Y139.841 E13.90916
G1 X151.992 Y141.393 E13.96784
G1 X151.616 Y142.067 E13.99351
G1 X151.451 Y142.352 E14.00447
G1 X151.224 Y142.726 E14.01902
G1 X150.967 Y143.135 E14.03508
G1 X150.043 Y144.572 E14.09191
G1 X149.623 Y145.206 E14.1172
G1 X149.423 Y145.497 E14.12894
G1 X149.199 Y145.81 E14.14175
G1 X148.955 Y146.138 E14.15534
G1 X147.802 Y147.66 E14.21885
G1 X147.408 Y148.166 E14.24018
G1 X147.231 Y148.387 E14.2496
G1 X147.092 Y148.556 E14.25688
G1 X146.909 Y148.772 E14.26629
G1 X146.612 Y149.114 E14.28136
G1 X145.459 Y150.418 E14.33925
G1 X144.951 Y150.977 E14.36437
G1 X144.751 Y151.191 E14.37412
G1 X144.605 Y151.343 E14.38113
G1 X144.402 Y151.549 E14.39075
G1 X142.973 Y152.942 E14.45712
G1 X142.335 Y153.547 E14.48636
G1 X142.15 Y153.718 E14.49474
G1 X141.979 Y153.872 E14.5024
G1 X141.735 Y154.084 E14.51315
G1 X141.436 Y154.337 E14.52617
G1 X140.093 Y155.455 E14.5843
G1 X139.511 Y155.928 E14.60924
G1 X138.772 Y156.477 E14.63986
G1 X137.988 Y156.96 E14.67049
G1 X137.166 Y157.373 E14.70108
G1 X136.31 Y157.713 E14.73172
G1 X135.428 Y157.978 E14.76235
G1 X134.527 Y158.165 E14.79295
G1 X133.613 Y158.273 E14.82357
G1 X133.15 Y158.297 E14.83899
G1 X132.823 Y158.307 E14.84987
G1 X132.499 Y158.312 E14.86064
G1 X87.918 Y158.311 E16.34341
G1 X87.22 Y158.302 E16.36663
G1 X86.301 Y158.25 E16.39725
G1 X85.39 Y158.119 E16.42786
G1 X84.494 Y157.909 E16.45847
G1 X83.619 Y157.622 E16.4891
G1 X82.772 Y157.26 E16.51973
G1 X81.96 Y156.826 E16.55035
G1 X81.189 Y156.324 E16.58095
G1 X80.464 Y155.756 E16.61159
G1 X79.791 Y155.127 E16.64223
G1 X79.176 Y154.443 E16.67282
G1 X78.622 Y153.708 E16.70343
G1 X78.134 Y152.927 E16.73406
G1 X77.715 Y152.107 E16.76469
G1 X77.369 Y151.254 E16.79531
G1 X77.099 Y150.374 E16.82592
G1 X76.906 Y149.473 E16.85657
G1 X76.792 Y148.56 E16.88717
G1 X76.761 Y147.989 E16.90619
G1 X76.752 Y147.656 E16.91727
G1 X76.748 Y147.37 E16.92678
G1 X76.749 Y87.919 E18.90413
G1 X76.758 Y87.254 E18.92625
G1 X76.81 Y86.334 E18.9569
G1 X76.942 Y85.423 E18.98752
G1 X77.153 Y84.527 E19.01813
G1 X77.44 Y83.652 E19.04876
G1 X77.803 Y82.806 E19.07938
G1 X78.237 Y81.994 E19.11
G1 X78.74 Y81.223 E19.14062
G1 X79.309 Y80.499 E19.17125
G1 X79.937 Y79.827 E19.20184
G0 F6000 X80.329 Y80.005
G1 F1200 X81.01 Y79.412 E19.23187
G1 X81.742 Y78.882 E19.26193
G1 X82.517 Y78.419 E19.29196
G1 X83.33 Y78.026 E19.32199
G1 X84.175 Y77.706 E19.35204
G1 X85.044 Y77.463 E19.38206
G1 X85.932 Y77.297 E19.4121
G1 X87.071 Y77.201 E19.45012
G1 X87.392 Y77.192 E19.4608
G1 X87.678 Y77.188 E19.47031
G1 X132.123 Y77.188 E20.94856
G1 X132.971 Y77.199 E20.97677
G1 X133.873 Y77.252 E21.00682
G1 X134.766 Y77.384 E21.03684
G1 X135.644 Y77.595 E21.06688
G1 X136.5 Y77.883 E21.09692
G1 X137.327 Y78.245 E21.12694
G1 X138.119 Y78.679 E21.15698
G1 X139.107 Y79.361 E21.19691
G1 X139.345 Y79.547 E21.20696
G1 X139.594 Y79.749 E21.21762
G1 X141.112 Y81.015 E21.28336
G1 X141.712 Y81.53 E21.30966
G1 X141.936 Y81.728 E21.31961
G1 X142.245 Y82.013 E21.33359
G1 X142.537 Y82.293 E21.34704
G1 X143.855 Y83.577 E21.40824
G1 X144.362 Y84.086 E21.43214
G1 X144.682 Y84.419 E21.4475
G1 X144.859 Y84.61 E21.45616
G1 X145.139 Y84.922 E21.4701
G1 X146.332 Y86.276 E21.53013
G1 X146.816 Y86.841 E21.55487
G1 X146.98 Y87.037 E21.56337
G1 X147.107 Y87.193 E21.57006
G1 X147.276 Y87.407 E21.57913
G1 X147.505 Y87.704 E21.5916
G1 X148.6 Y89.155 E21.65206
G1 X149.025 Y89.734 E21.67595
G1 X149.231 Y90.026 E21.68784
G1 X149.434 Y90.326 E21.69989
G1 X149.631 Y90.627 E21.71185
G1 X150.64 Y92.202 E21.77406
G1 X151.024 Y92.818 E21.79821
G1 X151.191 Y93.096 E21.80899
G1 X151.416 Y93.487 E21.824
G1 X151.572 Y93.769 E21.83472
G1 X152.464 Y95.424 E21.89725
G1 X152.773 Y96.015 E21.91943
G1 X152.909 Y96.286 E21.92951
G1 X153.121 Y96.728 E21.94582
G1 X153.25 Y97.014 E21.95625
G1 X154.014 Y98.734 E22.01885
G1 X154.303 Y99.411 E22.04333
G1 X154.457 Y99.789 E22.05691
G1 X154.567 Y100.074 E22.06707
G1 X154.693 Y100.418 E22.07925
G1 X155.328 Y102.205 E22.14233
G1 X155.548 Y102.85 E22.165
G1 X155.645 Y103.149 E22.17545
G1 X155.779 Y103.596 E22.19097
G1 X155.872 Y103.925 E22.20234
G1 X156.361 Y105.722 E22.26429
G1 X156.524 Y106.352 E22.28593
G1 X156.593 Y106.635 E22.29562
G1 X156.697 Y107.105 E22.31163
G1 X156.776 Y107.494 E22.32483
G1 X157.12 Y109.279 E22.38529
G1 X157.246 Y109.99 E22.40931
G1 X157.293 Y110.28 E22.41908
G1 X157.353 Y110.706 E22.43339
G1 X157.403 Y111.106 E22.4468
G1 X157.614 Y112.97 E22.50919
G1 X157.683 Y113.662 E22.53232
G1 X157.708 Y113.954 E22.54207
G1 X157.737 Y114.408 E22.5572
G1 X157.755 Y114.787 E22.56982
G1 X157.821 Y116.57 E22.62916
G1 X157.839 Y117.297 E22.65335
G1 X157.842 Y117.59 E22.6631
G1 X157.837 Y118.066 E22.67893
G1 X157.829 Y118.339 E22.68801
G1 X157.752 Y120.328 E22.75422
G1 X157.718 Y120.974 E22.77573
G1 X157.698 Y121.267 E22.7855
G1 X157.675 Y121.549 E22.79491
G1 X157.627 Y122.027 E22.81089
G1 X157.425 Y123.801 E22.87027
G1 X157.317 Y124.64 E22.89841
G1 X157.247 Y125.109 E22.91418
G1 X157.2 Y125.388 E22.92359
G1 X157.141 Y125.71 E22.93448
G1 X156.781 Y127.569 E22.99746
G1 X156.64 Y128.248 E23.02052
G1 X156.542 Y128.679 E23.03522
G1 X156.475 Y128.949 E23.04448
G1 X156.36 Y129.386 E23.05951
G1 X155.884 Y131.123 E23.11941
G1 X155.687 Y131.809 E23.14315
G1 X155.548 Y132.259 E23.15881
G1 X155.452 Y132.547 E23.16891
G1 X155.339 Y132.871 E23.18032
G1 X154.714 Y134.616 E23.24197
G1 X154.456 Y135.307 E23.2665
G1 X154.352 Y135.573 E23.276
G1 X154.266 Y135.785 E23.28361
G1 X154.138 Y136.087 E23.29452
G1 X153.305 Y137.961 E23.36273
G1 X152.997 Y138.627 E23.38714
G1 X152.793 Y139.049 E23.40273
G1 X152.657 Y139.314 E23.41263
G1 X152.479 Y139.651 E23.42531
G1 X151.572 Y141.326 E23.48866
G1 X151.267 Y141.872 E23.50947
G1 X151.108 Y142.146 E23.52
G1 X150.885 Y142.513 E23.53429
G1 X150.63 Y142.918 E23.5502
G1 X149.709 Y144.351 E23.60686
G1 X149.289 Y144.985 E23.63215
G1 X149.097 Y145.266 E23.64347
G1 X148.877 Y145.572 E23.65601
G1 X148.636 Y145.897 E23.66947
G1 X147.486 Y147.415 E23.73281
G1 X147.092 Y147.921 E23.75414
G1 X146.922 Y148.133 E23.76318
G1 X146.783 Y148.302 E23.77045
