;FLAVOR:Marlin
;TIME:14000
;Filament used: 10.4218m
;Layer height: 0.2
;MINX:76.529
;MINY:76.288
;MINZ:0.2
;MAXX:158.452
;MAXY:158.612
;MAXZ:12.6
;Generated with Cura_SteamEngine 4.10.0
M140 S50
M105
M190 S50
M104 S220
M105
M109 S220
M82 ;absolute extrusion mode
; Ender 3 Custom Start G-code
G92 E0 ; Reset Extruder
G28 ; Home all axes
G1 Z2.0 F3000 ; Move Z Axis up little to prevent scratching of Heat Bed
G1 X0.1 Y20 Z0.3 F5000.0 ; Move to start position
G1 X0.1 Y200.0 Z0.3 F1500.0 E15 ; Draw the first line
G1 X0.4 Y200.0 Z0.3 F5000.0 ; Move to side a little
G1 X0.4 Y20 Z0.3 F1500.0 E30 ; Draw the second line
G92 E0 ; Reset Extruder
G1 Z2.0 F3000 ; Move Z Axis up little to prevent scratching of Heat Bed
G1 X5 Y20 Z0.3 F5000.0 ; Move over to prevent blob squish
G92 E0
G92 E0
G1 F2700 E-5
;LAYER_COUNT:64
;LAYER:0
M107
G0 F6000 X79.727 Y79.552 Z0.2
;TYPE:SKIRT
G1 F2700 E0
G1 F1200 X80.415 Y78.915 E0.03119
G1 X81.155 Y78.339 E0.06237
G1 X81.941 Y77.827 E0.09357
G1 X82.768 Y77.385 E0.12476
G1 X83.63 Y77.015 E0.15596
G1 X84.52 Y76.719 E0.18716
G1 X85.432 Y76.501 E0.21835
G1 X86.359 Y76.36 E0.24953
G1 X87.23 Y76.301 E0.27857
G1 X87.551 Y76.292 E0.28925
G1 X87.859 Y76.288 E0.29949
G1 X105.872 Y76.288 E0.89861
G1 X106.722 Y76.299 E0.92688
G1 X107.659 Y76.353 E0.9581
G1 X108.587 Y76.486 E0.98928
G1 X109.501 Y76.697 E1.02048
G1 X110.393 Y76.986 E1.05167
G1 X111.257 Y77.35 E1.08285
G1 X112.088 Y77.786 E1.11406
G1 X112.893 Y78.302 E1.14586
G1 X113.649 Y78.834 E1.17661
G1 X113.809 Y78.949 E1.18316
G1 X119.687 Y83.244 E1.4253
G1 X121.848 Y84.777 E1.51342
G1 X123.919 Y86.158 E1.59621
G1 X126.062 Y87.503 E1.68036
G1 X128.23 Y88.779 E1.76403
G1 X130.435 Y89.995 E1.84779
G1 X132.647 Y91.134 E1.93054
G1 X134.948 Y92.238 E2.01542
G1 X137.231 Y93.254 E2.09853
G1 X139.574 Y94.22 E2.18283
G1 X141.914 Y95.108 E2.26607
G1 X142.268 Y95.231 E2.27854
G1 X143.199 Y95.572 E2.31151
G1 X143.783 Y95.805 E2.33243
G1 X144.191 Y95.985 E2.34726
G1 X144.73 Y96.234 E2.367
G1 X145.115 Y96.418 E2.3812
G1 X145.793 Y96.75 E2.40631
G1 X146.642 Y97.213 E2.43847
G1 X146.991 Y97.427 E2.45209
G1 X147.418 Y97.698 E2.46891
G1 X147.931 Y98.033 E2.48929
G1 X148.522 Y98.43 E2.51297
G1 X149.232 Y98.949 E2.54222
G1 X149.383 Y99.069 E2.54863
G1 X149.605 Y99.251 E2.55818
G1 X149.923 Y99.519 E2.57201
G1 X150.409 Y99.939 E2.59338
G1 X150.95 Y100.417 E2.61739
G1 X151.664 Y101.107 E2.65041
G1 X151.931 Y101.392 E2.6634
G1 X152.255 Y101.75 E2.67946
G1 X152.629 Y102.172 E2.69821
G1 X153.107 Y102.723 E2.72248
G1 X153.691 Y103.456 E2.75365
G1 X153.932 Y103.794 E2.76745
G1 X154.192 Y104.171 E2.78269
G1 X154.603 Y104.783 E2.80721
G1 X154.963 Y105.336 E2.82915
G1 X155.413 Y106.093 E2.85844
G1 X155.643 Y106.523 E2.87466
G1 X155.834 Y106.9 E2.88872
G1 X156.1 Y107.439 E2.90871
G1 X156.423 Y108.116 E2.93366
G1 X156.772 Y108.932 E2.96318
G1 X156.838 Y109.105 E2.96934
G1 X156.943 Y109.391 E2.97947
G1 X157.099 Y109.839 E2.99525
G1 X157.296 Y110.426 E3.01584
G1 X157.518 Y111.12 E3.04008
G1 X157.761 Y112.004 E3.07057
G1 X157.843 Y112.376 E3.08324
G1 X157.957 Y112.932 E3.10212
G1 X158.065 Y113.494 E3.12115
G1 X158.19 Y114.192 E3.14473
G1 X158.315 Y115.11 E3.17555
G1 X158.337 Y115.346 E3.18343
G1 X158.359 Y115.63 E3.19291
G1 X158.384 Y115.999 E3.20521
G1 X158.418 Y116.61 E3.22556
G1 X158.45 Y117.326 E3.2494
G1 X158.452 Y118.267 E3.2807
G1 X158.432 Y118.688 E3.29472
G1 X158.398 Y119.211 E3.31215
G1 X158.354 Y119.775 E3.33096
G1 X158.289 Y120.497 E3.35507
G1 X158.166 Y121.423 E3.38614
G1 X158.091 Y121.831 E3.39994
G1 X158.005 Y122.258 E3.41443
G1 X157.855 Y122.96 E3.4383
G1 X157.694 Y123.658 E3.46213
G1 X157.464 Y124.501 E3.49119
G1 X157.397 Y124.713 E3.49859
G1 X157.279 Y125.065 E3.51093
G1 X156.963 Y125.954 E3.54232
G1 X156.715 Y126.618 E3.56589
G1 X156.345 Y127.491 E3.59743
G1 X156.158 Y127.878 E3.61172
G1 X155.962 Y128.266 E3.62618
G1 X155.72 Y128.734 E3.6437
G1 X155.305 Y129.507 E3.67289
G1 X154.847 Y130.28 E3.70277
G1 X154.608 Y130.644 E3.71725
G1 X154.327 Y131.053 E3.73376
G1 X154.019 Y131.491 E3.75157
G1 X153.574 Y132.107 E3.77684
G1 X152.999 Y132.836 E3.80772
G1 X152.846 Y133.014 E3.81553
G1 X152.55 Y133.347 E3.83035
G1 X152.09 Y133.848 E3.85297
G1 X151.481 Y134.491 E3.88243
G1 X150.78 Y135.168 E3.91484
G1 X150.498 Y135.414 E3.92729
G1 X150.128 Y135.727 E3.9434
G1 X149.754 Y136.037 E3.95956
G1 X149.076 Y136.582 E3.98849
G1 X148.416 Y137.073 E4.01585
G1 X148.244 Y137.191 E4.02279
G1 X147.921 Y137.404 E4.03566
G1 X147.629 Y137.589 E4.04716
G1 X147.058 Y137.944 E4.06952
G1 X146.452 Y138.31 E4.09307
G1 X145.684 Y138.733 E4.12223
G1 X145.514 Y138.818 E4.12855
G1 X145.227 Y138.956 E4.13914
G1 X144.813 Y139.148 E4.15432
G1 X144.233 Y139.409 E4.17547
G1 X143.578 Y139.694 E4.19923
G1 X142.606 Y140.063 E4.23381
G1 X140.155 Y140.927 E4.32025
G1 X137.815 Y141.828 E4.40365
G1 X135.489 Y142.799 E4.48748
G1 X133.204 Y143.831 E4.57087
G1 X130.944 Y144.928 E4.65443
G1 X128.685 Y146.105 E4.73915
G1 X126.513 Y147.317 E4.82188
G1 X124.354 Y148.603 E4.90546
G1 X122.208 Y149.963 E4.98996
G1 X120.099 Y151.386 E5.07458
G1 X118.416 Y152.587 E5.14335
G1 X113.541 Y156.147 E5.34412
G1 X112.947 Y156.568 E5.36834
G1 X112.159 Y157.078 E5.39956
G1 X111.331 Y157.518 E5.43074
G1 X110.468 Y157.886 E5.46195
G1 X109.578 Y158.179 E5.49311
G1 X108.665 Y158.396 E5.52433
G1 X107.737 Y158.534 E5.55553
G1 X106.794 Y158.592 E5.58695
G1 X105.84 Y158.61 E5.61869
G1 X105.632 Y158.612 E5.62561
G1 X88.078 Y158.611 E6.20946
G1 X87.38 Y158.601 E6.23267
G1 X86.444 Y158.547 E6.26386
G1 X85.516 Y158.415 E6.29503
G1 X84.602 Y158.203 E6.32624
G1 X83.71 Y157.914 E6.35743
G1 X82.845 Y157.551 E6.38863
G1 X82.015 Y157.115 E6.41981
G1 X81.224 Y156.61 E6.45102
G1 X80.48 Y156.039 E6.48222
G1 X79.787 Y155.407 E6.51341
G1 X79.15 Y154.719 E6.5446
G1 X78.575 Y153.978 E6.57579
G1 X78.064 Y153.192 E6.60697
G1 X77.622 Y152.364 E6.63819
G1 X77.253 Y151.502 E6.66938
G1 X76.958 Y150.612 E6.70056
G1 X76.74 Y149.7 E6.73175
G1 X76.6 Y148.772 E6.76297
G1 X76.542 Y147.9 E6.79203
G1 X76.533 Y147.568 E6.80308
G1 X76.529 Y147.27 E6.81299
G1 X76.53 Y87.813 E8.79054
G1 X76.539 Y87.148 E8.81266
G1 X76.592 Y86.212 E8.84384
G1 X76.724 Y85.283 E8.87505
G1 X76.935 Y84.369 E8.90625
G1 X77.223 Y83.477 E8.93743
G1 X77.586 Y82.612 E8.96863
G1 X78.021 Y81.781 E8.99982
G1 X78.525 Y80.991 E9.03099
G1 X79.095 Y80.246 E9.06219
G1 X79.727 Y79.552 E9.09341
G0 F6000 X80.118 Y79.727
G1 F1200 X80.803 Y79.111 E9.12405
G1 X81.539 Y78.558 E9.15467
G1 X82.32 Y78.07 E9.1853
G1 X83.14 Y77.652 E9.21591
G1 X83.994 Y77.307 E9.24655
G1 X84.874 Y77.037 E9.27716
G1 X85.774 Y76.845 E9.30777
G1 X86.688 Y76.731 E9.33841
G1 X87.241 Y76.701 E9.35683
G1 X87.562 Y76.692 E9.36751
G1 X87.859 Y76.688 E9.37739
G1 X105.872 Y76.688 E9.9765
G1 X106.716 Y76.699 E10.00457
G1 X107.635 Y76.752 E10.03519
G1 X108.547 Y76.885 E10.06584
G1 X109.443 Y77.097 E10.09647
G1 X110.317 Y77.385 E10.12708
G1 X111.163 Y77.748 E10.15769
G1 X111.974 Y78.183 E10.1883
G1 X112.663 Y78.629 E10.2156
G1 X113.573 Y79.271 E10.25264
G1 X119.472 Y83.582 E10.49565
G1 X121.601 Y85.092 E10.58247
G1 X123.748 Y86.523 E10.66828
G1 X125.826 Y87.828 E10.7499
G1 X128.04 Y89.131 E10.83534
G1 X130.238 Y90.343 E10.91883
G1 X132.499 Y91.507 E11.00341
G1 X134.778 Y92.6 E11.08747
G1 X137.065 Y93.619 E11.17075
G1 X139.429 Y94.592 E11.25577
G1 X141.779 Y95.484 E11.33938
G1 X142.131 Y95.607 E11.35178
G1 X143.062 Y95.948 E11.38476
G1 X143.625 Y96.172 E11.40491
G1 X144.024 Y96.348 E11.41941
G1 X144.558 Y96.595 E11.43898
G1 X144.939 Y96.777 E11.45303
G1 X145.617 Y97.109 E11.47813
G1 X146.435 Y97.556 E11.50914
G1 X146.777 Y97.765 E11.52247
G1 X147.2 Y98.034 E11.53914
G1 X147.708 Y98.365 E11.55931
G1 X148.299 Y98.762 E11.58299
G1 X148.983 Y99.262 E11.61117
G1 X149.134 Y99.382 E11.61758
G1 X149.348 Y99.557 E11.62678
G1 X149.662 Y99.822 E11.64044
G1 X150.145 Y100.238 E11.66165
G1 X150.686 Y100.716 E11.68566
G1 X151.373 Y101.382 E11.71748
G1 X151.634 Y101.661 E11.73019
G1 X151.956 Y102.016 E11.74613
G1 X152.327 Y102.434 E11.76472
G1 X152.805 Y102.985 E11.78898
G1 X153.367 Y103.692 E11.81902
G1 X153.603 Y104.021 E11.83249
G1 X153.86 Y104.395 E11.84758
G1 X154.267 Y105.001 E11.87186
G1 X154.627 Y105.554 E11.89381
G1 X155.062 Y106.283 E11.92204
G1 X155.158 Y106.46 E11.92874
G1 X155.286 Y106.705 E11.93793
G1 X155.476 Y107.078 E11.95185
G1 X155.739 Y107.612 E11.97165
G1 X156.062 Y108.289 E11.9966
G1 X156.399 Y109.075 E12.02505
G1 X156.465 Y109.248 E12.0312
G1 X156.565 Y109.523 E12.04094
G1 X156.72 Y109.967 E12.05658
G1 X156.915 Y110.547 E12.07693
G1 X157.137 Y111.241 E12.10116
G1 X157.371 Y112.093 E12.13055
G1 X157.452 Y112.457 E12.14295
G1 X157.564 Y113.008 E12.16166
G1 X157.671 Y113.564 E12.18049
G1 X157.796 Y114.262 E12.20407
G1 X157.916 Y115.147 E12.23378
G1 X157.938 Y115.383 E12.24166
G1 X157.96 Y115.657 E12.2508
G1 X157.984 Y116.022 E12.26297
G1 X158.018 Y116.628 E12.28316
G1 X158.05 Y117.344 E12.30699
G1 X158.052 Y118.251 E12.33716
G1 X158.033 Y118.663 E12.35088
G1 X157.999 Y119.181 E12.36814
G1 X157.955 Y119.739 E12.38676
G1 X157.89 Y120.461 E12.41087
G1 X157.772 Y121.353 E12.4408
G1 X157.698 Y121.753 E12.45433
G1 X157.614 Y122.175 E12.46864
G1 X157.507 Y122.681 E12.48584
G1 X157.304 Y123.568 E12.51611
G1 X157.082 Y124.38 E12.5441
G1 X157.015 Y124.592 E12.5515
G1 X156.902 Y124.932 E12.56342
G1 X156.652 Y125.639 E12.58836
G1 X156.34 Y126.478 E12.61813
G1 X155.984 Y127.319 E12.6485
G1 X155.8 Y127.698 E12.66252
G1 X155.607 Y128.082 E12.67681
G1 X155.365 Y128.55 E12.69434
G1 X154.953 Y129.317 E12.72329
G1 X154.512 Y130.063 E12.75212
G1 X154.278 Y130.418 E12.76626
G1 X154 Y130.823 E12.7826
G1 X153.694 Y131.257 E12.80026
G1 X153.249 Y131.873 E12.82553
G1 X152.696 Y132.576 E12.85528
G1 X152.38 Y132.938 E12.87127
G1 X152.177 Y133.163 E12.88134
G1 X151.687 Y133.693 E12.90535
G1 X151.191 Y134.216 E12.92933
G1 X150.516 Y134.868 E12.96054
G1 X150.24 Y135.109 E12.97273
G1 X149.872 Y135.419 E12.98873
G1 X149.367 Y135.836 E13.01051
G1 X148.826 Y136.27 E13.03358
G1 X148.19 Y136.743 E13.05994
G1 X148.018 Y136.861 E13.06688
G1 X147.706 Y137.066 E13.0793
G1 X147.418 Y137.249 E13.09065
G1 X146.851 Y137.602 E13.11286
G1 X146.245 Y137.968 E13.13641
G1 X145.505 Y138.375 E13.1645
G1 X145.335 Y138.46 E13.17082
G1 X145.059 Y138.593 E13.18101
G1 X144.649 Y138.783 E13.19604
G1 X144.073 Y139.042 E13.21704
G1 X143.418 Y139.327 E13.2408
G1 X142.503 Y139.675 E13.27336
G1 X140.046 Y140.541 E13.36001
G1 X137.666 Y141.457 E13.44483
G1 X135.336 Y142.43 E13.52881
G1 X133.028 Y143.471 E13.61302
G1 X130.749 Y144.578 E13.69729
G1 X128.511 Y145.744 E13.78122
G1 X126.319 Y146.967 E13.86471
G1 X124.131 Y148.27 E13.94941
G1 X121.976 Y149.637 E14.03429
G1 X119.909 Y151.032 E14.11723
G1 X118.112 Y152.313 E14.19063
G1 X113.309 Y155.821 E14.38845
G1 X112.715 Y156.242 E14.41267
G1 X111.942 Y156.741 E14.44327
G1 X111.128 Y157.172 E14.4739
G1 X110.28 Y157.53 E14.50452
G1 X109.404 Y157.813 E14.53514
G1 X108.506 Y158.019 E14.56578
G1 X107.595 Y158.146 E14.59637
G1 X106.786 Y158.192 E14.62332
G1 X105.832 Y158.21 E14.65506
G1 X105.632 Y158.212 E14.66171
G1 X88.084 Y158.211 E15.24536
G1 X87.386 Y158.201 E15.26858
G1 X86.467 Y158.148 E15.2992
G1 X85.556 Y158.015 E15.32982
G1 X84.66 Y157.804 E15.36043
G1 X83.786 Y157.516 E15.39104
G1 X82.939 Y157.153 E15.42169
G1 X82.128 Y156.718 E15.4523
G1 X81.358 Y156.214 E15.48291
G1 X80.634 Y155.645 E15.51354
G1 X79.962 Y155.015 E15.54417
G1 X79.347 Y154.33 E15.57479
G1 X78.794 Y153.594 E15.60541
G1 X78.307 Y152.813 E15.63602
G1 X77.89 Y151.992 E15.66665
G1 X77.545 Y151.138 E15.69728
G1 X77.276 Y150.258 E15.72789
G1 X77.084 Y149.357 E15.75853
G1 X76.971 Y148.444 E15.78913
G1 X76.942 Y147.889 E15.80761
G1 X76.933 Y147.557 E15.81866
G1 X76.929 Y147.27 E15.82821
G1 X76.93 Y87.819 E17.80555
G1 X76.939 Y87.154 E17.82767
G1 X76.991 Y86.234 E17.85832
G1 X77.123 Y85.323 E17.88894
G1 X77.334 Y84.427 E17.91955
G1 X77.621 Y83.552 E17.95018
G1 X77.984 Y82.706 E17.9808
G1 X78.418 Y81.894 E18.01142
G1 X78.921 Y81.123 E18.04204
G1 X79.49 Y80.399 E18.07267
G1 X80.118 Y79.727 E18.10326
G0 F6000 X80.51 Y79.905
G1 F1200 X81.191 Y79.312 E18.1333
G1 X81.923 Y78.782 E18.16335
G1 X82.698 Y78.319 E18.19338
G1 X83.511 Y77.926 E18.22341
G1 X84.356 Y77.606 E18.25347
G1 X85.225 Y77.363 E18.28348
G1 X86.113 Y77.197 E18.31352
G1 X87.252 Y77.101 E18.35154
G1 X87.573 Y77.092 E18.36222
G1 X87.859 Y77.088 E18.37174
G1 X105.872 Y77.088 E18.97085
G1 X106.711 Y77.099 E18.99876
G1 X107.612 Y77.152 E19.02878
G1 X108.505 Y77.285 E19.05881
G1 X109.384 Y77.496 E19.08887
G1 X110.24 Y77.784 E19.11891
G1 X111.067 Y78.146 E19.14894
G1 X111.859 Y78.58 E19.17898
G1 X112.433 Y78.956 E19.2018
G1 X113.337 Y79.594 E19.2386
G1 X119.29 Y83.944 E19.48383
G1 X121.353 Y85.407 E19.56794
G1 X123.493 Y86.835 E19.65351
G1 X125.658 Y88.193 E19.73851
G1 X127.823 Y89.468 E19.82208
G1 X130.069 Y90.706 E19.90738
G1 X132.321 Y91.865 E19.99162
G1 X134.592 Y92.955 E20.0754
G1 X136.916 Y93.99 E20.16002
G1 X139.283 Y94.965 E20.24516
G1 X141.643 Y95.861 E20.32912
G1 X141.993 Y95.982 E20.34144
G1 X142.924 Y96.323 E20.37442
G1 X143.466 Y96.539 E20.39382
G1 X143.857 Y96.711 E20.40803
G1 X144.386 Y96.956 E20.42742
G1 X144.763 Y97.136 E20.44131
G1 X145.441 Y97.468 E20.46642
G1 X146.229 Y97.898 E20.49628
G1 X146.563 Y98.103 E20.50932
G1 X146.982 Y98.369 E20.52582
G1 X147.485 Y98.697 E20.5458
G1 X148.076 Y99.094 E20.56947
G1 X148.734 Y99.576 E20.5966
G1 X149.091 Y99.864 E20.61186
G1 X149.401 Y100.125 E20.62534
G1 X149.88 Y100.538 E20.64637
G1 X150.421 Y101.016 E20.67038
G1 X151.083 Y101.656 E20.70101
G1 X151.338 Y101.93 E20.71346
G1 X151.657 Y102.282 E20.72926
G1 X152.025 Y102.696 E20.74768
G1 X152.503 Y103.247 E20.77194
G1 X153.044 Y103.927 E20.80085
G1 X153.274 Y104.248 E20.81398
G1 X153.529 Y104.619 E20.82895
G1 X153.932 Y105.219 E20.85299
G1 X154.292 Y105.772 E20.87494
G1 X154.71 Y106.474 E20.90211
G1 X154.93 Y106.886 E20.91765
G1 X155.117 Y107.256 E20.93144
G1 X155.378 Y107.784 E20.95103
G1 X155.701 Y108.461 E20.97598
G1 X156.025 Y109.217 E21.00333
G1 X156.091 Y109.39 E21.00949
G1 X156.188 Y109.655 E21.01888
G1 X156.341 Y110.095 E21.03437
G1 X156.534 Y110.669 E21.05451
G1 X156.756 Y111.363 E21.07875
G1 X156.981 Y112.183 E21.10703
G1 X157.06 Y112.537 E21.11909
G1 X157.172 Y113.084 E21.13766
G1 X157.277 Y113.635 E21.15632
G1 X157.402 Y114.333 E21.1799
G1 X157.518 Y115.184 E21.20847
G1 X157.54 Y115.42 E21.21635
G1 X157.561 Y115.683 E21.22513
G1 X157.585 Y116.045 E21.2372
G1 X157.619 Y116.646 E21.25722
G1 X157.651 Y117.362 E21.28105
G1 X157.652 Y118.234 E21.31006
G1 X157.633 Y118.637 E21.32348
G1 X157.6 Y119.151 E21.34061
G1 X157.557 Y119.704 E21.35906
G1 X157.492 Y120.426 E21.38317
G1 X157.378 Y121.284 E21.41195
G1 X157.306 Y121.675 E21.42518
G1 X157.222 Y122.092 E21.43933
G1 X157.075 Y122.781 E21.46276
G1 X156.914 Y123.479 E21.48658
G1 X156.701 Y124.26 E21.51351
G1 X156.634 Y124.472 E21.5209
G1 X156.524 Y124.798 E21.53235
G1 X156.213 Y125.674 E21.56326
G1 X155.965 Y126.338 E21.58684
G1 X155.622 Y127.148 E21.61609
G1 X155.443 Y127.518 E21.62977
G1 X155.251 Y127.898 E21.64393
G1 X154.93 Y128.517 E21.66712
G1 X154.601 Y129.128 E21.6902
G1 X154.176 Y129.845 E21.71792
G1 X153.947 Y130.193 E21.73178
G1 X153.672 Y130.594 E21.74795
G1 X153.37 Y131.023 E21.7654
G1 X152.925 Y131.639 E21.79067
G1 X152.392 Y132.315 E21.81931
G1 X152.083 Y132.67 E21.83496
G1 X151.882 Y132.892 E21.84492
G1 X151.397 Y133.418 E21.86872
G1 X150.901 Y133.941 E21.89269
G1 X150.251 Y134.568 E21.92273
G1 X149.981 Y134.803 E21.93463
G1 X149.617 Y135.111 E21.95049
G1 X149.117 Y135.524 E21.97206
G1 X148.576 Y135.958 E21.99513
G1 X147.963 Y136.413 E22.02052
G1 X147.791 Y136.531 E22.02746
G1 X147.492 Y136.729 E22.03939
G1 X147.206 Y136.91 E22.05064
G1 X146.644 Y137.259 E22.07265
G1 X146.038 Y137.625 E22.09619
G1 X145.327 Y138.017 E22.1232
G1 X145.157 Y138.102 E22.12952
G1 X144.89 Y138.23 E22.13937
G1 X144.484 Y138.418 E22.15425
G1 X143.914 Y138.675 E22.17504
G1 X143.259 Y138.96 E22.1988
G1 X142.378 Y139.296 E22.23016
G1 X139.887 Y140.173 E22.318
G1 X137.535 Y141.078 E22.40182
G1 X135.167 Y142.067 E22.48717
G1 X132.854 Y143.111 E22.57158
G1 X130.569 Y144.221 E22.65607
