;FLAVOR:Marlin
;TIME:123818
;Filament used: 97.4771m
;Layer height: 0.2
;MINX:32.325
;MINY:51.692
;MINZ:0.2
;MAXX:187.675
;MAXY:168.308
;MAXZ:19
;Generated with Cura_SteamEngine 4.11.0
M140 S50
M105
M190 S50
M104 S200
M105
M109 S200
M82 ;absolute extrusion mode
; Ender 3 Custom Start G-code
G92 E0 ; Reset Extruder
G28 ; Home all axes
G29 ; Auto bed-level (BL-Touch)
G1 Z2.0 F3000 ; Move Z Axis up little to prevent scratching of Heat Bed
G1 X0.1 Y20 Z0.3 F5000.0 ; Move to start position
G1 X0.1 Y200.0 Z0.3 F1500.0 E15 ; Draw the first line
G1 X0.4 Y200.0 Z0.3 F5000.0 ; Move to side a little
G1 X0.4 Y20 Z0.3 F1500.0 E30 ; Draw the second line
G92 E0 ; Reset Extruder
G1 Z2.0 F3000 ; Move Z Axis up little to prevent scratching of Heat Bed
G1 X5 Y20 Z0.3 F5000.0 ; Move over to prevent blob squish
G92 E0
G92 E0
G1 F2700 E-5
;LAYER_COUNT:95
;LAYER:0
M107
G0 F6000 X36.951 Y53.743 Z0.2
;TYPE:SKIRT
G1 F2700 E0
G1 F1200 X37.737 Y53.231 E0.0312
G1 X38.564 Y52.789 E0.06239
G1 X39.426 Y52.419 E0.09359
G1 X40.316 Y52.123 E0.12478
G1 X41.228 Y51.905 E0.15597
G1 X42.155 Y51.764 E0.18716
G1 X43.026 Y51.705 E0.21619
G1 X43.347 Y51.696 E0.22687
G1 X43.655 Y51.692 E0.23712
G1 X175.968 Y51.692 E4.63787
G1 X176.824 Y51.703 E4.66634
G1 X177.76 Y51.757 E4.69752
G1 X178.688 Y51.889 E4.7287
G1 X179.602 Y52.101 E4.75991
G1 X180.494 Y52.39 E4.79109
G1 X181.359 Y52.753 E4.82229
G1 X182.189 Y53.189 E4.85348
G1 X182.98 Y53.694 E4.88469
G1 X183.724 Y54.265 E4.91588
G1 X184.417 Y54.897 E4.94708
G1 X185.054 Y55.585 E4.97826
G1 X185.629 Y56.326 E5.00946
G1 X186.14 Y57.112 E5.04064
G1 X186.582 Y57.94 E5.07186
G1 X186.951 Y58.802 E5.10304
G1 X187.246 Y59.692 E5.13423
G1 X187.464 Y60.604 E5.16542
G1 X187.604 Y61.532 E5.19663
G1 X187.662 Y62.393 E5.22533
G1 X187.671 Y62.713 E5.23598
G1 X187.675 Y63.022 E5.24626
G1 X187.674 Y156.708 E8.36227
G1 X187.665 Y157.435 E8.38645
G1 X187.614 Y158.372 E8.41766
G1 X187.482 Y159.3 E8.44884
G1 X187.273 Y160.214 E8.48002
G1 X186.986 Y161.107 E8.51122
G1 X186.624 Y161.973 E8.54244
G1 X186.19 Y162.804 E8.57362
G1 X185.686 Y163.595 E8.60482
G1 X185.117 Y164.34 E8.63599
G1 X184.486 Y165.035 E8.66722
G1 X183.799 Y165.673 E8.6984
G1 X183.06 Y166.25 E8.72958
G1 X182.274 Y166.762 E8.76078
G1 X181.448 Y167.205 E8.79196
G1 X180.586 Y167.577 E8.82318
G1 X179.697 Y167.873 E8.85435
G1 X178.785 Y168.093 E8.88555
G1 X177.858 Y168.234 E8.91674
G1 X176.974 Y168.295 E8.94621
G1 X176.653 Y168.304 E8.95689
G1 X176.345 Y168.308 E8.96714
G1 X43.89 Y168.307 E13.37261
G1 X43.192 Y168.298 E13.39582
G1 X42.256 Y168.246 E13.427
G1 X41.327 Y168.114 E13.45821
G1 X40.413 Y167.904 E13.48941
G1 X39.52 Y167.617 E13.5206
G1 X38.655 Y167.254 E13.5518
G1 X37.824 Y166.82 E13.58298
G1 X37.033 Y166.316 E13.61418
G1 X36.288 Y165.746 E13.64538
G1 X35.594 Y165.115 E13.67658
G1 X34.957 Y164.428 E13.70774
G1 X34.38 Y163.688 E13.73895
G1 X33.868 Y162.902 E13.77015
G1 X33.425 Y162.075 E13.80135
G1 X33.054 Y161.214 E13.83253
G1 X32.758 Y160.324 E13.86373
G1 X32.539 Y159.412 E13.89493
G1 X32.398 Y158.485 E13.92611
G1 X32.338 Y157.596 E13.95575
G1 X32.329 Y157.263 E13.96683
G1 X32.325 Y156.966 E13.97671
G1 X32.326 Y63.217 E17.09481
G1 X32.335 Y62.552 E17.11693
G1 X32.388 Y61.616 E17.14811
G1 X32.52 Y60.687 E17.17932
G1 X32.731 Y59.773 E17.21052
G1 X33.019 Y58.881 E17.2417
G1 X33.382 Y58.016 E17.2729
G1 X33.817 Y57.185 E17.30409
G1 X34.321 Y56.395 E17.33526
G1 X34.891 Y55.65 E17.36646
G1 X35.523 Y54.956 E17.39768
G1 X36.211 Y54.319 E17.42887
G1 X36.951 Y53.743 E17.46006
G0 F6000 X37.335 Y53.962
G1 F1200 X38.116 Y53.474 E17.49069
G1 X38.936 Y53.056 E17.5213
G1 X39.79 Y52.711 E17.55193
G1 X40.67 Y52.441 E17.58255
G1 X41.57 Y52.249 E17.61316
G1 X42.484 Y52.135 E17.64379
G1 X43.037 Y52.105 E17.66221
G1 X43.358 Y52.096 E17.67289
G1 X43.655 Y52.092 E17.68277
G1 X175.968 Y52.092 E22.08352
G1 X176.818 Y52.103 E22.11179
G1 X177.737 Y52.156 E22.14241
G1 X178.648 Y52.289 E22.17303
G1 X179.544 Y52.5 E22.20365
G1 X180.418 Y52.788 E22.23425
G1 X181.265 Y53.151 E22.2649
G1 X182.076 Y53.586 E22.29551
G1 X182.846 Y54.09 E22.32612
G1 X183.57 Y54.659 E22.35675
G1 X184.242 Y55.289 E22.38738
G1 X184.857 Y55.974 E22.418
G1 X185.41 Y56.71 E22.44862
G1 X185.897 Y57.491 E22.47923
G1 X186.314 Y58.312 E22.50986
G1 X186.659 Y59.166 E22.5405
G1 X186.928 Y60.046 E22.5711
G1 X187.12 Y60.947 E22.60174
G1 X187.233 Y61.86 E22.63234
G1 X187.262 Y62.404 E22.65046
G1 X187.271 Y62.724 E22.66111
G1 X187.275 Y63.022 E22.67102
G1 X187.274 Y156.703 E25.78686
G1 X187.265 Y157.43 E25.81104
G1 X187.214 Y158.349 E25.84166
G1 X187.083 Y159.261 E25.8723
G1 X186.873 Y160.157 E25.90291
G1 X186.587 Y161.032 E25.93353
G1 X186.226 Y161.879 E25.96415
G1 X185.792 Y162.691 E25.99477
G1 X185.29 Y163.463 E26.0254
G1 X184.722 Y164.188 E26.05604
G1 X184.094 Y164.861 E26.08665
G1 X183.41 Y165.477 E26.11727
G1 X182.675 Y166.031 E26.14788
G1 X181.895 Y166.52 E26.1785
G1 X181.075 Y166.939 E26.20913
G1 X180.222 Y167.285 E26.23974
G1 X179.342 Y167.556 E26.27037
G1 X178.442 Y167.749 E26.30098
G1 X177.528 Y167.864 E26.33162
G1 X176.963 Y167.895 E26.35044
G1 X176.642 Y167.904 E26.36112
G1 X176.345 Y167.908 E26.371
G1 X43.895 Y167.907 E30.77631
G1 X43.197 Y167.898 E30.79952
G1 X42.278 Y167.846 E30.83014
G1 X41.367 Y167.715 E30.86075
G1 X40.471 Y167.505 E30.89136
G1 X39.596 Y167.218 E30.92199
G1 X38.749 Y166.856 E30.95262
G1 X37.937 Y166.422 E30.98325
G1 X37.166 Y165.92 E31.01385
G1 X36.441 Y165.352 E31.04448
G1 X35.768 Y164.723 E31.07512
G1 X35.153 Y164.039 E31.10571
G1 X34.599 Y163.304 E31.13632
G1 X34.111 Y162.523 E31.16696
G1 X33.692 Y161.703 E31.19758
G1 X33.346 Y160.85 E31.2282
G1 X33.076 Y159.97 E31.25881
G1 X32.883 Y159.069 E31.28946
G1 X32.769 Y158.156 E31.32006
G1 X32.738 Y157.585 E31.33908
G1 X32.729 Y157.252 E31.35016
G1 X32.725 Y156.966 E31.35968
G1 X32.726 Y63.223 E34.47758
G1 X32.735 Y62.558 E34.4997
G1 X32.787 Y61.638 E34.53035
G1 X32.919 Y60.727 E34.56097
G1 X33.13 Y59.831 E34.59158
G1 X33.417 Y58.956 E34.62221
G1 X33.78 Y58.11 E34.65283
G1 X34.214 Y57.298 E34.68345
G1 X34.717 Y56.527 E34.71407
G1 X35.286 Y55.803 E34.7447
G1 X35.914 Y55.131 E34.77529
G1 X36.599 Y54.515 E34.80593
G1 X37.335 Y53.962 E34.83655
G0 F6000 X37.719 Y54.186
G1 F1200 X38.494 Y53.723 E34.86657
G1 X39.307 Y53.33 E34.89661
G1 X40.152 Y53.01 E34.92666
G1 X41.021 Y52.767 E34.95667
G1 X41.909 Y52.601 E34.98672
G1 X43.048 Y52.505 E35.02474
G1 X43.369 Y52.496 E35.03542
G1 X43.655 Y52.492 E35.04493
G1 X175.968 Y52.492 E39.44568
G1 X176.812 Y52.503 E39.47375
G1 X177.714 Y52.556 E39.50381
G1 X178.607 Y52.688 E39.53383
G1 X179.485 Y52.899 E39.56386
G1 X180.341 Y53.187 E39.5939
G1 X181.168 Y53.549 E39.62393
G1 X181.96 Y53.984 E39.65398
G1 X182.711 Y54.486 E39.68403
G1 X183.414 Y55.053 E39.71407
G1 X184.064 Y55.68 E39.7441
G1 X184.656 Y56.362 E39.77414
G1 X185.186 Y57.093 E39.80417
G1 X185.648 Y57.869 E39.83421
G1 X186.041 Y58.682 E39.86424
G1 X186.359 Y59.527 E39.89427
G1 X186.602 Y60.397 E39.92432
G1 X186.767 Y61.285 E39.95436
G1 X186.862 Y62.415 E39.99207
G1 X186.871 Y62.735 E40.00272
G1 X186.875 Y63.022 E40.01227
G1 X186.874 Y156.698 E43.12795
G1 X186.865 Y157.425 E43.15213
G1 X186.814 Y158.327 E43.18218
G1 X186.683 Y159.221 E43.21223
G1 X186.474 Y160.099 E43.24225
G1 X186.188 Y160.956 E43.2723
G1 X185.827 Y161.784 E43.30234
G1 X185.395 Y162.576 E43.33234
G1 X184.894 Y163.328 E43.3624
G1 X184.328 Y164.032 E43.39244
G1 X183.703 Y164.683 E43.42246
G1 X183.022 Y165.277 E43.45251
G1 X182.291 Y165.808 E43.48257
G1 X181.517 Y166.272 E43.51258
G1 X180.704 Y166.666 E43.54263
G1 X179.86 Y166.986 E43.57265
G1 X178.99 Y167.231 E43.60271
G1 X178.103 Y167.397 E43.63273
G1 X176.952 Y167.495 E43.67115
G1 X176.631 Y167.504 E43.68183
G1 X176.345 Y167.508 E43.69134
G1 X43.9 Y167.507 E48.09648
G1 X43.202 Y167.498 E48.1197
G1 X42.301 Y167.447 E48.14971
G1 X41.407 Y167.315 E48.17977
G1 X40.529 Y167.106 E48.20979
G1 X39.672 Y166.819 E48.23985
G1 X38.845 Y166.458 E48.26986
G1 X38.052 Y166.025 E48.29991
G1 X37.301 Y165.524 E48.32994
G1 X36.597 Y164.958 E48.35998
G1 X35.946 Y164.332 E48.39002
G1 X35.353 Y163.651 E48.42005
G1 X34.823 Y162.92 E48.45009
G1 X34.359 Y162.145 E48.48013
G1 X33.965 Y161.332 E48.51018
G1 X33.645 Y160.488 E48.5402
G1 X33.401 Y159.618 E48.57025
G1 X33.235 Y158.73 E48.6003
G1 X33.138 Y157.575 E48.63885
G1 X33.129 Y157.242 E48.64993
G1 X33.125 Y156.966 E48.65911
G1 X33.126 Y63.228 E51.77685
G1 X33.135 Y62.563 E51.79897
G1 X33.187 Y61.661 E51.82902
G1 X33.319 Y60.768 E51.85904
G1 X33.529 Y59.89 E51.88907
G1 X33.816 Y59.033 E51.91913
G1 X34.178 Y58.206 E51.94915
G1 X34.611 Y57.414 E51.97918
G1 X35.113 Y56.663 E52.00922
G1 X35.68 Y55.959 E52.03929
G1 X36.306 Y55.309 E52.0693
G1 X36.987 Y54.716 E52.09933
G1 X37.719 Y54.186 E52.12939
G1 F2700 E47.12939
;MESH:AA Spacer Blk v2.stl
G0 F6000 X44.135 Y62.027
G0 X44.135 Y63.502
G0 X44.107 Y156.526
G0 X176.075 Y156.708
;TYPE:WALL-INNER
G1 F2700 E52.12939
G1 F1200 X43.925 Y156.708 E56.52472
G1 X43.925 Y63.292 E59.63175
G1 X176.075 Y63.292 E64.02708
G1 X176.075 Y156.708 E67.1341
G0 F6000 X176.475 Y157.108
;TYPE:WALL-OUTER
G1 F1200 X43.525 Y157.108 E71.55604
G1 X43.525 Y62.892 E74.68968
G1 X176.475 Y62.892 E79.11161
G1 X176.475 Y157.108 E82.24525
G0 F6000 X176.205 Y156.838
G0 X175.965 Y156.318
G0 X175.685 Y156.318
;TYPE:SKIN
G1 F1200 X44.315 Y156.318 E86.61463
G1 X44.315 Y63.682 E89.69572
G1 X175.685 Y63.682 E94.0651
G1 X175.685 Y156.318 E97.14619
G1 F2700 E92.14619
G0 F6000 X175.965 Y156.318
G0 X175.965 Y64.084
G1 F2700 E97.14619
G0 F6000 X175.524 Y64.084
G1 F1200 X175.282 Y63.842 E97.15757
G0 F6000 X174.716 Y63.842
G1 F1200 X175.524 Y64.65 E97.19558
G0 F6000 X175.524 Y65.215
G1 F1200 X174.151 Y63.842 E97.26016
G0 F6000 X173.585 Y63.842
G1 F1200 X175.524 Y65.781 E97.35136
G0 F6000 X175.524 Y66.347
G1 F1200 X173.019 Y63.842 E97.46919
G0 F6000 X172.454 Y63.842
G1 F1200 X175.524 Y66.912 E97.61359
G0 F6000 X175.524 Y67.478
G1 F1200 X171.888 Y63.842 E97.78462
G0 F6000 X171.322 Y63.842
G1 F1200 X175.524 Y68.044 E97.98227
G0 F6000 X175.524 Y68.609
G1 F1200 X170.757 Y63.842 E98.20649
G0 F6000 X170.191 Y63.842
G1 F1200 X175.524 Y69.175 E98.45734
G0 F6000 X175.524 Y69.741
G1 F1200 X169.625 Y63.842 E98.73481
G0 F6000 X169.06 Y63.842
G1 F1200 X175.524 Y70.306 E99.03886
G0 F6000 X175.524 Y70.872
G1 F1200 X168.494 Y63.842 E99.36953
G0 F6000 X167.928 Y63.842
G1 F1200 X175.524 Y71.438 E99.72682
G0 F6000 X175.524 Y72.003
G1 F1200 X167.362 Y63.842 E100.11071
G0 F6000 X166.797 Y63.842
G1 F1200 X175.524 Y72.569 E100.5212
G0 F6000 X175.524 Y73.135
G1 F1200 X166.231 Y63.842 E100.95832
G0 F6000 X165.665 Y63.842
G1 F1200 X175.524 Y73.701 E101.42206
G0 F6000 X175.524 Y74.266
G1 F1200 X165.1 Y63.842 E101.91237
G0 F6000 X164.534 Y63.842
G1 F1200 X175.524 Y74.832 E102.42931
G0 F6000 X175.524 Y75.398
G1 F1200 X163.968 Y63.842 E102.97286
G0 F6000 X163.403 Y63.842
G1 F1200 X175.524 Y75.963 E103.543
G0 F6000 X175.524 Y76.529
G1 F1200 X162.837 Y63.842 E104.13976
G0 F6000 X162.271 Y63.842
G1 F1200 X175.524 Y77.095 E104.76314
G0 F6000 X175.524 Y77.66
G1 F1200 X161.706 Y63.842 E105.41309
G0 F6000 X161.14 Y63.842
G1 F1200 X175.524 Y78.226 E106.08967
G0 F6000 X175.524 Y78.792
G1 F1200 X160.574 Y63.842 E106.79287
G0 F6000 X160.009 Y63.842
G1 F1200 X175.524 Y79.357 E107.52265
G0 F6000 X175.524 Y79.923
G1 F1200 X159.443 Y63.842 E108.27905
G0 F6000 X158.877 Y63.842
G1 F1200 X175.524 Y80.489 E109.06208
G0 F6000 X175.524 Y81.054
G1 F1200 X158.312 Y63.842 E109.87168
G0 F6000 X157.746 Y63.842
G1 F1200 X175.524 Y81.62 E110.7079
G0 F6000 X175.524 Y82.186
G1 F1200 X157.18 Y63.842 E111.57075
G0 F6000 X156.614 Y63.842
G1 F1200 X175.524 Y82.751 E112.46019
G0 F6000 X175.524 Y83.317
G1 F1200 X156.049 Y63.842 E113.37623
G0 F6000 X155.483 Y63.842
G1 F1200 X175.524 Y83.883 E114.3189
G0 F6000 X175.524 Y84.449
G1 F1200 X154.917 Y63.842 E115.28819
G0 F6000 X154.352 Y63.842
G1 F1200 X175.524 Y85.014 E116.28406
G0 F6000 X175.524 Y85.58
G1 F1200 X153.786 Y63.842 E117.30655
G0 F6000 X153.22 Y63.842
G1 F1200 X175.524 Y86.146 E118.35566
G0 F6000 X175.524 Y86.711
G1 F1200 X152.655 Y63.842 E119.43135
G0 F6000 X152.089 Y63.842
G1 F1200 X175.524 Y87.277 E120.53366
G0 F6000 X175.524 Y87.843
G1 F1200 X151.523 Y63.842 E121.66259
G0 F6000 X150.958 Y63.842
G1 F1200 X175.524 Y88.408 E122.8181
G0 F6000 X175.524 Y88.974
G1 F1200 X150.392 Y63.842 E124.00023
G0 F6000 X149.826 Y63.842
G1 F1200 X175.524 Y89.54 E125.20899
G0 F6000 X175.524 Y90.105
G1 F1200 X149.261 Y63.842 E126.44432
G0 F6000 X148.695 Y63.842
G1 F1200 X175.524 Y90.671 E127.70627
G0 F6000 X175.524 Y91.237
G1 F1200 X148.129 Y63.842 E128.99485
G0 F6000 X147.563 Y63.842
G1 F1200 X175.524 Y91.802 E130.31002
G0 F6000 X175.524 Y92.368
G1 F1200 X146.998 Y63.842 E131.6518
G0 F6000 X146.432 Y63.842
G1 F1200 X175.524 Y92.934 E133.0202
G0 F6000 X175.524 Y93.5
G1 F1200 X145.866 Y63.842 E134.41522
G0 F6000 X145.301 Y63.842
G1 F1200 X175.524 Y94.065 E135.83682
G0 F6000 X175.524 Y94.631
G1 F1200 X144.735 Y63.842 E137.28504
G0 F6000 X144.169 Y63.842
G1 F1200 X175.524 Y95.197 E138.75988
G0 F6000 X175.524 Y95.762
G1 F1200 X143.604 Y63.842 E140.2613
G0 F6000 X143.038 Y63.842
G1 F1200 X175.524 Y96.328 E141.78934
G0 F6000 X175.524 Y96.894
G1 F1200 X142.472 Y63.842 E143.34401
G0 F6000 X141.907 Y63.842
G1 F1200 X175.524 Y97.459 E144.92525
G0 F6000 X175.524 Y98.025
G1 F1200 X141.341 Y63.842 E146.53311
G0 F6000 X140.775 Y63.842
G1 F1200 X175.524 Y98.591 E148.1676
G0 F6000 X175.524 Y99.156
G1 F1200 X140.21 Y63.842 E149.82866
G0 F6000 X139.644 Y63.842
G1 F1200 X175.524 Y99.722 E151.51634
G0 F6000 X175.524 Y100.288
G1 F1200 X139.078 Y63.842 E153.23065
G0 F6000 X138.513 Y63.842
G1 F1200 X175.524 Y100.853 E154.97154
G0 F6000 X175.524 Y101.419
G1 F1200 X137.947 Y63.842 E156.73904
G0 F6000 X137.381 Y63.842
G1 F1200 X175.524 Y101.985 E158.53317
G0 F6000 X175.524 Y102.55
G1 F1200 X136.815 Y63.842 E160.3539
G0 F6000 X136.25 Y63.842
G1 F1200 X175.524 Y103.116 E162.20123
G0 F6000 X175.524 Y103.682
G1 F1200 X135.684 Y63.842 E164.07518
G0 F6000 X135.118 Y63.842
G1 F1200 X175.524 Y104.248 E165.97576
G0 F6000 X175.524 Y104.813
G1 F1200 X134.553 Y63.842 E167.90291
G0 F6000 X133.987 Y63.842
G1 F1200 X175.524 Y105.379 E169.85668
G0 F6000 X175.524 Y105.945
G1 F1200 X133.421 Y63.842 E171.83708
G0 F6000 X132.856 Y63.842
G1 F1200 X175.524 Y106.51 E173.84405
G0 F6000 X175.524 Y107.076
G1 F1200 X132.29 Y63.842 E175.87764
G0 F6000 X131.724 Y63.842
G1 F1200 X175.524 Y107.642 E177.93786
G0 F6000 X175.524 Y108.207
G1 F1200 X131.159 Y63.842 E180.02465
G0 F6000 X130.593 Y63.842
G1 F1200 X175.524 Y108.773 E182.13807
G0 F6000 X175.524 Y109.339
G1 F1200 X130.027 Y63.842 E184.27811
G0 F6000 X129.462 Y63.842
G1 F1200 X175.524 Y109.904 E186.44472
G0 F6000 X175.524 Y110.47
G1 F1200 X128.896 Y63.842 E188.63796
G0 F6000 X128.33 Y63.842
G1 F1200 X175.524 Y111.036 E190.85782
G0 F6000 X175.524 Y111.601
G1 F1200 X127.765 Y63.842 E193.10426
G0 F6000 X127.199 Y63.842
G1 F1200 X175.524 Y112.167 E195.37732
G0 F6000 X175.524 Y112.733
G1 F1200 X126.633 Y63.842 E197.677
G0 F6000 X126.067 Y63.842
G1 F1200 X175.524 Y113.299 E200.00331
G0 F6000 X175.524 Y113.864
G1 F1200 X125.502 Y63.842 E202.35619
G0 F6000 X124.936 Y63.842
G1 F1200 X175.524 Y114.43 E204.7357
G0 F6000 X175.524 Y114.996
G1 F1200 X124.37 Y63.842 E207.14182
G0 F6000 X123.805 Y63.842
G1 F1200 X175.524 Y115.561 E209.57453
G0 F6000 X175.524 Y116.127
G1 F1200 X123.239 Y63.842 E212.03385
G0 F6000 X122.673 Y63.842
G1 F1200 X175.524 Y116.693 E214.5198
G0 F6000 X175.524 Y117.258
G1 F1200 X122.108 Y63.842 E217.03233
G0 F6000 X121.542 Y63.842
G1 F1200 X175.524 Y117.824 E219.57147
G0 F6000 X175.524 Y118.39
G1 F1200 X120.976 Y63.842 E222.13724
G0 F6000 X120.411 Y63.842
G1 F1200 X175.524 Y118.955 E224.72959
G0 F6000 X175.524 Y119.521
G1 F1200 X119.845 Y63.842 E227.34856
G0 F6000 X119.279 Y63.842
G1 F1200 X175.524 Y120.087 E229.99415
G0 F6000 X175.524 Y120.652
G1 F1200 X118.714 Y63.842 E232.66632
G0 F6000 X118.148 Y63.842
G1 F1200 X175.524 Y121.218 E235.36511
G0 F6000 X175.524 Y121.784
G1 F1200 X117.582 Y63.842 E238.09053
G0 F6000 X117.016 Y63.842
G1 F1200 X175.524 Y122.349 E240.84254
G0 F6000 X175.524 Y122.915
