;FLAVOR:Marlin
;TIME:96109
;Filament used: 75.264m
;Layer height: 0.2
;MINX:32.325
;MINY:62.487
;MINZ:0.2
;MAXX:187.675
;MAXY:157.513
;MAXZ:19
;Generated with Cura_SteamEngine 4.11.0
M140 S50
M105
M190 S50
M104 S200
M105
M109 S200
M82 ;absolute extrusion mode
; Ender 3 Custom Start G-code
G92 E0 ; Reset Extruder
G28 ; Home all axes
G29 ; Auto bed-level (BL-Touch)
G1 Z2.0 F3000 ; Move Z Axis up little to prevent scratching of Heat Bed
G1 X0.1 Y20 Z0.3 F5000.0 ; Move to start position
G1 X0.1 Y200.0 Z0.3 F1500.0 E15 ; Draw the first line
G1 X0.4 Y200.0 Z0.3 F5000.0 ; Move to side a little
G1 X0.4 Y20 Z0.3 F1500.0 E30 ; Draw the second line
G92 E0 ; Reset Extruder
G1 Z2.0 F3000 ; Move Z Axis up little to prevent scratching of Heat Bed
G1 X5 Y20 Z0.3 F5000.0 ; Move over to prevent blob squish
G92 E0
G92 E0
G1 F2700 E-5
;LAYER_COUNT:95
;LAYER:0
M107
G0 F6000 X37.737 Y64.026 Z0.2
;TYPE:SKIRT
G1 F2700 E0
G1 F1200 X38.564 Y63.584 E0.03119
G1 X39.426 Y63.214 E0.06239
G1 X40.316 Y62.918 E0.09358
G1 X41.228 Y62.7 E0.12477
G1 X42.155 Y62.559 E0.15596
G1 X43.026 Y62.5 E0.18499
G1 X43.347 Y62.491 E0.19567
G1 X43.655 Y62.487 E0.20592
G1 X175.968 Y62.487 E4.60667
G1 X176.824 Y62.498 E4.63514
G1 X177.76 Y62.552 E4.66632
G1 X178.688 Y62.684 E4.6975
G1 X179.602 Y62.896 E4.72871
G1 X180.494 Y63.185 E4.75989
G1 X181.359 Y63.548 E4.79109
G1 X182.189 Y63.984 E4.82228
G1 X182.98 Y64.489 E4.85349
G1 X183.724 Y65.06 E4.88468
G1 X184.417 Y65.692 E4.91588
G1 X185.054 Y66.38 E4.94706
G1 X185.629 Y67.121 E4.97826
G1 X186.14 Y67.907 E5.00944
G1 X186.582 Y68.735 E5.04066
G1 X186.951 Y69.597 E5.07185
G1 X187.246 Y70.487 E5.10303
G1 X187.464 Y71.399 E5.13422
G1 X187.604 Y72.327 E5.16543
G1 X187.662 Y73.188 E5.19413
G1 X187.671 Y73.508 E5.20478
G1 X187.675 Y73.817 E5.21506
G1 X187.674 Y145.913 E7.61298
G1 X187.665 Y146.64 E7.63717
G1 X187.614 Y147.577 E7.66838
G1 X187.482 Y148.505 E7.69955
G1 X187.273 Y149.419 E7.73074
G1 X186.986 Y150.312 E7.76193
G1 X186.624 Y151.178 E7.79315
G1 X186.19 Y152.009 E7.82433
G1 X185.686 Y152.8 E7.85553
G1 X185.117 Y153.545 E7.88671
G1 X184.486 Y154.24 E7.91793
G1 X183.799 Y154.878 E7.94911
G1 X183.06 Y155.455 E7.9803
G1 X182.274 Y155.967 E8.0115
G1 X181.448 Y156.41 E8.04267
G1 X180.586 Y156.782 E8.0739
G1 X179.697 Y157.078 E8.10506
G1 X178.785 Y157.298 E8.13627
G1 X177.858 Y157.439 E8.16745
G1 X176.974 Y157.5 E8.19692
G1 X176.653 Y157.509 E8.20761
G1 X176.345 Y157.513 E8.21785
G1 X43.89 Y157.512 E12.62332
G1 X43.192 Y157.503 E12.64654
G1 X42.256 Y157.451 E12.67772
G1 X41.327 Y157.319 E12.70893
G1 X40.413 Y157.109 E12.74012
G1 X39.52 Y156.822 E12.77132
G1 X38.655 Y156.459 E12.80252
G1 X37.824 Y156.025 E12.8337
G1 X37.033 Y155.521 E12.86489
G1 X36.288 Y154.951 E12.89609
G1 X35.594 Y154.32 E12.92729
G1 X34.957 Y153.633 E12.95845
G1 X34.38 Y152.893 E12.98966
G1 X33.868 Y152.107 E13.02086
G1 X33.425 Y151.28 E13.05207
G1 X33.054 Y150.419 E13.08325
G1 X32.758 Y149.529 E13.11444
G1 X32.539 Y148.617 E13.14564
G1 X32.398 Y147.69 E13.17683
G1 X32.338 Y146.801 E13.20646
G1 X32.329 Y146.468 E13.21754
G1 X32.325 Y146.171 E13.22742
G1 X32.326 Y74.012 E15.62744
G1 X32.335 Y73.347 E15.64956
G1 X32.388 Y72.411 E15.68074
G1 X32.52 Y71.482 E15.71195
G1 X32.731 Y70.568 E15.74315
G1 X33.019 Y69.676 E15.77432
G1 X33.382 Y68.811 E15.80552
G1 X33.817 Y67.98 E15.83672
G1 X34.321 Y67.19 E15.86789
G1 X34.891 Y66.445 E15.89909
G1 X35.523 Y65.751 E15.93031
G1 X36.211 Y65.114 E15.96149
G1 X36.951 Y64.538 E15.99268
G1 X37.737 Y64.026 E16.02388
G0 F6000 X38.116 Y64.269
G1 F1200 X38.936 Y63.851 E16.05449
G1 X39.79 Y63.506 E16.08513
G1 X40.67 Y63.236 E16.11574
G1 X41.57 Y63.044 E16.14635
G1 X42.484 Y62.93 E16.17699
G1 X43.037 Y62.9 E16.19541
G1 X43.358 Y62.891 E16.20609
G1 X43.655 Y62.887 E16.21597
G1 X175.968 Y62.887 E20.61672
G1 X176.818 Y62.898 E20.64499
G1 X177.737 Y62.951 E20.67561
G1 X178.648 Y63.084 E20.70623
G1 X179.544 Y63.295 E20.73684
G1 X180.418 Y63.583 E20.76745
G1 X181.265 Y63.946 E20.7981
G1 X182.076 Y64.381 E20.82871
G1 X182.846 Y64.885 E20.85932
G1 X183.57 Y65.454 E20.88994
G1 X184.242 Y66.084 E20.92058
G1 X184.857 Y66.769 E20.9512
G1 X185.41 Y67.505 E20.98182
G1 X185.897 Y68.286 E21.01243
G1 X186.314 Y69.107 E21.04306
G1 X186.659 Y69.961 E21.07369
G1 X186.928 Y70.841 E21.1043
G1 X187.12 Y71.742 E21.13494
G1 X187.233 Y72.655 E21.16554
G1 X187.262 Y73.199 E21.18366
G1 X187.271 Y73.519 E21.1943
G1 X187.275 Y73.817 E21.20422
G1 X187.274 Y145.908 E23.60197
G1 X187.265 Y146.635 E23.62616
G1 X187.214 Y147.554 E23.65677
G1 X187.083 Y148.466 E23.68741
G1 X186.873 Y149.362 E23.71802
G1 X186.587 Y150.237 E23.74864
G1 X186.226 Y151.084 E23.77926
G1 X185.792 Y151.896 E23.80989
G1 X185.29 Y152.668 E23.84051
G1 X184.722 Y153.393 E23.87115
G1 X184.094 Y154.066 E23.90176
G1 X183.41 Y154.682 E23.93238
G1 X182.675 Y155.236 E23.96299
G1 X181.895 Y155.725 E23.99361
G1 X181.075 Y156.144 E24.02424
G1 X180.222 Y156.49 E24.05485
G1 X179.342 Y156.761 E24.08548
G1 X178.442 Y156.954 E24.11609
G1 X177.528 Y157.069 E24.14673
G1 X176.963 Y157.1 E24.16555
G1 X176.642 Y157.109 E24.17623
G1 X176.345 Y157.113 E24.18611
G1 X43.895 Y157.112 E28.59142
G1 X43.197 Y157.103 E28.61464
G1 X42.278 Y157.051 E28.64525
G1 X41.367 Y156.92 E28.67586
G1 X40.471 Y156.71 E28.70647
G1 X39.596 Y156.423 E28.7371
G1 X38.749 Y156.061 E28.76774
G1 X37.937 Y155.627 E28.79836
G1 X37.166 Y155.125 E28.82896
G1 X36.441 Y154.557 E28.85959
G1 X35.768 Y153.928 E28.89023
G1 X35.153 Y153.244 E28.92082
G1 X34.599 Y152.509 E28.95144
G1 X34.111 Y151.728 E28.98207
G1 X33.692 Y150.908 E29.01269
G1 X33.346 Y150.055 E29.04331
G1 X33.076 Y149.175 E29.07393
G1 X32.883 Y148.274 E29.10457
G1 X32.769 Y147.361 E29.13517
G1 X32.738 Y146.79 E29.15419
G1 X32.729 Y146.457 E29.16527
G1 X32.725 Y146.171 E29.17479
G1 X32.726 Y74.018 E31.57461
G1 X32.735 Y73.353 E31.59673
G1 X32.787 Y72.433 E31.62737
G1 X32.919 Y71.522 E31.65799
G1 X33.13 Y70.626 E31.68861
G1 X33.417 Y69.751 E31.71923
G1 X33.78 Y68.905 E31.74985
G1 X34.214 Y68.093 E31.78048
G1 X34.717 Y67.322 E31.81109
G1 X35.286 Y66.598 E31.84172
G1 X35.914 Y65.926 E31.87231
G1 X36.599 Y65.31 E31.90295
G1 X37.335 Y64.757 E31.93357
G1 X38.116 Y64.269 E31.9642
G0 F6000 X38.494 Y64.518
G1 F1200 X39.307 Y64.125 E31.99424
G1 X40.152 Y63.805 E32.02429
G1 X41.021 Y63.562 E32.0543
G1 X41.909 Y63.396 E32.08435
G1 X43.048 Y63.3 E32.12237
G1 X43.369 Y63.291 E32.13305
G1 X43.655 Y63.287 E32.14256
G1 X175.968 Y63.287 E36.54331
G1 X176.812 Y63.298 E36.57138
G1 X177.714 Y63.351 E36.60143
G1 X178.607 Y63.483 E36.63146
G1 X179.485 Y63.694 E36.66149
G1 X180.341 Y63.982 E36.69153
G1 X181.168 Y64.344 E36.72156
G1 X181.96 Y64.779 E36.75161
G1 X182.711 Y65.281 E36.78166
G1 X183.414 Y65.848 E36.8117
G1 X184.064 Y66.475 E36.84173
G1 X184.656 Y67.157 E36.87177
G1 X185.186 Y67.888 E36.9018
G1 X185.648 Y68.664 E36.93184
G1 X186.041 Y69.477 E36.96187
G1 X186.359 Y70.322 E36.9919
G1 X186.602 Y71.192 E37.02195
G1 X186.767 Y72.08 E37.05199
G1 X186.862 Y73.21 E37.0897
G1 X186.871 Y73.53 E37.10035
G1 X186.875 Y73.817 E37.1099
G1 X186.874 Y145.903 E39.50749
G1 X186.865 Y146.63 E39.53167
G1 X186.814 Y147.532 E39.56172
G1 X186.683 Y148.426 E39.59177
G1 X186.474 Y149.304 E39.62179
G1 X186.188 Y150.161 E39.65184
G1 X185.827 Y150.989 E39.68188
G1 X185.395 Y151.781 E39.71189
G1 X184.894 Y152.533 E39.74194
G1 X184.328 Y153.237 E39.77198
G1 X183.703 Y153.888 E39.802
G1 X183.022 Y154.482 E39.83206
G1 X182.291 Y155.013 E39.86211
G1 X181.517 Y155.477 E39.89212
G1 X180.704 Y155.871 E39.92217
G1 X179.86 Y156.191 E39.95219
G1 X178.99 Y156.436 E39.98225
G1 X178.103 Y156.602 E40.01227
G1 X176.952 Y156.7 E40.05069
G1 X176.631 Y156.709 E40.06137
G1 X176.345 Y156.713 E40.07088
G1 X43.9 Y156.712 E44.47602
G1 X43.202 Y156.703 E44.49924
G1 X42.301 Y156.652 E44.52925
G1 X41.407 Y156.52 E44.55931
G1 X40.529 Y156.311 E44.58933
G1 X39.672 Y156.024 E44.61939
G1 X38.845 Y155.663 E44.6494
G1 X38.052 Y155.23 E44.67945
G1 X37.301 Y154.729 E44.70948
G1 X36.597 Y154.163 E44.73952
G1 X35.946 Y153.537 E44.76956
G1 X35.353 Y152.856 E44.7996
G1 X34.823 Y152.125 E44.82963
G1 X34.359 Y151.35 E44.85967
G1 X33.965 Y150.537 E44.88972
G1 X33.645 Y149.693 E44.91974
G1 X33.401 Y148.823 E44.94979
G1 X33.235 Y147.935 E44.97984
G1 X33.138 Y146.78 E45.01839
G1 X33.129 Y146.447 E45.02947
G1 X33.125 Y146.171 E45.03865
G1 X33.126 Y74.023 E47.4383
G1 X33.135 Y73.358 E47.46042
G1 X33.187 Y72.456 E47.49047
G1 X33.319 Y71.563 E47.5205
G1 X33.529 Y70.685 E47.55052
G1 X33.816 Y69.828 E47.58058
G1 X34.178 Y69.001 E47.61061
G1 X34.611 Y68.209 E47.64063
G1 X35.113 Y67.458 E47.67068
G1 X35.68 Y66.754 E47.70074
G1 X36.306 Y66.104 E47.73076
G1 X36.987 Y65.511 E47.76079
G1 X37.719 Y64.981 E47.79085
G1 X38.494 Y64.518 E47.82087
G1 F2700 E42.82087
;MESH:AA Spacer Blk v1.stl
G0 F6000 X44.135 Y72.822
G0 X44.135 Y74.297
G0 X44.107 Y145.731
G0 X176.075 Y145.913
;TYPE:WALL-INNER
G1 F2700 E47.82087
G1 F1200 X43.925 Y145.913 E52.2162
G1 X43.925 Y74.087 E54.60514
G1 X176.075 Y74.087 E59.00047
G1 X176.075 Y145.913 E61.38941
G0 F6000 X176.475 Y146.313
;TYPE:WALL-OUTER
G1 F1200 X43.525 Y146.313 E65.81135
G1 X43.525 Y73.687 E68.2269
G1 X176.475 Y73.687 E72.64883
G1 X176.475 Y146.313 E75.06438
G0 F6000 X176.205 Y146.043
G0 X175.965 Y145.523
G0 X175.685 Y145.523
;TYPE:SKIN
G1 F1200 X44.315 Y145.523 E79.43377
G1 X44.315 Y74.477 E81.79677
G1 X175.685 Y74.477 E86.16615
G1 X175.685 Y145.523 E88.52915
G1 F2700 E83.52915
G0 F6000 X175.965 Y145.523
G0 X175.965 Y74.832
G1 F2700 E88.52915
G0 F6000 X175.524 Y74.832
G1 F1200 X175.329 Y74.637 E88.53832
G0 F6000 X174.763 Y74.637
G1 F1200 X175.524 Y75.398 E88.57412
G0 F6000 X175.524 Y75.963
G1 F1200 X174.197 Y74.637 E88.63651
G0 F6000 X173.632 Y74.637
G1 F1200 X175.524 Y76.529 E88.72551
G0 F6000 X175.524 Y77.095
G1 F1200 X173.066 Y74.637 E88.84112
G0 F6000 X172.5 Y74.637
G1 F1200 X175.524 Y77.66 E88.98334
G0 F6000 X175.524 Y78.226
G1 F1200 X171.935 Y74.637 E89.15216
G0 F6000 X171.369 Y74.637
G1 F1200 X175.524 Y78.792 E89.34759
G0 F6000 X175.524 Y79.357
G1 F1200 X170.803 Y74.637 E89.56963
G0 F6000 X170.238 Y74.637
G1 F1200 X175.524 Y79.923 E89.81827
G0 F6000 X175.524 Y80.489
G1 F1200 X169.672 Y74.637 E90.09353
G0 F6000 X169.106 Y74.637
G1 F1200 X175.524 Y81.054 E90.39539
G0 F6000 X175.524 Y81.62
G1 F1200 X168.541 Y74.637 E90.72385
G0 F6000 X167.975 Y74.637
G1 F1200 X175.524 Y82.186 E91.07893
G0 F6000 X175.524 Y82.751
G1 F1200 X167.409 Y74.637 E91.46061
G0 F6000 X166.843 Y74.637
G1 F1200 X175.524 Y83.317 E91.86892
G0 F6000 X175.524 Y83.883
G1 F1200 X166.278 Y74.637 E92.30382
G0 F6000 X165.712 Y74.637
G1 F1200 X175.524 Y84.449 E92.76534
G0 F6000 X175.524 Y85.014
G1 F1200 X165.146 Y74.637 E93.25347
G0 F6000 X164.581 Y74.637
G1 F1200 X175.524 Y85.58 E93.7682
G0 F6000 X175.524 Y86.146
G1 F1200 X164.015 Y74.637 E94.30954
G0 F6000 X163.449 Y74.637
G1 F1200 X175.524 Y86.711 E94.87749
G0 F6000 X175.524 Y87.277
G1 F1200 X162.884 Y74.637 E95.47204
G0 F6000 X162.318 Y74.637
G1 F1200 X175.524 Y87.843 E96.09321
G0 F6000 X175.524 Y88.408
G1 F1200 X161.752 Y74.637 E96.74098
G0 F6000 X161.187 Y74.637
G1 F1200 X175.524 Y88.974 E97.41535
G0 F6000 X175.524 Y89.54
G1 F1200 X160.621 Y74.637 E98.11634
G0 F6000 X160.055 Y74.637
G1 F1200 X175.524 Y90.105 E98.84393
G0 F6000 X175.524 Y90.671
G1 F1200 X159.49 Y74.637 E99.59812
G0 F6000 X158.924 Y74.637
G1 F1200 X175.524 Y91.237 E100.37893
G0 F6000 X175.524 Y91.802
G1 F1200 X158.358 Y74.637 E101.18634
G0 F6000 X157.792 Y74.637
G1 F1200 X175.524 Y92.368 E102.02038
G0 F6000 X175.524 Y92.934
G1 F1200 X157.227 Y74.637 E102.88101
G0 F6000 X156.661 Y74.637
G1 F1200 X175.524 Y93.5 E103.76827
G0 F6000 X175.524 Y94.065
G1 F1200 X156.095 Y74.637 E104.68213
G0 F6000 X155.53 Y74.637
G1 F1200 X175.524 Y94.631 E105.62259
G0 F6000 X175.524 Y95.197
G1 F1200 X154.964 Y74.637 E106.58966
G0 F6000 X154.398 Y74.637
G1 F1200 X175.524 Y95.762 E107.58334
G0 F6000 X175.524 Y96.328
G1 F1200 X153.833 Y74.637 E108.60362
G0 F6000 X153.267 Y74.637
G1 F1200 X175.524 Y96.894 E109.65052
G0 F6000 X175.524 Y97.459
G1 F1200 X152.701 Y74.637 E110.72402
G0 F6000 X152.136 Y74.637
G1 F1200 X175.524 Y98.025 E111.82412
G0 F6000 X175.524 Y98.591
G1 F1200 X151.57 Y74.637 E112.95085
G0 F6000 X151.004 Y74.637
G1 F1200 X175.524 Y99.156 E114.10417
G0 F6000 X175.524 Y99.722
G1 F1200 X150.439 Y74.637 E115.28409
G0 F6000 X149.873 Y74.637
G1 F1200 X175.524 Y100.288 E116.49063
G0 F6000 X175.524 Y100.853
G1 F1200 X149.307 Y74.637 E117.72378
G0 F6000 X148.742 Y74.637
G1 F1200 X175.524 Y101.419 E118.98352
G0 F6000 X175.524 Y101.985
G1 F1200 X148.176 Y74.637 E120.26989
G0 F6000 X147.61 Y74.637
G1 F1200 X175.524 Y102.55 E121.58285
G0 F6000 X175.524 Y103.116
G1 F1200 X147.044 Y74.637 E122.92244
G0 F6000 X146.479 Y74.637
G1 F1200 X175.524 Y103.682 E124.28863
G0 F6000 X175.524 Y104.248
G1 F1200 X145.913 Y74.637 E125.68144
G0 F6000 X145.347 Y74.637
G1 F1200 X175.524 Y104.813 E127.10085
G0 F6000 X175.524 Y105.379
G1 F1200 X144.782 Y74.637 E128.54686
G0 F6000 X144.216 Y74.637
G1 F1200 X175.524 Y105.945 E130.01949
G0 F6000 X175.524 Y106.51
G1 F1200 X143.65 Y74.637 E131.51872
G0 F6000 X143.085 Y74.637
G1 F1200 X175.524 Y107.076 E133.04455
G0 F6000 X175.524 Y107.642
G1 F1200 X142.519 Y74.637 E134.59701
G0 F6000 X141.953 Y74.637
G1 F1200 X175.524 Y108.207 E136.17606
G0 F6000 X175.524 Y108.773
G1 F1200 X141.388 Y74.637 E137.78171
G0 F6000 X140.822 Y74.637
G1 F1200 X175.524 Y109.339 E139.41399
G0 F6000 X175.524 Y109.904
G1 F1200 X140.256 Y74.637 E141.07286
G0 F6000 X139.691 Y74.637
G1 F1200 X175.524 Y110.47 E142.75834
G0 F6000 X175.524 Y111.036
G1 F1200 X139.125 Y74.637 E144.47044
G0 F6000 X138.559 Y74.637
G1 F1200 X175.524 Y111.601 E146.20913
G0 F6000 X175.524 Y112.167
G1 F1200 X137.994 Y74.637 E147.97443
G0 F6000 X137.428 Y74.637
G1 F1200 X175.524 Y112.733 E149.76635
G0 F6000 X175.524 Y113.299
G1 F1200 X136.862 Y74.637 E151.58489
G0 F6000 X136.296 Y74.637
G1 F1200 X175.524 Y113.864 E153.43003
G0 F6000 X175.524 Y114.43
G1 F1200 X135.731 Y74.637 E155.30177
G0 F6000 X135.165 Y74.637
G1 F1200 X175.524 Y114.996 E157.20014
G0 F6000 X175.524 Y115.561
G1 F1200 X134.599 Y74.637 E159.1251
G0 F6000 X134.034 Y74.637
G1 F1200 X175.524 Y116.127 E161.07666
G0 F6000 X175.524 Y116.693
G1 F1200 X133.468 Y74.637 E163.05485
G0 F6000 X132.902 Y74.637
G1 F1200 X175.524 Y117.258 E165.05963
G0 F6000 X175.524 Y117.824
G1 F1200 X132.337 Y74.637 E167.09101
G0 F6000 X131.771 Y74.637
G1 F1200 X175.524 Y118.39 E169.14902
G0 F6000 X175.524 Y118.955
G1 F1200 X131.205 Y74.637 E171.23363
G0 F6000 X130.64 Y74.637
G1 F1200 X175.524 Y119.521 E173.34483
G0 F6000 X175.524 Y120.087
G1 F1200 X130.074 Y74.637 E175.48266
G0 F6000 X129.508 Y74.637
G1 F1200 X175.524 Y120.652 E177.64709
G0 F6000 X175.524 Y121.218
G1 F1200 X128.943 Y74.637 E179.83812
G0 F6000 X128.377 Y74.637
G1 F1200 X175.524 Y121.784 E182.05577
G0 F6000 X175.524 Y122.349
G1 F1200 X127.811 Y74.637 E184.30002
G0 F6000 X127.245 Y74.637
G1 F1200 X175.524 Y122.915 E186.57089
G0 F6000 X175.524 Y123.481
G1 F1200 X126.68 Y74.637 E188.86836
G0 F6000 X126.114 Y74.637
G1 F1200 X175.524 Y124.047 E191.19246
G0 F6000 X175.524 Y124.612
G1 F1200 X125.548 Y74.637 E193.54315
G0 F6000 X124.983 Y74.637
G1 F1200 X175.524 Y125.178 E195.92045
G0 F6000 X175.524 Y125.744
G1 F1200 X124.417 Y74.637 E198.32436
G0 F6000 X123.851 Y74.637
G1 F1200 X175.524 Y126.309 E200.75488
G0 F6000 X175.524 Y126.875
G1 F1200 X123.286 Y74.637 E203.21199
G0 F6000 X122.72 Y74.637
G1 F1200 X175.524 Y127.441 E205.69573
G0 F6000 X175.524 Y128.006
G1 F1200 X122.154 Y74.637 E208.20607
G0 F6000 X121.589 Y74.637
G1 F1200 X175.524 Y128.572 E210.74301
G0 F6000 X175.524 Y129.138
G1 F1200 X121.023 Y74.637 E213.30657
G0 F6000 X120.457 Y74.637
G1 F1200 X175.524 Y129.703 E215.89673
G0 F6000 X175.524 Y130.269
G1 F1200 X119.892 Y74.637 E218.51348
G0 F6000 X119.326 Y74.637
G1 F1200 X175.524 Y130.835 E221.15687
G0 F6000 X175.524 Y131.4
G1 F1200 X118.76 Y74.637 E223.82685
G0 F6000 X118.195 Y74.637
G1 F1200 X175.524 Y131.966 E226.52343
G0 F6000 X175.524 Y132.532
G1 F1200 X117.629 Y74.637 E229.24663
G0 F6000 X117.063 Y74.637
G1 F1200 X175.524 Y133.098 E231.99646
G0 F6000 X175.524 Y133.663
