;FLAVOR:Marlin
;TIME:6943
;Filament used: 4.10895m
;Layer height: 0.2
;MINX:152.462
;MINY:7.166
;MINZ:0.2
;MAXX:216.769
;MAXY:47.04
;MAXZ:25.4
;Generated with Cura_SteamEngine 4.11.0
M140 S50
M105
M190 S50
M104 S200
M105
M109 S200
M82 ;absolute extrusion mode
; Ender 3 Custom Start G-code
G92 E0 ; Reset Extruder
G28 ; Home all axes
G29 ; Auto bed-level (BL-Touch)
G1 Z2.0 F3000 ; Move Z Axis up little to prevent scratching of Heat Bed
G1 X0.1 Y20 Z0.3 F5000.0 ; Move to start position
G1 X0.1 Y200.0 Z0.3 F1500.0 E15 ; Draw the first line
G1 X0.4 Y200.0 Z0.3 F5000.0 ; Move to side a little
G1 X0.4 Y20 Z0.3 F1500.0 E30 ; Draw the second line
G92 E0 ; Reset Extruder
G1 Z2.0 F3000 ; Move Z Axis up little to prevent scratching of Heat Bed
G1 X5 Y20 Z0.3 F5000.0 ; Move over to prevent blob squish
G92 E0
G92 E0
G1 F2700 E-5
;LAYER_COUNT:127
;LAYER:0
M107
G0 F6000 X152.864 Y23.972 Z0.2
;TYPE:SKIRT
G1 F2700 E0
G1 F1200 X153.02 Y23.1 E0.02946
G1 X153.253 Y22.246 E0.05891
G1 X153.525 Y21.507 E0.0851
G1 X154.474 Y19.214 E0.16764
G1 X154.849 Y18.413 E0.19705
G1 X155.295 Y17.648 E0.2265
G1 X155.753 Y16.997 E0.25298
G1 X157.268 Y15.022 E0.33577
G1 X157.838 Y14.345 E0.3652
G1 X158.467 Y13.722 E0.39465
G1 X159.082 Y13.209 E0.42129
G1 X161.056 Y11.696 E0.50401
G1 X161.783 Y11.19 E0.53347
G1 X162.551 Y10.751 E0.56289
G1 X163.265 Y10.421 E0.58905
G1 X165.559 Y9.47 E0.67165
G1 X166.391 Y9.168 E0.70109
G1 X167.247 Y8.943 E0.73052
G1 X168.028 Y8.807 E0.75689
G1 X170.495 Y8.481 E0.83966
G1 X171.377 Y8.405 E0.8691
G1 X172.262 Y8.409 E0.89854
G1 X173.062 Y8.481 E0.92525
G1 X175.53 Y8.807 E1.00805
G1 X176.402 Y8.963 E1.03752
G1 X177.256 Y9.196 E1.06696
G1 X178 Y9.47 E1.09333
G1 X180.294 Y10.421 E1.17592
G1 X181.096 Y10.797 E1.20538
G1 X181.86 Y11.243 E1.23481
G1 X182.503 Y11.696 E1.26097
G1 X183.874 Y12.747 E1.31843
G1 X184.14 Y12.483 E1.33089
G1 X184.751 Y11.973 E1.35736
G1 X186.724 Y10.459 E1.44008
G1 X187.45 Y9.953 E1.46951
G1 X188.219 Y9.514 E1.49896
G1 X188.942 Y9.179 E1.52547
G1 X191.237 Y8.229 E1.60808
G1 X192.069 Y7.928 E1.63751
G1 X192.925 Y7.703 E1.66694
G1 X193.701 Y7.568 E1.69314
G1 X196.168 Y7.242 E1.77591
G1 X197.05 Y7.166 E1.80535
G1 X197.935 Y7.17 E1.83479
G1 X198.736 Y7.242 E1.86154
G1 X201.203 Y7.568 E1.9443
G1 X202.074 Y7.724 E1.97373
G1 X202.928 Y7.957 E2.00317
G1 X203.669 Y8.23 E2.02944
G1 X205.963 Y9.18 E2.11202
G1 X206.764 Y9.555 E2.14144
G1 X207.529 Y10.001 E2.17089
G1 X208.177 Y10.458 E2.19726
G1 X210.151 Y11.972 E2.28001
G1 X210.828 Y12.542 E2.30944
G1 X211.452 Y13.17 E2.33889
G1 X211.963 Y13.783 E2.36543
G1 X213.478 Y15.758 E2.44822
G1 X213.984 Y16.484 E2.47765
G1 X214.423 Y17.253 E2.50711
G1 X214.757 Y17.975 E2.53356
G1 X215.706 Y20.268 E2.6161
G1 X216.007 Y21.101 E2.64556
G1 X216.232 Y21.957 E2.675
G1 X216.367 Y22.732 E2.70116
G1 X216.693 Y25.199 E2.78393
G1 X216.769 Y26.081 E2.81337
G1 X216.765 Y26.966 E2.84281
G1 X216.693 Y27.767 E2.86956
G1 X216.367 Y30.234 E2.95233
G1 X216.211 Y31.105 E2.98176
G1 X215.978 Y31.959 E3.0112
G1 X215.707 Y32.696 E3.03732
G1 X214.758 Y34.99 E3.11989
G1 X214.383 Y35.792 E3.14933
G1 X213.937 Y36.557 E3.17878
G1 X213.476 Y37.211 E3.2054
G1 X211.961 Y39.185 E3.28816
G1 X211.391 Y39.862 E3.3176
G1 X210.762 Y40.485 E3.34704
G1 X210.151 Y40.994 E3.37349
G1 X208.177 Y42.508 E3.45623
G1 X207.451 Y43.015 E3.48569
G1 X206.682 Y43.454 E3.51514
G1 X205.966 Y43.785 E3.54137
G1 X203.672 Y44.736 E3.62397
G1 X202.84 Y45.038 E3.65341
G1 X201.984 Y45.263 E3.68284
G1 X201.199 Y45.399 E3.70934
G1 X198.732 Y45.724 E3.7921
G1 X197.85 Y45.8 E3.82155
G1 X196.965 Y45.796 E3.85098
G1 X196.172 Y45.724 E3.87747
G1 X193.705 Y45.399 E3.96023
G1 X192.834 Y45.244 E3.98965
G1 X191.98 Y45.011 E4.0191
G1 X191.233 Y44.736 E4.04557
G1 X188.938 Y43.785 E4.1282
G1 X188.137 Y43.41 E4.15761
G1 X187.372 Y42.964 E4.18707
G1 X186.724 Y42.507 E4.21344
G1 X185.358 Y41.459 E4.2707
G1 X185.094 Y41.721 E4.28308
G1 X184.477 Y42.236 E4.30981
G1 X182.503 Y43.749 E4.39253
G1 X181.776 Y44.255 E4.42199
G1 X181.008 Y44.694 E4.45141
G1 X180.294 Y45.024 E4.47757
G1 X178 Y45.975 E4.56017
G1 X177.168 Y46.277 E4.58961
G1 X176.312 Y46.502 E4.61905
G1 X175.53 Y46.638 E4.64544
G1 X173.062 Y46.964 E4.72824
G1 X172.18 Y47.04 E4.75769
G1 X171.295 Y47.036 E4.78712
G1 X170.495 Y46.964 E4.81384
G1 X168.028 Y46.638 E4.89661
G1 X167.157 Y46.482 E4.92604
G1 X166.303 Y46.249 E4.95548
G1 X165.559 Y45.975 E4.98185
G1 X163.265 Y45.024 E5.06444
G1 X162.463 Y44.648 E5.0939
G1 X161.699 Y44.202 E5.12333
G1 X161.056 Y43.749 E5.14949
G1 X159.082 Y42.236 E5.23221
G1 X158.405 Y41.666 E5.26165
G1 X157.781 Y41.038 E5.29109
G1 X157.268 Y40.423 E5.31773
G1 X155.753 Y38.448 E5.40052
G1 X155.247 Y37.722 E5.42995
G1 X154.808 Y36.953 E5.4594
G1 X154.474 Y36.231 E5.48586
G1 X153.525 Y33.938 E5.5684
G1 X153.224 Y33.105 E5.59786
G1 X152.999 Y32.249 E5.6273
G1 X152.864 Y31.474 E5.65346
G1 X152.538 Y29.007 E5.73623
G1 X152.462 Y28.125 E5.76567
G1 X152.466 Y27.24 E5.79511
G1 X152.538 Y26.44 E5.82182
G1 X152.864 Y23.972 E5.90462
G0 F6000 X153.261 Y24.024
G1 F1200 X153.414 Y23.171 E5.93345
G1 X153.645 Y22.335 E5.96229
G1 X153.894 Y21.66 E5.98622
G1 X154.843 Y19.367 E6.06876
G1 X155.212 Y18.582 E6.09761
G1 X155.65 Y17.835 E6.12641
G1 X156.071 Y17.241 E6.15063
G1 X157.586 Y15.266 E6.23342
G1 X158.144 Y14.603 E6.26224
G1 X158.762 Y13.994 E6.2911
G1 X159.326 Y13.526 E6.31547
G1 X161.3 Y12.013 E6.3982
G1 X162.011 Y11.518 E6.42701
G1 X162.766 Y11.091 E6.45586
G1 X163.418 Y10.791 E6.47973
G1 X165.712 Y9.84 E6.56233
G1 X166.528 Y9.545 E6.59119
G1 X167.367 Y9.327 E6.62002
G1 X168.081 Y9.204 E6.64412
G1 X170.548 Y8.878 E6.72688
G1 X171.411 Y8.804 E6.75569
G1 X172.278 Y8.81 E6.78453
G1 X173.01 Y8.878 E6.80898
G1 X175.478 Y9.204 E6.89178
G1 X176.331 Y9.357 E6.9206
G1 X177.167 Y9.588 E6.94945
G1 X177.847 Y9.84 E6.97357
G1 X180.141 Y10.791 E7.05616
G1 X180.925 Y11.159 E7.08497
G1 X181.673 Y11.598 E7.11382
G1 X182.259 Y12.013 E7.1377
G1 X183.907 Y13.276 E7.20676
G1 X184.435 Y12.755 E7.23143
G1 X184.994 Y12.291 E7.25559
G1 X186.967 Y10.777 E7.33831
G1 X187.679 Y10.281 E7.36717
G1 X188.433 Y9.853 E7.39601
G1 X189.095 Y9.549 E7.42024
G1 X191.39 Y8.599 E7.50285
G1 X192.205 Y8.304 E7.53168
G1 X193.044 Y8.087 E7.5605
G1 X193.754 Y7.965 E7.58446
G1 X196.221 Y7.639 E7.66723
G1 X197.084 Y7.565 E7.69604
G1 X197.951 Y7.571 E7.72487
G1 X198.683 Y7.639 E7.74932
G1 X201.15 Y7.965 E7.83209
G1 X202.004 Y8.118 E7.86095
G1 X202.839 Y8.349 E7.88976
G1 X203.516 Y8.599 E7.91377
G1 X205.81 Y9.549 E7.99635
G1 X206.594 Y9.918 E8.02517
G1 X207.342 Y10.357 E8.05401
G1 X207.934 Y10.775 E8.07812
G1 X209.908 Y12.289 E8.16086
G1 X210.571 Y12.848 E8.1897
G1 X211.179 Y13.465 E8.21852
G1 X211.645 Y14.027 E8.2428
G1 X213.16 Y16.002 E8.32559
G1 X213.656 Y16.713 E8.35442
G1 X214.083 Y17.467 E8.38324
G1 X214.388 Y18.128 E8.40745
G1 X215.337 Y20.421 E8.48999
G1 X215.631 Y21.237 E8.51884
G1 X215.849 Y22.076 E8.54767
G1 X215.97 Y22.785 E8.57159
G1 X216.296 Y25.252 E8.65436
G1 X216.37 Y26.115 E8.68317
G1 X216.364 Y26.982 E8.71201
G1 X216.296 Y27.714 E8.73646
G1 X215.97 Y30.181 E8.81922
G1 X215.817 Y31.035 E8.84808
G1 X215.586 Y31.87 E8.8769
G1 X215.337 Y32.543 E8.90076
G1 X214.388 Y34.837 E8.98333
G1 X214.02 Y35.622 E9.01217
G1 X213.581 Y36.37 E9.04102
G1 X213.159 Y36.967 E9.06533
G1 X211.644 Y38.941 E9.14809
G1 X211.085 Y39.604 E9.17694
G1 X210.467 Y40.212 E9.20577
G1 X209.908 Y40.677 E9.22996
G1 X207.934 Y42.191 E9.3127
G1 X207.222 Y42.686 E9.34154
G1 X206.468 Y43.114 E9.37038
G1 X205.813 Y43.415 E9.39435
G1 X203.519 Y44.366 E9.47695
G1 X202.703 Y44.661 E9.50581
G1 X201.864 Y44.879 E9.53464
G1 X201.147 Y45.002 E9.55884
G1 X198.68 Y45.327 E9.6416
G1 X197.816 Y45.401 E9.67044
G1 X196.949 Y45.395 E9.69928
G1 X196.224 Y45.327 E9.7235
G1 X193.757 Y45.002 E9.80626
G1 X192.904 Y44.85 E9.83508
G1 X192.068 Y44.619 E9.86392
G1 X191.387 Y44.367 E9.88807
G1 X189.092 Y43.416 E9.9707
G1 X188.307 Y43.047 E9.99955
G1 X187.559 Y42.608 E10.0284
G1 X186.967 Y42.189 E10.05252
G1 X185.326 Y40.93 E10.12131
G1 X184.799 Y41.449 E10.14591
G1 X184.233 Y41.919 E10.17038
G1 X182.259 Y43.432 E10.25311
G1 X181.548 Y43.927 E10.28192
G1 X180.793 Y44.354 E10.31077
G1 X180.141 Y44.654 E10.33464
G1 X177.847 Y45.605 E10.41724
G1 X177.031 Y45.9 E10.4461
G1 X176.192 Y46.118 E10.47493
G1 X175.478 Y46.241 E10.49902
G1 X173.01 Y46.567 E10.58182
G1 X172.146 Y46.641 E10.61067
G1 X171.279 Y46.635 E10.6395
G1 X170.548 Y46.567 E10.66392
G1 X168.081 Y46.241 E10.74669
G1 X167.227 Y46.088 E10.77554
G1 X166.392 Y45.857 E10.80436
G1 X165.712 Y45.605 E10.82848
G1 X163.418 Y44.654 E10.91107
G1 X162.634 Y44.286 E10.93988
G1 X161.886 Y43.847 E10.96873
G1 X161.3 Y43.432 E10.99261
G1 X159.326 Y41.919 E11.07533
G1 X158.663 Y41.36 E11.10418
G1 X158.054 Y40.743 E11.13301
G1 X157.586 Y40.179 E11.15739
G1 X156.071 Y38.204 E11.24018
G1 X155.575 Y37.493 E11.26901
G1 X155.148 Y36.739 E11.29783
G1 X154.843 Y36.078 E11.32204
G1 X153.894 Y33.785 E11.40458
G1 X153.6 Y32.969 E11.43343
G1 X153.382 Y32.13 E11.46226
G1 X153.261 Y31.421 E11.48618
G1 X152.935 Y28.954 E11.56895
G1 X152.861 Y28.091 E11.59776
G1 X152.867 Y27.224 E11.6266
G1 X152.935 Y26.492 E11.65105
G1 X153.261 Y24.024 E11.73385
G0 F6000 X153.658 Y24.076
G1 F1200 X153.808 Y23.242 E11.76203
G1 X154.037 Y22.425 E11.79025
G1 X154.264 Y21.813 E11.81196
G1 X155.213 Y19.52 E11.8945
G1 X155.574 Y18.753 E11.92269
G1 X156.006 Y18.022 E11.95094
G1 X156.388 Y17.484 E11.97288
G1 X157.903 Y15.509 E12.05567
G1 X158.45 Y14.861 E12.08388
G1 X159.056 Y14.268 E12.11208
G1 X159.569 Y13.844 E12.13421
G1 X161.543 Y12.331 E12.21693
G1 X162.24 Y11.847 E12.24516
G1 X162.979 Y11.431 E12.27336
G1 X163.571 Y11.16 E12.29502
G1 X165.865 Y10.209 E12.37761
G1 X166.663 Y9.922 E12.40582
G1 X167.485 Y9.71 E12.43406
G1 X168.133 Y9.601 E12.45591
G1 X170.6 Y9.275 E12.53868
G1 X171.445 Y9.203 E12.56688
G1 X172.293 Y9.212 E12.59509
G1 X172.958 Y9.275 E12.61731
G1 X175.426 Y9.601 E12.70011
G1 X176.26 Y9.751 E12.72829
G1 X177.077 Y9.98 E12.75651
G1 X177.694 Y10.209 E12.7784
G1 X179.988 Y11.16 E12.86099
G1 X180.755 Y11.522 E12.8892
G1 X181.485 Y11.954 E12.91742
G1 X182.016 Y12.331 E12.93908
G1 X183.957 Y13.819 E13.02042
G1 X184.123 Y13.622 E13.02899
G1 X184.729 Y13.029 E13.05719
G1 X185.238 Y12.608 E13.07916
G1 X187.211 Y11.094 E13.16188
G1 X187.908 Y10.61 E13.1901
G1 X188.647 Y10.193 E13.21832
G1 X189.248 Y9.918 E13.24031
G1 X191.543 Y8.968 E13.32292
G1 X192.341 Y8.681 E13.35112
G1 X193.163 Y8.47 E13.37935
G1 X193.806 Y8.362 E13.40104
G1 X196.273 Y8.036 E13.4838
G1 X197.118 Y7.964 E13.51201
G1 X197.966 Y7.973 E13.54022
G1 X198.631 Y8.036 E13.56243
G1 X201.098 Y8.362 E13.6452
G1 X201.933 Y8.512 E13.67342
G1 X202.75 Y8.741 E13.70164
G1 X203.363 Y8.969 E13.72339
G1 X205.657 Y9.919 E13.80597
G1 X206.424 Y10.28 E13.83417
G1 X207.154 Y10.712 E13.86238
G1 X207.69 Y11.093 E13.88425
G1 X209.664 Y12.607 E13.96699
G1 X210.312 Y13.154 E13.9952
G1 X210.906 Y13.76 E14.02342
G1 X211.328 Y14.27 E14.04544
G1 X212.843 Y16.245 E14.12823
G1 X213.327 Y16.942 E14.15645
G1 X213.743 Y17.681 E14.18466
G1 X214.018 Y18.281 E14.20661
G1 X214.967 Y20.574 E14.28915
G1 X215.254 Y21.373 E14.31739
G1 X215.465 Y22.194 E14.34558
G1 X215.573 Y22.837 E14.36727
G1 X215.899 Y25.304 E14.45003
G1 X215.971 Y26.149 E14.47824
G1 X215.962 Y26.997 E14.50645
G1 X215.899 Y27.662 E14.52866
G1 X215.573 Y30.129 E14.61143
G1 X215.423 Y30.964 E14.63965
G1 X215.194 Y31.781 E14.66787
G1 X214.967 Y32.39 E14.68948
G1 X214.018 Y34.684 E14.77205
G1 X213.658 Y35.452 E14.80026
G1 X213.226 Y36.182 E14.82848
G1 X212.842 Y36.724 E14.85057
G1 X211.327 Y38.698 E14.93333
G1 X210.779 Y39.345 E14.96153
G1 X210.173 Y39.939 E14.98976
G1 X209.664 Y40.359 E15.01171
G1 X207.69 Y41.873 E15.09445
G1 X206.994 Y42.357 E15.12264
G1 X206.254 Y42.774 E15.1509
G1 X205.66 Y43.046 E15.17262
G1 X203.366 Y43.997 E15.25522
G1 X202.568 Y44.284 E15.28343
G1 X201.746 Y44.496 E15.31166
G1 X201.094 Y44.606 E15.33365
G1 X198.627 Y44.931 E15.41641
G1 X197.782 Y45.002 E15.44462
G1 X196.934 Y44.993 E15.47282
G1 X196.277 Y44.931 E15.49477
G1 X193.81 Y44.606 E15.57754
G1 X192.975 Y44.456 E15.60575
G1 X192.158 Y44.227 E15.63397
G1 X191.54 Y43.997 E15.6559
G1 X189.245 Y43.046 E15.73853
G1 X188.477 Y42.685 E15.76676
G1 X187.747 Y42.253 E15.79497
G1 X187.211 Y41.872 E15.81684
G1 X185.276 Y40.387 E15.89797
G1 X185.111 Y40.582 E15.90646
G1 X184.505 Y41.175 E15.93466
G1 X183.99 Y41.601 E15.95689
G1 X182.016 Y43.114 E16.03962
G1 X181.319 Y43.598 E16.06784
G1 X180.58 Y44.014 E16.09605
G1 X179.988 Y44.285 E16.1177
G1 X177.694 Y45.236 E16.2003
G1 X176.896 Y45.523 E16.2285
G1 X176.074 Y45.735 E16.25674
G1 X175.426 Y45.844 E16.27859
G1 X172.958 Y46.17 E16.36139
G1 X172.112 Y46.242 E16.38963
G1 X171.264 Y46.233 E16.41784
G1 X170.6 Y46.17 E16.44002
G1 X168.133 Y45.844 E16.52279
G1 X167.298 Y45.694 E16.551
G1 X166.481 Y45.465 E16.57922
G1 X165.865 Y45.236 E16.60108
G1 X163.571 Y44.285 E16.68368
G1 X162.804 Y43.923 E16.71189
G1 X162.074 Y43.491 E16.7401
G1 X161.543 Y43.114 E16.76176
G1 X159.569 Y41.601 E16.84448
G1 X158.921 Y41.054 E16.87269
G1 X158.327 Y40.448 E16.90091
G1 X157.903 Y39.936 E16.92302
G1 X156.388 Y37.961 E17.00581
G1 X155.904 Y37.264 E17.03403
G1 X155.488 Y36.525 E17.06224
G1 X155.213 Y35.925 E17.08419
G1 X154.264 Y33.632 E17.16673
G1 X153.977 Y32.833 E17.19497
G1 X153.766 Y32.012 E17.22316
G1 X153.658 Y31.369 E17.24485
G1 X153.332 Y28.902 E17.32761
G1 X153.26 Y28.057 E17.35582
G1 X153.269 Y27.209 E17.38403
G1 X153.332 Y26.544 E17.40624
G1 X153.658 Y24.076 E17.48904
G0 F6000 X154.054 Y24.129
G1 F1200 X154.202 Y23.313 E17.51663
G1 X154.428 Y22.515 E17.54421
G1 X154.634 Y21.966 E17.56371
G1 X155.583 Y19.673 E17.64625
G1 X155.936 Y18.923 E17.67382
G1 X156.361 Y18.211 E17.7014
G1 X156.705 Y17.728 E17.72112
G1 X158.22 Y15.753 E17.80391
G1 X158.756 Y15.12 E17.8315
G1 X159.35 Y14.542 E17.85907
G1 X159.812 Y14.161 E17.87899
G1 X161.786 Y12.648 E17.96171
G1 X162.468 Y12.176 E17.98929
G1 X163.192 Y11.772 E18.01687
G1 X163.725 Y11.53 E18.03634
G1 X166.019 Y10.579 E18.11893
G1 X166.799 Y10.298 E18.14651
G1 X167.603 Y10.095 E18.17409
G1 X168.185 Y9.997 E18.19372
G1 X170.652 Y9.671 E18.27649
G1 X171.479 Y9.602 E18.30409
G1 X172.308 Y9.613 E18.33166
G1 X172.905 Y9.671 E18.35161
G1 X175.373 Y9.997 E18.43441
G1 X176.189 Y10.145 E18.46199
G1 X176.987 Y10.371 E18.48958
G1 X177.54 Y10.579 E18.50923
G1 X179.834 Y11.53 E18.59183
G1 X180.584 Y11.884 E18.61941
G1 X181.296 Y12.308 E18.64697
G1 X181.773 Y12.648 E18.66646
G1 X183.747 Y14.161 E18.74918
G1 X184.006 Y14.38 E18.76046
G1 X184.429 Y13.881 E18.78222
G1 X185.023 Y13.303 E18.80978
G1 X185.482 Y12.925 E18.82956
G1 X187.455 Y11.411 E18.91228
G1 X188.136 Y10.939 E18.93983
G1 X188.86 Y10.534 E18.96743
G1 X189.401 Y10.288 E18.98719
G1 X191.696 Y9.338 E19.06981
G1 X192.476 Y9.058 E19.09737
G1 X193.28 Y8.855 E19.12495
G1 X193.858 Y8.758 E19.14444
G1 X196.325 Y8.432 E19.22721
G1 X197.152 Y8.363 E19.25481
G1 X197.981 Y8.374 E19.28239
G1 X198.579 Y8.432 E19.30237
G1 X201.046 Y8.758 E19.38514
G1 X201.862 Y8.906 E19.41272
G1 X202.659 Y9.132 E19.44027
G1 X203.209 Y9.338 E19.45981
G1 X205.503 Y10.288 E19.54239
G1 X206.253 Y10.642 E19.56997
G1 X206.966 Y11.067 E19.59758
G1 X207.447 Y11.41 E19.61723
G1 X209.421 Y12.924 E19.69997
G1 X210.054 Y13.46 E19.72756
G1 X210.632 Y14.054 E19.75513
G1 X211.011 Y14.514 E19.77495
G1 X212.526 Y16.489 E19.85774
G1 X212.998 Y17.17 E19.8853
G1 X213.403 Y17.894 E19.91289
G1 X213.648 Y18.434 E19.93261
G1 X214.597 Y20.727 E20.01515
G1 X214.877 Y21.508 E20.04275
G1 X215.08 Y22.312 E20.07033
G1 X215.177 Y22.889 E20.08979
G1 X215.503 Y25.356 E20.17255
G1 X215.572 Y26.183 E20.20016
G1 X215.561 Y27.012 E20.22773
G1 X215.503 Y27.61 E20.24771
G1 X215.177 Y30.077 E20.33048
G1 X215.029 Y30.893 E20.35806
G1 X214.803 Y31.69 E20.38562
G1 X214.598 Y32.238 E20.40508
G1 X213.649 Y34.532 E20.48765
G1 X213.295 Y35.282 E20.51523
G1 X212.871 Y35.994 E20.54279
G1 X212.524 Y36.48 E20.56265
G1 X211.009 Y38.454 E20.64542
G1 X210.473 Y39.087 E20.673
G1 X209.879 Y39.665 E20.70057
G1 X209.421 Y40.042 E20.7203
G1 X207.447 Y41.556 E20.80304
G1 X206.765 Y42.028 E20.83063
G1 X206.041 Y42.433 E20.85822
G1 X205.506 Y42.676 E20.87776
