;FLAVOR:Marlin
;TIME:18816
;Filament used: 13.8547m
;Layer height: 0.2
;MINX:15.281
;MINY:15.281
;MINZ:0.2
;MAXX:204.719
;MAXY:204.719
;MAXZ:6.4
;Generated with Cura_SteamEngine 4.11.0
M140 S50
M105
M190 S50
M104 S200
M105
M109 S200
M82 ;absolute extrusion mode
; Ender 3 Custom Start G-code
G92 E0 ; Reset Extruder
G28 ; Home all axes
G29 ; Auto bed-level (BL-Touch)
G1 Z2.0 F3000 ; Move Z Axis up little to prevent scratching of Heat Bed
G1 X0.1 Y20 Z0.3 F5000.0 ; Move to start position
G1 X0.1 Y200.0 Z0.3 F1500.0 E15 ; Draw the first line
G1 X0.4 Y200.0 Z0.3 F5000.0 ; Move to side a little
G1 X0.4 Y20 Z0.3 F1500.0 E30 ; Draw the second line
G92 E0 ; Reset Extruder
G1 Z2.0 F3000 ; Move Z Axis up little to prevent scratching of Heat Bed
G1 X5 Y20 Z0.3 F5000.0 ; Move over to prevent blob squish
G92 E0
G92 E0
G1 F2700 E-5
;LAYER_COUNT:32
;LAYER:0
M107
G0 F6000 X28.982 Y20.004 Z0.2
;TYPE:SKIRT
G1 F2700 E0
G1 F1200 X29.948 Y19.158 E0.04271
G1 X31.265 Y18.148 E0.09791
G1 X31.991 Y17.641 E0.12736
G1 X32.76 Y17.202 E0.15681
G1 X33.475 Y16.871 E0.18302
G1 X35.004 Y16.237 E0.23807
G1 X35.837 Y15.936 E0.26753
G1 X36.693 Y15.71 E0.29698
G1 X37.476 Y15.574 E0.32341
G1 X39.121 Y15.357 E0.3786
G1 X40.003 Y15.281 E0.40804
G1 X40.888 Y15.285 E0.43748
G1 X41.684 Y15.357 E0.46406
G1 X43.33 Y15.574 E0.51928
G1 X44.201 Y15.729 E0.54871
G1 X45.055 Y15.963 E0.57816
G1 X45.805 Y16.238 E0.60473
G1 X47.333 Y16.872 E0.65975
G1 X48.134 Y17.248 E0.68918
G1 X48.899 Y17.695 E0.71865
G1 X49.541 Y18.148 E0.74478
G1 X50.858 Y19.158 E0.79998
G1 X51.824 Y20.004 E0.84269
G1 X199.996 Y168.176 E7.81225
G1 X200.842 Y169.141 E7.85493
G1 X201.853 Y170.459 E7.91018
G1 X202.359 Y171.185 E7.93961
G1 X202.798 Y171.954 E7.96906
G1 X203.13 Y172.671 E7.99534
G1 X203.763 Y174.198 E8.05032
G1 X204.065 Y175.03 E8.07976
G1 X204.29 Y175.886 E8.1092
G1 X204.426 Y176.67 E8.13567
G1 X204.643 Y178.316 E8.19089
G1 X204.719 Y179.198 E8.22033
G1 X204.715 Y180.083 E8.24977
G1 X204.643 Y180.879 E8.27635
G1 X204.426 Y182.524 E8.33154
G1 X204.271 Y183.395 E8.36096
G1 X204.037 Y184.249 E8.39041
G1 X203.764 Y184.993 E8.41677
G1 X203.131 Y186.521 E8.47178
G1 X202.755 Y187.322 E8.50121
G1 X202.309 Y188.087 E8.53066
G1 X201.854 Y188.733 E8.55694
G1 X200.845 Y190.049 E8.6121
G1 X199.998 Y191.016 E8.65485
G1 X191.018 Y199.996 E9.07725
G1 X190.052 Y200.842 E9.11995
G1 X188.735 Y201.852 E9.17516
G1 X188.009 Y202.359 E9.20461
G1 X187.24 Y202.798 E9.23406
G1 X186.525 Y203.129 E9.26027
G1 X184.996 Y203.763 E9.31532
G1 X184.163 Y204.064 E9.34478
G1 X183.307 Y204.29 E9.37422
G1 X182.524 Y204.426 E9.40066
G1 X180.879 Y204.643 E9.45584
G1 X179.997 Y204.719 E9.48529
G1 X179.112 Y204.715 E9.51472
G1 X178.316 Y204.643 E9.54131
G1 X176.67 Y204.426 E9.59653
G1 X175.799 Y204.271 E9.62595
G1 X174.945 Y204.037 E9.6554
G1 X174.195 Y203.762 E9.68197
G1 X172.667 Y203.128 E9.73699
G1 X171.866 Y202.752 E9.76642
G1 X171.101 Y202.305 E9.79589
G1 X170.459 Y201.852 E9.82203
G1 X169.142 Y200.842 E9.87723
G1 X168.176 Y199.996 E9.91994
G1 X20.002 Y51.822 E16.88959
G1 X19.155 Y50.855 E16.93234
G1 X18.146 Y49.539 E16.9875
G1 X17.64 Y48.813 E17.01693
G1 X17.201 Y48.044 E17.04638
G1 X16.87 Y47.329 E17.07259
G1 X16.237 Y45.802 E17.12757
G1 X15.935 Y44.97 E17.15701
G1 X15.71 Y44.114 E17.18645
G1 X15.574 Y43.33 E17.21291
G1 X15.357 Y41.684 E17.26813
G1 X15.281 Y40.802 E17.29757
G1 X15.285 Y39.917 E17.32701
G1 X15.357 Y39.121 E17.35359
G1 X15.574 Y37.476 E17.40878
G1 X15.729 Y36.605 E17.4382
G1 X15.963 Y35.751 E17.46766
G1 X16.236 Y35.007 E17.49401
G1 X16.869 Y33.479 E17.54902
G1 X17.245 Y32.678 E17.57846
G1 X17.691 Y31.913 E17.60791
G1 X18.146 Y31.267 E17.63419
G1 X19.155 Y29.951 E17.68934
G1 X20.002 Y28.984 E17.7321
G1 X28.982 Y20.004 E18.15449
G0 F6000 X29.265 Y20.287
G1 F1200 X30.192 Y19.475 E18.19548
G1 X31.509 Y18.465 E18.25068
G1 X32.22 Y17.97 E18.2795
G1 X32.974 Y17.542 E18.30833
G1 X33.629 Y17.241 E18.33231
G1 X35.158 Y16.607 E18.38736
G1 X35.973 Y16.312 E18.41619
G1 X36.812 Y16.094 E18.44502
G1 X37.529 Y15.971 E18.46922
G1 X39.174 Y15.754 E18.5244
G1 X40.037 Y15.68 E18.55321
G1 X40.904 Y15.686 E18.58205
G1 X41.632 Y15.754 E18.60637
G1 X43.278 Y15.971 E18.66159
G1 X44.131 Y16.123 E18.69041
G1 X44.967 Y16.354 E18.71925
G1 X45.651 Y16.608 E18.74352
G1 X47.179 Y17.242 E18.79854
G1 X47.964 Y17.611 E18.82739
G1 X48.711 Y18.05 E18.85621
G1 X49.297 Y18.465 E18.88009
G1 X50.614 Y19.475 E18.9353
G1 X51.541 Y20.287 E18.97628
G1 X199.713 Y168.459 E25.94584
G1 X200.524 Y169.385 E25.98678
G1 X201.535 Y170.703 E26.04203
G1 X202.031 Y171.414 E26.07086
G1 X202.459 Y172.168 E26.0997
G1 X202.76 Y172.824 E26.12371
G1 X203.393 Y174.351 E26.17869
G1 X203.688 Y175.167 E26.20755
G1 X203.907 Y176.006 E26.23639
G1 X204.029 Y176.722 E26.26054
G1 X204.246 Y178.368 E26.31576
G1 X204.32 Y179.232 E26.3446
G1 X204.314 Y180.099 E26.37344
G1 X204.246 Y180.826 E26.39773
G1 X204.029 Y182.471 E26.45291
G1 X203.876 Y183.325 E26.48177
G1 X203.646 Y184.16 E26.51058
G1 X203.394 Y184.84 E26.5347
G1 X202.761 Y186.368 E26.58971
G1 X202.393 Y187.152 E26.61851
G1 X201.954 Y187.9 E26.64736
G1 X201.537 Y188.489 E26.67136
G1 X200.528 Y189.805 E26.72652
G1 X199.715 Y190.733 E26.76755
G1 X190.735 Y199.713 E27.18994
G1 X189.808 Y200.525 E27.23093
G1 X188.491 Y201.535 E27.28613
G1 X187.78 Y202.03 E27.31495
G1 X187.026 Y202.458 E27.34379
G1 X186.371 Y202.759 E27.36776
G1 X184.842 Y203.393 E27.42281
G1 X184.027 Y203.688 E27.45164
G1 X183.188 Y203.906 E27.48047
G1 X182.471 Y204.029 E27.50467
G1 X180.826 Y204.246 E27.55986
G1 X179.963 Y204.32 E27.58867
G1 X179.096 Y204.314 E27.6175
G1 X178.368 Y204.246 E27.64182
G1 X176.722 Y204.029 E27.69704
G1 X175.869 Y203.877 E27.72586
G1 X175.033 Y203.646 E27.75471
G1 X174.349 Y203.392 E27.77897
G1 X172.821 Y202.758 E27.834
G1 X172.036 Y202.389 E27.86285
G1 X171.289 Y201.95 E27.89167
G1 X170.703 Y201.535 E27.91555
G1 X169.386 Y200.525 E27.97075
G1 X168.459 Y199.713 E28.01174
G1 X20.285 Y51.539 E34.98139
G1 X19.472 Y50.611 E35.02242
G1 X18.463 Y49.295 E35.07758
G1 X17.968 Y48.584 E35.10639
G1 X17.541 Y47.83 E35.13521
G1 X17.24 Y47.176 E35.15916
G1 X16.607 Y45.649 E35.21414
G1 X16.312 Y44.833 E35.243
G1 X16.093 Y43.994 E35.27184
G1 X15.971 Y43.278 E35.296
G1 X15.754 Y41.632 E35.35121
G1 X15.68 Y40.768 E35.38006
G1 X15.686 Y39.901 E35.40889
G1 X15.754 Y39.174 E35.43318
G1 X15.971 Y37.529 E35.48837
G1 X16.124 Y36.675 E35.51722
G1 X16.354 Y35.84 E35.54603
G1 X16.606 Y35.16 E35.57015
G1 X17.239 Y33.632 E35.62516
G1 X17.607 Y32.848 E35.65397
G1 X18.046 Y32.1 E35.68281
G1 X18.463 Y31.511 E35.70681
G1 X19.472 Y30.195 E35.76197
G1 X20.285 Y29.267 E35.803
G1 X29.265 Y20.287 E36.2254
G0 F6000 X29.548 Y20.57
G1 F1200 X30.435 Y19.792 E36.26464
G1 X31.752 Y18.782 E36.31984
G1 X32.449 Y18.298 E36.34806
G1 X33.188 Y17.882 E36.37627
G1 X33.782 Y17.61 E36.398
G1 X35.311 Y16.976 E36.45305
G1 X36.109 Y16.689 E36.48126
G1 X36.93 Y16.478 E36.50945
G1 X37.581 Y16.367 E36.53142
G1 X39.226 Y16.15 E36.5866
G1 X40.071 Y16.079 E36.61481
G1 X40.92 Y16.088 E36.64305
G1 X41.579 Y16.15 E36.66506
G1 X43.225 Y16.367 E36.72028
G1 X44.06 Y16.518 E36.74851
G1 X44.877 Y16.746 E36.77672
G1 X45.498 Y16.977 E36.79875
G1 X47.026 Y17.611 E36.85378
G1 X47.794 Y17.973 E36.88202
G1 X48.523 Y18.405 E36.9102
G1 X49.054 Y18.782 E36.93186
G1 X50.371 Y19.792 E36.98706
G1 X51.258 Y20.57 E37.0263
G1 X199.43 Y168.742 E43.99586
G1 X200.207 Y169.628 E44.03506
G1 X201.218 Y170.946 E44.0903
G1 X201.702 Y171.643 E44.11853
G1 X202.118 Y172.382 E44.14673
G1 X202.391 Y172.978 E44.16854
G1 X203.024 Y174.505 E44.22352
G1 X203.312 Y175.303 E44.25173
G1 X203.523 Y176.124 E44.27993
G1 X203.633 Y176.775 E44.30189
G1 X203.85 Y178.421 E44.35711
G1 X203.921 Y179.266 E44.38531
G1 X203.912 Y180.114 E44.41352
G1 X203.85 Y180.774 E44.43556
G1 X203.633 Y182.419 E44.49075
G1 X203.482 Y183.254 E44.51897
G1 X203.254 Y184.071 E44.54719
G1 X203.025 Y184.687 E44.56904
G1 X202.392 Y186.215 E44.62405
G1 X202.031 Y186.982 E44.65225
G1 X201.599 Y187.712 E44.68046
G1 X201.219 Y188.246 E44.70226
G1 X200.21 Y189.562 E44.75742
G1 X199.432 Y190.45 E44.79668
G1 X190.452 Y199.43 E45.21907
G1 X189.565 Y200.208 E45.25832
G1 X188.248 Y201.218 E45.31352
G1 X187.551 Y201.702 E45.34174
G1 X186.812 Y202.118 E45.36995
G1 X186.218 Y202.39 E45.39168
G1 X184.689 Y203.024 E45.44673
G1 X183.891 Y203.311 E45.47494
G1 X183.07 Y203.522 E45.50313
G1 X182.419 Y203.633 E45.52509
G1 X180.774 Y203.85 E45.58028
G1 X179.929 Y203.921 E45.60849
G1 X179.08 Y203.912 E45.63673
G1 X178.421 Y203.85 E45.65874
G1 X176.775 Y203.633 E45.71396
G1 X175.94 Y203.482 E45.74218
G1 X175.123 Y203.254 E45.77039
G1 X174.502 Y203.023 E45.79243
G1 X172.974 Y202.389 E45.84745
G1 X172.206 Y202.027 E45.87569
G1 X171.477 Y201.595 E45.90388
G1 X170.946 Y201.218 E45.92554
G1 X169.629 Y200.208 E45.98074
G1 X168.742 Y199.43 E46.01998
G1 X20.568 Y51.256 E52.98963
G1 X19.79 Y50.368 E53.0289
G1 X18.781 Y49.052 E53.08405
G1 X18.297 Y48.355 E53.11228
G1 X17.881 Y47.616 E53.14048
G1 X17.609 Y47.022 E53.16221
G1 X16.976 Y45.495 E53.21719
G1 X16.688 Y44.697 E53.24541
G1 X16.477 Y43.876 E53.2736
G1 X16.367 Y43.225 E53.29556
G1 X16.15 Y41.579 E53.35078
G1 X16.079 Y40.734 E53.37899
G1 X16.088 Y39.886 E53.40719
G1 X16.15 Y39.226 E53.42924
G1 X16.367 Y37.581 E53.48443
G1 X16.518 Y36.746 E53.51265
G1 X16.746 Y35.929 E53.54086
G1 X16.975 Y35.313 E53.56272
G1 X17.608 Y33.785 E53.61773
G1 X17.969 Y33.018 E53.64593
G1 X18.401 Y32.288 E53.67414
G1 X18.781 Y31.754 E53.69594
G1 X19.79 Y30.438 E53.75109
G1 X20.568 Y29.55 E53.79036
G1 X29.548 Y20.57 E54.21275
G0 F6000 X29.831 Y20.853
G1 F1200 X30.679 Y20.11 E54.25025
G1 X31.996 Y19.1 E54.30545
G1 X32.677 Y18.627 E54.33303
G1 X33.401 Y18.223 E54.3606
G1 X33.935 Y17.98 E54.38012
G1 X35.464 Y17.346 E54.43517
G1 X36.244 Y17.066 E54.46274
G1 X37.048 Y16.862 E54.49032
G1 X37.633 Y16.764 E54.51005
G1 X39.278 Y16.547 E54.56524
G1 X40.105 Y16.478 E54.59284
G1 X40.934 Y16.489 E54.62042
G1 X41.527 Y16.547 E54.64023
G1 X43.173 Y16.764 E54.69545
G1 X43.989 Y16.912 E54.72304
G1 X44.787 Y17.137 E54.75061
G1 X45.345 Y17.347 E54.77044
G1 X46.873 Y17.981 E54.82547
G1 X47.623 Y18.335 E54.85305
G1 X48.335 Y18.76 E54.88063
G1 X48.81 Y19.1 E54.90006
G1 X50.127 Y20.11 E54.95526
G1 X50.975 Y20.853 E54.99276
G1 X199.147 Y169.025 E61.96231
G1 X199.89 Y169.872 E61.99979
G1 X200.901 Y171.19 E62.05504
G1 X201.373 Y171.871 E62.0826
G1 X201.778 Y172.595 E62.11019
G1 X202.021 Y173.131 E62.12976
G1 X202.654 Y174.658 E62.18474
G1 X202.935 Y175.438 E62.21232
G1 X203.138 Y176.242 E62.2399
G1 X203.236 Y176.827 E62.25962
G1 X203.453 Y178.473 E62.31484
G1 X203.522 Y179.299 E62.34241
G1 X203.511 Y180.128 E62.36999
G1 X203.453 Y180.722 E62.38984
G1 X203.236 Y182.367 E62.44503
G1 X203.088 Y183.183 E62.47261
G1 X202.862 Y183.981 E62.50019
G1 X202.655 Y184.533 E62.5198
G1 X202.022 Y186.061 E62.57481
G1 X201.668 Y186.811 E62.6024
G1 X201.244 Y187.524 E62.62999
G1 X200.902 Y188.003 E62.64956
G1 X199.893 Y189.319 E62.70472
G1 X199.149 Y190.167 E62.74224
G1 X190.169 Y199.147 E63.16463
G1 X189.321 Y199.89 E63.20213
G1 X188.004 Y200.9 E63.25733
G1 X187.323 Y201.373 E63.28491
G1 X186.599 Y201.777 E63.31249
G1 X186.065 Y202.02 E63.332
G1 X184.536 Y202.654 E63.38705
G1 X183.756 Y202.934 E63.41462
G1 X182.952 Y203.138 E63.4422
G1 X182.367 Y203.236 E63.46193
G1 X180.722 Y203.453 E63.51712
G1 X179.895 Y203.522 E63.54472
G1 X179.066 Y203.511 E63.5723
G1 X178.473 Y203.453 E63.59211
G1 X176.827 Y203.236 E63.64733
G1 X176.011 Y203.088 E63.67492
G1 X175.213 Y202.863 E63.70249
G1 X174.655 Y202.653 E63.72232
G1 X173.127 Y202.019 E63.77735
G1 X172.377 Y201.665 E63.80493
G1 X171.665 Y201.24 E63.83251
G1 X171.19 Y200.9 E63.85194
G1 X169.873 Y199.89 E63.90714
G1 X169.025 Y199.147 E63.94464
G1 X20.851 Y50.973 E70.91429
G1 X20.107 Y50.125 E70.95181
G1 X19.098 Y48.809 E71.00697
G1 X18.626 Y48.127 E71.03455
G1 X18.222 Y47.403 E71.06213
G1 X17.979 Y46.869 E71.08164
G1 X17.346 Y45.342 E71.13662
G1 X17.065 Y44.562 E71.16419
G1 X16.862 Y43.758 E71.19177
G1 X16.764 Y43.173 E71.2115
G1 X16.547 Y41.527 E71.26672
G1 X16.478 Y40.701 E71.29429
G1 X16.489 Y39.872 E71.32187
G1 X16.547 Y39.278 E71.34172
G1 X16.764 Y37.633 E71.3969
G1 X16.912 Y36.817 E71.42449
G1 X17.138 Y36.019 E71.45207
G1 X17.345 Y35.467 E71.47168
G1 X17.978 Y33.939 E71.52669
G1 X18.332 Y33.189 E71.55427
G1 X18.756 Y32.476 E71.58187
G1 X19.098 Y31.997 E71.60144
G1 X20.107 Y30.681 E71.6566
G1 X20.851 Y29.833 E71.69412
G1 X29.831 Y20.853 E72.11651
G0 F6000 X30.114 Y21.136
G1 F1200 X30.922 Y20.427 E72.15226
G1 X32.239 Y19.417 E72.20746
G1 X32.905 Y18.957 E72.23439
G1 X33.613 Y18.564 E72.26132
G1 X34.088 Y18.349 E72.27866
G1 X35.617 Y17.715 E72.33371
G1 X36.38 Y17.443 E72.36065
G1 X37.165 Y17.246 E72.38757
G1 X37.686 Y17.16 E72.40514
G1 X39.331 Y16.943 E72.46032
G1 X40.138 Y16.877 E72.48725
G1 X40.947 Y16.891 E72.51417
G1 X41.475 Y16.943 E72.53181
G1 X43.121 Y17.16 E72.58703
G1 X43.917 Y17.306 E72.61395
G1 X44.696 Y17.529 E72.6409
G1 X45.192 Y17.716 E72.65853
G1 X46.72 Y18.35 E72.71355
G1 X47.451 Y18.697 E72.74047
G1 X48.145 Y19.114 E72.76739
G1 X48.567 Y19.417 E72.78467
G1 X49.884 Y20.427 E72.83988
G1 X50.692 Y21.136 E72.87563
G1 X198.864 Y169.308 E79.84519
G1 X199.572 Y170.115 E79.88089
G1 X200.583 Y171.433 E79.93614
G1 X201.044 Y172.099 E79.96308
G1 X201.436 Y172.807 E79.99
G1 X201.652 Y173.284 E80.00741
G1 X202.285 Y174.811 E80.06239
G1 X202.558 Y175.573 E80.08931
G1 X202.754 Y176.359 E80.11626
G1 X202.84 Y176.879 E80.13379
G1 X203.057 Y178.525 E80.18901
G1 X203.123 Y179.332 E80.21594
G1 X203.109 Y180.142 E80.24288
G1 X203.057 Y180.669 E80.2605
G1 X202.84 Y182.314 E80.31568
G1 X202.694 Y183.111 E80.34263
G1 X202.471 Y183.889 E80.36955
G1 X202.286 Y184.38 E80.387
G1 X201.653 Y185.908 E80.44201
G1 X201.306 Y186.64 E80.46895
G1 X200.889 Y187.334 E80.49588
G1 X200.584 Y187.759 E80.51328
G1 X199.575 Y189.075 E80.56844
G1 X198.866 Y189.884 E80.60422
G1 X189.886 Y198.864 E81.02661
G1 X189.078 Y199.573 E81.06236
G1 X187.761 Y200.583 E81.11756
G1 X187.095 Y201.043 E81.14448
G1 X186.387 Y201.436 E81.17142
G1 X185.912 Y201.651 E81.18876
G1 X184.383 Y202.285 E81.24381
G1 X183.62 Y202.557 E81.27075
G1 X182.835 Y202.754 E81.29767
G1 X182.314 Y202.84 E81.31524
G1 X180.669 Y203.057 E81.37042
G1 X179.862 Y203.123 E81.39735
G1 X179.053 Y203.109 E81.42426
G1 X178.525 Y203.057 E81.44191
G1 X176.879 Y202.84 E81.49713
G1 X176.083 Y202.694 E81.52405
G1 X175.304 Y202.471 E81.551
G1 X174.808 Y202.284 E81.56863
G1 X173.28 Y201.65 E81.62365
G1 X172.549 Y201.303 E81.65056
G1 X171.855 Y200.886 E81.67749
G1 X171.433 Y200.583 E81.69477
G1 X170.116 Y199.573 E81.74997
G1 X169.308 Y198.864 E81.78573
G1 X21.134 Y50.69 E88.75538
G1 X20.425 Y49.881 E88.79116
G1 X19.416 Y48.565 E88.84631
G1 X18.955 Y47.899 E88.87325
G1 X18.563 Y47.191 E88.90017
G1 X18.348 Y46.716 E88.91751
G1 X17.715 Y45.189 E88.97249
G1 X17.442 Y44.427 E88.99941
G1 X17.246 Y43.641 E89.02635
G1 X17.16 Y43.121 E89.04388
G1 X16.943 Y41.475 E89.0991
G1 X16.877 Y40.668 E89.12603
G1 X16.891 Y39.858 E89.15298
G1 X16.943 Y39.331 E89.17059
G1 X17.16 Y37.686 E89.22578
G1 X17.306 Y36.889 E89.25273
G1 X17.529 Y36.111 E89.27965
G1 X17.714 Y35.62 E89.2971
G1 X18.347 Y34.092 E89.35211
G1 X18.694 Y33.36 E89.37905
G1 X19.111 Y32.666 E89.40598
G1 X19.416 Y32.241 E89.42338
G1 X20.425 Y30.925 E89.47853
G1 X21.134 Y30.116 E89.51431
G1 X30.114 Y21.136 E89.9367
G0 F6000 X30.397 Y21.419
G1 F1200 X31.165 Y20.745 E89.97069
G1 X32.482 Y19.735 E90.02589
G1 X33.132 Y19.286 E90.05217
G1 X33.825 Y18.906 E90.07845
G1 X34.241 Y18.719 E90.09362
G1 X35.77 Y18.085 E90.14868
G1 X36.514 Y17.82 E90.17495
G1 X37.281 Y17.631 E90.20122
G1 X37.738 Y17.557 E90.21662
G1 X39.383 Y17.34 E90.2718
G1 X40.17 Y17.276 E90.29807
G1 X40.96 Y17.293 E90.32435
G1 X41.422 Y17.34 E90.33979
G1 X43.068 Y17.557 E90.39501
G1 X43.845 Y17.7 E90.42129
G1 X44.603 Y17.92 E90.44754
G1 X45.038 Y18.086 E90.46303
G1 X46.566 Y18.72 E90.51805
G1 X47.279 Y19.059 E90.54431
G1 X47.955 Y19.468 E90.57059
G1 X48.324 Y19.735 E90.58574
G1 X49.641 Y20.745 E90.64094
G1 X50.409 Y21.419 E90.67492
G1 X198.581 Y169.591 E97.64448
G1 X199.255 Y170.359 E97.67847
G1 X200.266 Y171.677 E97.73371
