;FLAVOR:Marlin
;TIME:44337
;Filament used: 31.5194m
;Layer height: 0.2
;MINX:11.3
;MINY:39.875
;MINZ:0.2
;MAXX:208.7
;MAXY:180.125
;MAXZ:34.6
;Generated with Cura_SteamEngine 4.11.0
M140 S50
M105
M190 S50
M104 S200
M105
M109 S200
M82 ;absolute extrusion mode
; Ender 3 Custom Start G-code
G92 E0 ; Reset Extruder
G28 ; Home all axes
G29 ; Auto bed-level (BL-Touch)
G1 Z2.0 F3000 ; Move Z Axis up little to prevent scratching of Heat Bed
G1 X0.1 Y20 Z0.3 F5000.0 ; Move to start position
G1 X0.1 Y200.0 Z0.3 F1500.0 E15 ; Draw the first line
G1 X0.4 Y200.0 Z0.3 F5000.0 ; Move to side a little
G1 X0.4 Y20 Z0.3 F1500.0 E30 ; Draw the second line
G92 E0 ; Reset Extruder
G1 Z2.0 F3000 ; Move Z Axis up little to prevent scratching of Heat Bed
G1 X5 Y20 Z0.3 F5000.0 ; Move over to prevent blob squish
G92 E0
G92 E0
G1 F2700 E-5
;LAYER_COUNT:173
;LAYER:0
M107
G0 F6000 X17.319 Y40.634 Z0.2
;TYPE:SKIRT
G1 F2700 E0
G1 F1200 X18.15 Y40.33 E0.02943
G1 X19.005 Y40.102 E0.05886
G1 X19.878 Y39.952 E0.08832
G1 X21.1 Y39.875 E0.12905
G1 X198.9 Y39.875 E6.0427
G1 X199.784 Y39.915 E6.07213
G1 X200.661 Y40.035 E6.10157
G1 X201.524 Y40.233 E6.13102
G1 X202.365 Y40.508 E6.16045
G1 X203.178 Y40.858 E6.18989
G1 X203.957 Y41.28 E6.21936
G1 X204.693 Y41.771 E6.24879
G1 X205.383 Y42.326 E6.27824
G1 X206.02 Y42.941 E6.30769
G1 X206.598 Y43.611 E6.33712
G1 X207.114 Y44.33 E6.36655
G1 X207.563 Y45.093 E6.396
G1 X207.941 Y45.894 E6.42546
G1 X208.245 Y46.725 E6.45489
G1 X208.473 Y47.58 E6.48432
G1 X208.623 Y48.453 E6.51378
G1 X208.7 Y49.675 E6.5545
G1 X208.7 Y170.325 E10.56734
G1 X208.66 Y171.209 E10.59677
G1 X208.54 Y172.086 E10.62621
G1 X208.342 Y172.949 E10.65566
G1 X208.067 Y173.79 E10.68509
G1 X207.717 Y174.603 E10.71453
G1 X207.295 Y175.382 E10.744
G1 X206.804 Y176.118 E10.77343
G1 X206.249 Y176.808 E10.80288
G1 X205.634 Y177.445 E10.83233
G1 X204.964 Y178.023 E10.86176
G1 X204.245 Y178.539 E10.89119
G1 X203.482 Y178.988 E10.92064
G1 X202.681 Y179.366 E10.9501
G1 X201.85 Y179.67 E10.97953
G1 X200.995 Y179.898 E11.00896
G1 X200.122 Y180.048 E11.03842
G1 X198.9 Y180.125 E11.07914
G1 X21.1 Y180.125 E16.9928
G1 X20.216 Y180.085 E17.02223
G1 X19.339 Y179.965 E17.05167
G1 X18.476 Y179.767 E17.08112
G1 X17.635 Y179.492 E17.11055
G1 X16.822 Y179.142 E17.13999
G1 X16.043 Y178.72 E17.16946
G1 X15.307 Y178.229 E17.19888
G1 X14.617 Y177.674 E17.22833
G1 X13.98 Y177.059 E17.25778
G1 X13.402 Y176.389 E17.28721
G1 X12.886 Y175.67 E17.31665
G1 X12.437 Y174.907 E17.3461
G1 X12.059 Y174.106 E17.37555
G1 X11.755 Y173.275 E17.40498
G1 X11.527 Y172.42 E17.43442
G1 X11.377 Y171.547 E17.46388
G1 X11.3 Y170.325 E17.5046
G1 X11.3 Y49.675 E21.51744
G1 X11.34 Y48.791 E21.54687
G1 X11.46 Y47.914 E21.57631
G1 X11.658 Y47.051 E21.60576
G1 X11.933 Y46.21 E21.63519
G1 X12.283 Y45.397 E21.66463
G1 X12.705 Y44.618 E21.6941
G1 X13.196 Y43.882 E21.72352
G1 X13.751 Y43.192 E21.75297
G1 X14.366 Y42.555 E21.78242
G1 X15.036 Y41.977 E21.81185
G1 X15.755 Y41.461 E21.84129
G1 X16.518 Y41.012 E21.87074
G1 X17.319 Y40.634 E21.90019
G0 F6000 X17.689 Y40.916
G1 F1200 X18.51 Y40.639 E21.92901
G1 X19.354 Y40.439 E21.95786
G1 X20.212 Y40.317 E21.98669
G1 X21.1 Y40.275 E22.01625
G1 X198.9 Y40.275 E27.92991
G1 X199.766 Y40.315 E27.95874
G1 X200.625 Y40.435 E27.98759
G1 X201.469 Y40.633 E28.01642
G1 X202.291 Y40.908 E28.04525
G1 X203.084 Y41.258 E28.07408
G1 X203.842 Y41.679 E28.10292
G1 X204.557 Y42.168 E28.13173
G1 X205.225 Y42.721 E28.16057
G1 X205.839 Y43.334 E28.18943
G1 X206.394 Y44 E28.21827
G1 X206.884 Y44.714 E28.24707
G1 X207.308 Y45.471 E28.27593
G1 X207.659 Y46.264 E28.30477
G1 X207.936 Y47.085 E28.33359
G1 X208.136 Y47.929 E28.36244
G1 X208.258 Y48.787 E28.39126
G1 X208.3 Y49.675 E28.42083
G1 X208.3 Y170.325 E32.43366
G1 X208.26 Y171.191 E32.4625
G1 X208.14 Y172.05 E32.49135
G1 X207.942 Y172.894 E32.52018
G1 X207.667 Y173.716 E32.54901
G1 X207.317 Y174.509 E32.57784
G1 X206.896 Y175.267 E32.60668
G1 X206.407 Y175.982 E32.63549
G1 X205.854 Y176.65 E32.66433
G1 X205.241 Y177.264 E32.69319
G1 X204.575 Y177.819 E32.72202
G1 X203.861 Y178.309 E32.75083
G1 X203.104 Y178.733 E32.77968
G1 X202.311 Y179.084 E32.80853
G1 X201.49 Y179.361 E32.83735
G1 X200.646 Y179.561 E32.8662
G1 X199.788 Y179.683 E32.89502
G1 X198.9 Y179.725 E32.92459
G1 X21.1 Y179.725 E38.83824
G1 X20.234 Y179.685 E38.86707
G1 X19.375 Y179.565 E38.89592
G1 X18.531 Y179.367 E38.92476
G1 X17.709 Y179.092 E38.95358
G1 X16.916 Y178.742 E38.98241
G1 X16.158 Y178.321 E39.01125
G1 X15.443 Y177.832 E39.04006
G1 X14.775 Y177.279 E39.06891
G1 X14.161 Y176.666 E39.09776
G1 X13.606 Y176 E39.1266
G1 X13.116 Y175.286 E39.1554
G1 X12.692 Y174.529 E39.18426
G1 X12.341 Y173.736 E39.2131
G1 X12.064 Y172.915 E39.24192
G1 X11.864 Y172.071 E39.27077
G1 X11.742 Y171.213 E39.2996
G1 X11.7 Y170.325 E39.32916
G1 X11.7 Y49.675 E43.342
G1 X11.74 Y48.809 E43.37083
G1 X11.86 Y47.95 E43.39968
G1 X12.058 Y47.106 E43.42851
G1 X12.333 Y46.284 E43.45734
G1 X12.683 Y45.491 E43.48617
G1 X13.104 Y44.733 E43.51501
G1 X13.593 Y44.018 E43.54382
G1 X14.146 Y43.35 E43.57267
G1 X14.759 Y42.736 E43.60152
G1 X15.425 Y42.181 E43.63036
G1 X16.139 Y41.691 E43.65916
G1 X16.896 Y41.267 E43.68802
G1 X17.689 Y40.916 E43.71686
G0 F6000 X17.272 Y41.53
G1 F1200 X18.056 Y41.205 E43.74509
G1 X18.867 Y40.956 E43.77331
G1 X19.698 Y40.785 E43.80152
G1 X20.541 Y40.692 E43.82973
G1 X21.1 Y40.675 E43.84833
G1 X198.9 Y40.675 E49.76199
G1 X199.747 Y40.715 E49.79019
G1 X200.587 Y40.835 E49.81841
G1 X201.412 Y41.033 E49.84663
G1 X202.215 Y41.308 E49.87486
G1 X202.988 Y41.657 E49.90307
G1 X203.724 Y42.077 E49.93125
G1 X204.418 Y42.565 E49.95947
G1 X205.063 Y43.116 E49.98769
G1 X205.653 Y43.726 E50.01591
G1 X206.183 Y44.388 E50.04412
G1 X206.649 Y45.097 E50.07234
G1 X207.045 Y45.847 E50.10055
G1 X207.37 Y46.631 E50.12877
G1 X207.619 Y47.442 E50.15699
G1 X207.79 Y48.273 E50.18521
G1 X207.883 Y49.116 E50.21342
G1 X207.9 Y49.675 E50.23202
G1 X207.9 Y170.325 E54.24485
G1 X207.86 Y171.172 E54.27306
G1 X207.74 Y172.012 E54.30128
G1 X207.542 Y172.837 E54.3295
G1 X207.267 Y173.64 E54.35773
G1 X206.918 Y174.413 E54.38594
G1 X206.498 Y175.149 E54.41412
G1 X206.01 Y175.843 E54.44234
G1 X205.459 Y176.488 E54.47055
G1 X204.849 Y177.078 E54.49878
G1 X204.187 Y177.608 E54.52699
G1 X203.478 Y178.074 E54.5552
G1 X202.728 Y178.47 E54.58341
G1 X201.944 Y178.795 E54.61164
G1 X201.133 Y179.044 E54.63986
G1 X200.302 Y179.215 E54.66808
G1 X199.459 Y179.308 E54.69628
G1 X198.9 Y179.325 E54.71489
G1 X21.1 Y179.325 E60.62854
G1 X20.253 Y179.285 E60.65674
G1 X19.413 Y179.165 E60.68496
G1 X18.588 Y178.967 E60.71318
G1 X17.785 Y178.692 E60.74141
G1 X17.012 Y178.343 E60.76962
G1 X16.276 Y177.923 E60.79781
G1 X15.582 Y177.435 E60.82602
G1 X14.937 Y176.884 E60.85424
G1 X14.347 Y176.274 E60.88246
G1 X13.817 Y175.612 E60.91067
G1 X13.351 Y174.903 E60.93889
G1 X12.955 Y174.153 E60.9671
G1 X12.63 Y173.369 E60.99532
G1 X12.381 Y172.558 E61.02354
G1 X12.21 Y171.727 E61.05176
G1 X12.117 Y170.884 E61.07997
G1 X12.1 Y170.325 E61.09857
G1 X12.1 Y49.675 E65.1114
G1 X12.14 Y48.828 E65.13961
G1 X12.26 Y47.988 E65.16783
G1 X12.458 Y47.163 E65.19605
G1 X12.733 Y46.36 E65.22428
G1 X13.082 Y45.587 E65.25249
G1 X13.502 Y44.851 E65.28067
G1 X13.99 Y44.157 E65.30889
G1 X14.541 Y43.512 E65.33711
G1 X15.151 Y42.922 E65.36533
G1 X15.813 Y42.392 E65.39354
G1 X16.522 Y41.926 E65.42176
G1 X17.272 Y41.53 E65.44996
G0 F6000 X17.646 Y41.799
G1 F1200 X18.421 Y41.503 E65.47756
G1 X19.22 Y41.283 E65.50512
G1 X20.037 Y41.141 E65.5327
G1 X21.1 Y41.075 E65.56813
G1 X198.9 Y41.075 E71.48178
G1 X199.728 Y41.115 E71.50935
G1 X200.549 Y41.235 E71.53695
G1 X201.354 Y41.433 E71.56452
G1 X202.136 Y41.707 E71.59208
G1 X202.889 Y42.056 E71.61968
G1 X203.604 Y42.476 E71.64726
G1 X204.275 Y42.962 E71.67482
G1 X204.897 Y43.511 E71.70241
G1 X205.463 Y44.117 E71.72999
G1 X205.968 Y44.775 E71.75758
G1 X206.407 Y45.478 E71.78515
G1 X206.776 Y46.221 E71.81274
G1 X207.072 Y46.996 E71.84033
G1 X207.292 Y47.795 E71.86789
G1 X207.434 Y48.612 E71.89548
G1 X207.5 Y49.675 E71.9309
G1 X207.5 Y170.325 E75.94373
G1 X207.46 Y171.153 E75.97131
G1 X207.34 Y171.974 E75.9989
G1 X207.142 Y172.779 E76.02648
G1 X206.868 Y173.561 E76.05404
G1 X206.519 Y174.314 E76.08164
G1 X206.099 Y175.029 E76.10922
G1 X205.613 Y175.7 E76.13678
G1 X205.064 Y176.322 E76.16437
G1 X204.458 Y176.888 E76.19195
G1 X203.8 Y177.393 E76.21954
G1 X203.097 Y177.832 E76.2471
G1 X202.354 Y178.201 E76.2747
G1 X201.579 Y178.497 E76.30229
G1 X200.78 Y178.717 E76.32985
G1 X199.963 Y178.859 E76.35743
G1 X198.9 Y178.925 E76.39286
G1 X21.1 Y178.925 E82.30651
G1 X20.272 Y178.885 E82.33408
G1 X19.451 Y178.765 E82.36168
G1 X18.646 Y178.567 E82.38925
G1 X17.864 Y178.293 E82.41681
G1 X17.111 Y177.944 E82.44441
G1 X16.396 Y177.524 E82.47199
G1 X15.725 Y177.038 E82.49955
G1 X15.103 Y176.489 E82.52714
G1 X14.537 Y175.883 E82.55472
G1 X14.032 Y175.225 E82.58231
G1 X13.593 Y174.522 E82.60988
G1 X13.224 Y173.779 E82.63747
G1 X12.928 Y173.004 E82.66506
G1 X12.708 Y172.205 E82.69263
G1 X12.566 Y171.388 E82.72021
G1 X12.5 Y170.325 E82.75563
G1 X12.5 Y49.675 E86.76847
G1 X12.54 Y48.847 E86.79604
G1 X12.66 Y48.026 E86.82363
G1 X12.858 Y47.221 E86.85121
G1 X13.132 Y46.439 E86.87877
G1 X13.481 Y45.686 E86.90637
G1 X13.901 Y44.971 E86.93395
G1 X14.387 Y44.3 E86.96151
G1 X14.936 Y43.678 E86.9891
G1 X15.542 Y43.112 E87.01668
G1 X16.2 Y42.607 E87.04427
G1 X16.903 Y42.168 E87.07183
G1 X17.646 Y41.799 E87.09943
G0 F6000 X18.017 Y42.076
G1 F1200 X18.782 Y41.81 E87.12636
G1 X19.569 Y41.619 E87.1533
G1 X20.371 Y41.507 E87.18023
G1 X21.1 Y41.475 E87.2045
G1 X198.9 Y41.475 E93.11816
G1 X199.709 Y41.515 E93.1451
G1 X200.51 Y41.635 E93.17204
G1 X201.295 Y41.832 E93.19895
G1 X202.056 Y42.107 E93.22587
G1 X202.787 Y42.455 E93.25279
G1 X203.481 Y42.874 E93.27976
G1 X204.129 Y43.359 E93.30668
G1 X204.726 Y43.905 E93.33359
G1 X205.267 Y44.508 E93.36053
G1 X205.746 Y45.161 E93.38747
G1 X206.157 Y45.858 E93.41438
G1 X206.499 Y46.592 E93.44131
G1 X206.765 Y47.357 E93.46825
G1 X206.956 Y48.144 E93.49519
G1 X207.068 Y48.946 E93.52212
G1 X207.1 Y49.675 E93.54639
G1 X207.1 Y170.325 E97.55922
G1 X207.06 Y171.134 E97.58617
G1 X206.94 Y171.935 E97.6131
G1 X206.743 Y172.72 E97.64002
G1 X206.468 Y173.481 E97.66694
G1 X206.12 Y174.212 E97.69386
G1 X205.701 Y174.906 E97.72083
G1 X205.216 Y175.554 E97.74775
G1 X204.67 Y176.151 E97.77466
G1 X204.067 Y176.692 E97.8016
G1 X203.414 Y177.171 E97.82854
G1 X202.717 Y177.582 E97.85545
G1 X201.983 Y177.924 E97.88238
G1 X201.218 Y178.19 E97.90932
G1 X200.431 Y178.381 E97.93626
G1 X199.629 Y178.493 E97.96319
G1 X198.9 Y178.525 E97.98746
G1 X21.1 Y178.525 E103.90111
G1 X20.291 Y178.485 E103.92805
G1 X19.49 Y178.365 E103.95499
G1 X18.705 Y178.168 E103.98191
G1 X17.944 Y177.893 E104.00882
G1 X17.213 Y177.545 E104.03575
G1 X16.519 Y177.126 E104.06271
G1 X15.871 Y176.641 E104.08963
G1 X15.274 Y176.095 E104.11654
G1 X14.733 Y175.492 E104.14349
G1 X14.254 Y174.839 E104.17042
G1 X13.843 Y174.142 E104.19733
G1 X13.501 Y173.408 E104.22427
G1 X13.235 Y172.643 E104.25121
G1 X13.044 Y171.856 E104.27814
G1 X12.932 Y171.054 E104.30507
G1 X12.9 Y170.325 E104.32934
G1 X12.9 Y49.675 E108.34218
G1 X12.94 Y48.866 E108.36912
G1 X13.06 Y48.065 E108.39606
G1 X13.257 Y47.28 E108.42298
G1 X13.532 Y46.519 E108.44989
G1 X13.88 Y45.788 E108.47682
G1 X14.299 Y45.094 E108.50378
G1 X14.784 Y44.446 E108.5307
G1 X15.33 Y43.849 E108.55761
G1 X15.933 Y43.308 E108.58456
G1 X16.586 Y42.829 E108.61149
G1 X17.283 Y42.418 E108.6384
G1 X18.017 Y42.076 E108.66534
G0 F6000 X18.386 Y42.362
G1 F1200 X19.139 Y42.125 E108.69159
G1 X19.913 Y41.966 E108.71787
G1 X20.698 Y41.885 E108.74412
G1 X21.1 Y41.875 E108.7575
G1 X198.9 Y41.875 E114.67115
G1 X199.689 Y41.915 E114.69742
G1 X200.469 Y42.034 E114.72367
G1 X201.234 Y42.232 E114.74995
G1 X201.974 Y42.506 E114.77619
G1 X202.683 Y42.854 E114.80246
G1 X203.354 Y43.272 E114.82876
G1 X203.978 Y43.755 E114.855
G1 X204.551 Y44.298 E114.88126
G1 X205.066 Y44.897 E114.90753
G1 X205.517 Y45.545 E114.93379
G1 X205.901 Y46.236 E114.96008
G1 X206.213 Y46.961 E114.98634
G1 X206.45 Y47.714 E115.01259
G1 X206.609 Y48.488 E115.03887
G1 X206.69 Y49.273 E115.06512
G1 X206.7 Y49.675 E115.0785
G1 X206.7 Y170.325 E119.09133
G1 X206.66 Y171.114 E119.11761
G1 X206.541 Y171.894 E119.14385
G1 X206.343 Y172.659 E119.17013
G1 X206.069 Y173.399 E119.19638
G1 X205.721 Y174.108 E119.22265
G1 X205.303 Y174.779 E119.24894
G1 X204.82 Y175.403 E119.27519
G1 X204.277 Y175.976 E119.30144
G1 X203.678 Y176.491 E119.32772
G1 X203.03 Y176.942 E119.35397
G1 X202.339 Y177.326 E119.38027
G1 X201.614 Y177.638 E119.40652
G1 X200.861 Y177.875 E119.43278
G1 X200.087 Y178.034 E119.45906
G1 X199.302 Y178.115 E119.4853
G1 X198.9 Y178.125 E119.49868
G1 X21.1 Y178.125 E125.41233
G1 X20.311 Y178.085 E125.43861
G1 X19.531 Y177.966 E125.46485
G1 X18.766 Y177.768 E125.49113
G1 X18.026 Y177.494 E125.51738
G1 X17.317 Y177.146 E125.54365
G1 X16.646 Y176.728 E125.56994
G1 X16.022 Y176.245 E125.59619
G1 X15.449 Y175.702 E125.62244
G1 X14.934 Y175.103 E125.64872
G1 X14.483 Y174.455 E125.67497
G1 X14.099 Y173.764 E125.70127
G1 X13.787 Y173.039 E125.72752
G1 X13.55 Y172.286 E125.75378
G1 X13.391 Y171.512 E125.78006
G1 X13.31 Y170.727 E125.8063
G1 X13.3 Y170.325 E125.81968
G1 X13.3 Y49.675 E129.83251
G1 X13.34 Y48.886 E129.85879
G1 X13.459 Y48.106 E129.88503
G1 X13.657 Y47.341 E129.91132
G1 X13.931 Y46.601 E129.93756
G1 X14.279 Y45.892 E129.96383
G1 X14.697 Y45.221 E129.99012
G1 X15.18 Y44.597 E130.01637
G1 X15.723 Y44.024 E130.04263
G1 X16.322 Y43.509 E130.0689
G1 X16.97 Y43.058 E130.09516
G1 X17.661 Y42.674 E130.12145
G1 X18.386 Y42.362 E130.1477
G0 F6000 X18.036 Y42.939
G1 F1200 X18.751 Y42.658 E130.17325
G1 X19.493 Y42.452 E130.19887
G1 X20.251 Y42.324 E130.22443
G1 X21.1 Y42.275 E130.25272
G1 X198.9 Y42.275 E136.16637
G1 X199.668 Y42.315 E136.19195
G1 X200.428 Y42.434 E136.21754
G1 X201.171 Y42.632 E136.24311
G1 X201.89 Y42.906 E136.2687
G1 X202.576 Y43.253 E136.29427
G1 X203.223 Y43.669 E136.31986
G1 X203.823 Y44.15 E136.34543
G1 X204.37 Y44.691 E136.37102
G1 X204.858 Y45.286 E136.39662
G1 X205.281 Y45.928 E136.42219
G1 X205.636 Y46.611 E136.44779
G1 X205.917 Y47.326 E136.47334
G1 X206.123 Y48.068 E136.49895
G1 X206.251 Y48.826 E136.52452
G1 X206.3 Y49.675 E136.55281
G1 X206.3 Y170.325 E140.56564
G1 X206.26 Y171.093 E140.59122
G1 X206.141 Y171.853 E140.6168
G1 X205.943 Y172.596 E140.64238
G1 X205.669 Y173.315 E140.66797
G1 X205.322 Y174.001 E140.69354
G1 X204.906 Y174.648 E140.71912
G1 X204.425 Y175.248 E140.7447
G1 X203.884 Y175.795 E140.77029
G1 X203.289 Y176.283 E140.79588
G1 X202.647 Y176.706 E140.82146
G1 X201.964 Y177.061 E140.84706
G1 X201.249 Y177.342 E140.87261
G1 X200.507 Y177.548 E140.89822
G1 X199.749 Y177.676 E140.92379
G1 X198.9 Y177.725 E140.95207
G1 X21.1 Y177.725 E146.86573
G1 X20.332 Y177.685 E146.8913
G1 X19.572 Y177.566 E146.91689
G1 X18.829 Y177.368 E146.94247
G1 X18.11 Y177.094 E146.96806
G1 X17.424 Y176.747 E146.99363
G1 X16.777 Y176.331 E147.01921
G1 X16.177 Y175.85 E147.04479
G1 X15.63 Y175.309 E147.07038
G1 X15.142 Y174.714 E147.09597
G1 X14.719 Y174.072 E147.12154
G1 X14.364 Y173.389 E147.14714
G1 X14.083 Y172.674 E147.17269
G1 X13.877 Y171.932 E147.19831
G1 X13.749 Y171.174 E147.22388
G1 X13.7 Y170.325 E147.25216
G1 X13.7 Y49.675 E151.265
G1 X13.74 Y48.907 E151.29057
G1 X13.859 Y48.147 E151.31616
G1 X14.057 Y47.404 E151.34173
G1 X14.331 Y46.685 E151.36733
G1 X14.678 Y45.999 E151.3929
G1 X15.094 Y45.352 E151.41848
G1 X15.575 Y44.752 E151.44406
G1 X16.116 Y44.205 E151.46964
G1 X16.711 Y43.717 E151.49524
G1 X17.353 Y43.294 E151.52081
G1 X18.036 Y42.939 E151.54641
G0 F6000 X18.408 Y43.213
G1 F1200 X19.113 Y42.963 E151.57129
G1 X19.841 Y42.789 E151.59619
G1 X20.583 Y42.694 E151.62107
G1 X21.1 Y42.675 E151.63827
G1 X198.9 Y42.675 E157.55193
G1 X199.647 Y42.715 E157.57681
G1 X200.385 Y42.834 E157.60167
G1 X201.107 Y43.032 E157.62657
G1 X201.803 Y43.305 E157.65144
G1 X202.466 Y43.652 E157.67633
G1 X203.089 Y44.067 E157.70122
G1 X203.663 Y44.546 E157.72609
G1 X204.184 Y45.083 E157.75097
G1 X204.643 Y45.673 E157.77584
G1 X205.038 Y46.309 E157.80074
