;FLAVOR:Marlin
;TIME:24883
;Filament used: 18.2911m
;Layer height: 0.2
;MINX:11.236
;MINY:57.841
;MINZ:0.2
;MAXX:208.764
;MAXY:162.159
;MAXZ:3.2
;Generated with Cura_SteamEngine 4.11.0
M140 S50
M105
M190 S50
M104 S200
M105
M109 S200
M82 ;absolute extrusion mode
; Ender 3 Custom Start G-code
G92 E0 ; Reset Extruder
G28 ; Home all axes
G29 ; Auto bed-level (BL-Touch)
G1 Z2.0 F3000 ; Move Z Axis up little to prevent scratching of Heat Bed
G1 X0.1 Y20 Z0.3 F5000.0 ; Move to start position
G1 X0.1 Y200.0 Z0.3 F1500.0 E15 ; Draw the first line
G1 X0.4 Y200.0 Z0.3 F5000.0 ; Move to side a little
G1 X0.4 Y20 Z0.3 F1500.0 E30 ; Draw the second line
G92 E0 ; Reset Extruder
G1 Z2.0 F3000 ; Move Z Axis up little to prevent scratching of Heat Bed
G1 X5 Y20 Z0.3 F5000.0 ; Move over to prevent blob squish
G92 E0
G92 E0
G1 F2700 E-5
;LAYER_COUNT:16
;LAYER:0
M107
G0 F6000 X18.214 Y58.296 Z0.2
;TYPE:SKIRT
G1 F2700 E0
G1 F1200 X19.069 Y58.068 E0.02943
G1 X19.942 Y57.918 E0.05889
G1 X21.164 Y57.841 E0.09962
G1 X198.964 Y57.841 E6.01327
G1 X199.848 Y57.881 E6.0427
G1 X200.725 Y58.001 E6.07214
G1 X201.588 Y58.199 E6.10159
G1 X202.429 Y58.474 E6.13102
G1 X203.242 Y58.824 E6.16046
G1 X204.021 Y59.246 E6.18993
G1 X204.757 Y59.737 E6.21935
G1 X205.447 Y60.292 E6.24881
G1 X206.084 Y60.907 E6.27826
G1 X206.662 Y61.577 E6.30769
G1 X207.178 Y62.296 E6.33712
G1 X207.627 Y63.059 E6.36657
G1 X208.005 Y63.86 E6.39603
G1 X208.309 Y64.691 E6.42546
G1 X208.537 Y65.546 E6.45489
G1 X208.687 Y66.419 E6.48435
G1 X208.764 Y67.641 E6.52507
G1 X208.763 Y94.192 E7.40816
G1 X208.723 Y95.077 E7.43763
G1 X208.603 Y95.954 E7.46707
G1 X208.405 Y96.816 E7.49649
G1 X208.13 Y97.658 E7.52595
G1 X207.78 Y98.471 E7.55539
G1 X207.523 Y98.944 E7.57329
G1 X207.58 Y99.046 E7.57718
G1 X207.944 Y99.853 E7.60662
G1 X208.233 Y100.689 E7.63604
G1 X208.446 Y101.549 E7.66551
G1 X208.58 Y102.424 E7.69495
G1 X208.636 Y103.47 E7.72979
G1 X208.636 Y152.359 E9.35585
G1 X208.596 Y153.243 E9.38528
G1 X208.476 Y154.12 E9.41472
G1 X208.278 Y154.983 E9.44417
G1 X208.003 Y155.824 E9.4736
G1 X207.653 Y156.637 E9.50304
G1 X207.231 Y157.416 E9.53251
G1 X206.74 Y158.152 E9.56193
G1 X206.185 Y158.842 E9.59139
G1 X205.57 Y159.479 E9.62083
G1 X204.9 Y160.057 E9.65027
G1 X204.181 Y160.573 E9.6797
G1 X203.418 Y161.022 E9.70915
G1 X202.617 Y161.4 E9.73861
G1 X201.786 Y161.704 E9.76804
G1 X200.931 Y161.932 E9.79747
G1 X200.058 Y162.082 E9.82693
G1 X198.836 Y162.159 E9.86765
G1 X21.036 Y162.159 E15.7813
G1 X20.152 Y162.119 E15.81074
G1 X19.275 Y161.999 E15.84018
G1 X18.412 Y161.801 E15.86963
G1 X17.571 Y161.526 E15.89906
G1 X16.758 Y161.176 E15.9285
G1 X15.979 Y160.754 E15.95796
G1 X15.243 Y160.263 E15.98739
G1 X14.553 Y159.708 E16.01684
G1 X13.916 Y159.093 E16.04629
G1 X13.338 Y158.423 E16.07572
G1 X12.822 Y157.704 E16.10516
G1 X12.373 Y156.941 E16.1346
G1 X11.995 Y156.14 E16.16406
G1 X11.691 Y155.309 E16.19349
G1 X11.463 Y154.454 E16.22292
G1 X11.313 Y153.581 E16.25239
G1 X11.236 Y152.359 E16.29311
G1 X11.236 Y101.972 E17.96899
G1 X11.276 Y101.088 E17.99842
G1 X11.396 Y100.211 E18.02786
G1 X11.594 Y99.348 E18.05731
G1 X11.869 Y98.507 E18.08674
G1 X12.219 Y97.694 E18.11618
G1 X12.641 Y96.915 E18.14565
G1 X12.728 Y96.785 E18.15085
G1 X12.52 Y96.435 E18.16439
G1 X12.139 Y95.636 E18.19383
G1 X11.831 Y94.806 E18.22328
G1 X11.599 Y93.952 E18.25271
G1 X11.446 Y93.08 E18.28216
G1 X11.364 Y91.817 E18.32425
G1 X11.364 Y67.641 E19.12835
G1 X11.404 Y66.757 E19.15778
G1 X11.524 Y65.88 E19.18722
G1 X11.722 Y65.017 E19.21667
G1 X11.997 Y64.176 E19.2461
G1 X12.347 Y63.363 E19.27554
G1 X12.769 Y62.584 E19.30501
G1 X13.26 Y61.848 E19.33444
G1 X13.815 Y61.158 E19.36389
G1 X14.43 Y60.521 E19.39334
G1 X15.1 Y59.943 E19.42277
G1 X15.819 Y59.427 E19.4522
G1 X16.582 Y58.978 E19.48165
G1 X17.383 Y58.6 E19.51111
G1 X18.214 Y58.296 E19.54054
G0 F6000 X18.574 Y58.605
G1 F1200 X19.418 Y58.405 E19.56939
G1 X20.276 Y58.283 E19.59821
G1 X21.164 Y58.241 E19.62778
G1 X198.964 Y58.241 E25.54143
G1 X199.83 Y58.281 E25.57027
G1 X200.689 Y58.401 E25.59911
G1 X201.533 Y58.599 E25.62795
G1 X202.355 Y58.874 E25.65678
G1 X203.148 Y59.224 E25.68561
G1 X203.906 Y59.645 E25.71444
G1 X204.621 Y60.134 E25.74326
G1 X205.289 Y60.687 E25.7721
G1 X205.903 Y61.3 E25.80096
G1 X206.458 Y61.966 E25.82979
G1 X206.948 Y62.68 E25.85859
G1 X207.372 Y63.437 E25.88745
G1 X207.723 Y64.23 E25.91629
G1 X208 Y65.051 E25.94511
G1 X208.2 Y65.895 E25.97396
G1 X208.322 Y66.753 E26.00279
G1 X208.364 Y67.641 E26.03235
G1 X208.363 Y94.192 E26.91544
G1 X208.323 Y95.058 E26.94428
G1 X208.203 Y95.917 E26.97313
G1 X208.005 Y96.761 E27.00196
G1 X207.73 Y97.583 E27.03079
G1 X207.38 Y98.376 E27.05962
G1 X207.065 Y98.944 E27.08122
G1 X207.356 Y99.5 E27.10209
G1 X207.686 Y100.302 E27.13094
G1 X207.94 Y101.13 E27.15974
G1 X208.117 Y101.979 E27.18859
G1 X208.215 Y102.841 E27.21744
G1 X208.236 Y103.47 E27.23838
G1 X208.236 Y152.359 E28.86443
G1 X208.196 Y153.225 E28.89327
G1 X208.076 Y154.084 E28.92211
G1 X207.878 Y154.928 E28.95095
G1 X207.603 Y155.75 E28.97978
G1 X207.253 Y156.543 E29.00861
G1 X206.832 Y157.301 E29.03744
G1 X206.343 Y158.016 E29.06626
G1 X205.79 Y158.684 E29.0951
G1 X205.177 Y159.298 E29.12396
G1 X204.511 Y159.853 E29.15279
G1 X203.797 Y160.343 E29.18159
G1 X203.04 Y160.767 E29.21045
G1 X202.247 Y161.118 E29.23929
G1 X201.426 Y161.395 E29.26811
G1 X200.582 Y161.595 E29.29696
G1 X199.724 Y161.717 E29.32579
G1 X198.836 Y161.759 E29.35535
G1 X21.036 Y161.759 E35.26901
G1 X20.17 Y161.719 E35.29784
G1 X19.311 Y161.599 E35.32669
G1 X18.467 Y161.401 E35.35552
G1 X17.645 Y161.126 E35.38435
G1 X16.852 Y160.776 E35.41318
G1 X16.094 Y160.355 E35.44202
G1 X15.379 Y159.866 E35.47083
G1 X14.711 Y159.313 E35.49967
G1 X14.097 Y158.7 E35.52853
G1 X13.542 Y158.034 E35.55737
G1 X13.052 Y157.32 E35.58617
G1 X12.628 Y156.563 E35.61503
G1 X12.277 Y155.77 E35.64387
G1 X12 Y154.949 E35.67269
G1 X11.8 Y154.105 E35.70154
G1 X11.678 Y153.247 E35.73036
G1 X11.636 Y152.359 E35.75993
G1 X11.636 Y101.972 E37.43581
G1 X11.676 Y101.106 E37.46464
G1 X11.796 Y100.247 E37.49349
G1 X11.994 Y99.403 E37.52232
G1 X12.269 Y98.581 E37.55115
G1 X12.619 Y97.788 E37.57998
G1 X13.04 Y97.03 E37.60882
G1 X13.198 Y96.8 E37.6181
G1 X12.815 Y96.136 E37.6436
G1 X12.452 Y95.348 E37.67245
G1 X12.164 Y94.531 E37.70127
G1 X11.952 Y93.69 E37.73011
G1 X11.819 Y92.833 E37.75896
G1 X11.764 Y91.817 E37.7928
G1 X11.764 Y67.641 E38.5969
G1 X11.804 Y66.775 E38.62573
G1 X11.924 Y65.916 E38.65458
G1 X12.122 Y65.072 E38.68341
G1 X12.397 Y64.25 E38.71224
G1 X12.747 Y63.457 E38.74107
G1 X13.168 Y62.699 E38.76991
G1 X13.657 Y61.984 E38.79872
G1 X14.21 Y61.316 E38.82756
G1 X14.823 Y60.702 E38.85642
G1 X15.489 Y60.147 E38.88526
G1 X16.203 Y59.657 E38.91406
G1 X16.96 Y59.233 E38.94292
G1 X17.753 Y58.882 E38.97176
G1 X18.574 Y58.605 E39.00058
G0 F6000 X18.12 Y59.171
G1 F1200 X18.931 Y58.922 E39.0288
G1 X19.762 Y58.751 E39.05701
G1 X20.605 Y58.658 E39.08522
G1 X21.164 Y58.641 E39.10382
G1 X198.964 Y58.641 E45.01748
G1 X199.811 Y58.681 E45.04568
G1 X200.651 Y58.801 E45.0739
G1 X201.476 Y58.999 E45.10212
G1 X202.279 Y59.274 E45.13035
G1 X203.052 Y59.623 E45.15856
G1 X203.788 Y60.043 E45.18674
G1 X204.482 Y60.531 E45.21496
G1 X205.127 Y61.082 E45.24318
G1 X205.717 Y61.692 E45.2714
G1 X206.247 Y62.354 E45.29961
G1 X206.713 Y63.063 E45.32783
G1 X207.109 Y63.813 E45.35604
G1 X207.434 Y64.597 E45.38426
G1 X207.683 Y65.408 E45.41248
G1 X207.854 Y66.239 E45.4407
G1 X207.947 Y67.082 E45.46891
G1 X207.964 Y67.641 E45.48751
G1 X207.963 Y94.192 E46.3706
G1 X207.923 Y95.04 E46.39883
G1 X207.803 Y95.88 E46.42706
G1 X207.605 Y96.704 E46.45524
G1 X207.33 Y97.507 E46.48347
G1 X206.981 Y98.28 E46.51168
G1 X206.604 Y98.942 E46.53702
G1 X206.752 Y99.188 E46.54657
G1 X207.12 Y99.952 E46.57477
G1 X207.414 Y100.748 E46.603
G1 X207.633 Y101.567 E46.63119
G1 X207.773 Y102.404 E46.65942
G1 X207.836 Y103.47 E46.69494
G1 X207.836 Y152.359 E48.32099
G1 X207.796 Y153.206 E48.34919
G1 X207.676 Y154.046 E48.37742
G1 X207.478 Y154.871 E48.40563
G1 X207.203 Y155.674 E48.43387
G1 X206.854 Y156.447 E48.46207
G1 X206.434 Y157.183 E48.49026
G1 X205.946 Y157.877 E48.51848
G1 X205.395 Y158.522 E48.54669
G1 X204.785 Y159.112 E48.57492
G1 X204.123 Y159.642 E48.60312
G1 X203.414 Y160.108 E48.63134
G1 X202.664 Y160.504 E48.65955
G1 X201.88 Y160.829 E48.68778
G1 X201.069 Y161.078 E48.716
G1 X200.238 Y161.249 E48.74421
G1 X199.395 Y161.342 E48.77242
G1 X198.836 Y161.359 E48.79102
G1 X21.036 Y161.359 E54.70468
G1 X20.189 Y161.319 E54.73288
G1 X19.349 Y161.199 E54.7611
G1 X18.524 Y161.001 E54.78932
G1 X17.721 Y160.726 E54.81755
G1 X16.948 Y160.377 E54.84576
G1 X16.212 Y159.957 E54.87394
G1 X15.518 Y159.469 E54.90216
G1 X14.873 Y158.918 E54.93038
G1 X14.283 Y158.308 E54.9586
G1 X13.753 Y157.646 E54.98681
G1 X13.287 Y156.937 E55.01503
G1 X12.891 Y156.187 E55.04324
G1 X12.566 Y155.403 E55.07146
G1 X12.317 Y154.592 E55.09968
G1 X12.146 Y153.761 E55.1279
G1 X12.053 Y152.918 E55.15611
G1 X12.036 Y152.359 E55.17471
G1 X12.036 Y101.972 E56.85059
G1 X12.076 Y101.125 E56.87879
G1 X12.196 Y100.285 E56.90701
G1 X12.394 Y99.46 E56.93523
G1 X12.669 Y98.657 E56.96346
G1 X13.018 Y97.884 E56.99167
G1 X13.438 Y97.148 E57.01985
G1 X13.681 Y96.802 E57.03392
G1 X13.527 Y96.578 E57.04296
G1 X13.112 Y95.838 E57.07118
G1 X12.769 Y95.062 E57.0994
G1 X12.501 Y94.257 E57.12761
G1 X12.31 Y93.431 E57.15581
G1 X12.197 Y92.59 E57.18404
G1 X12.164 Y91.817 E57.20977
G1 X12.164 Y67.641 E58.01387
G1 X12.204 Y66.794 E58.04207
G1 X12.324 Y65.954 E58.07029
G1 X12.522 Y65.129 E58.09851
G1 X12.797 Y64.326 E58.12674
G1 X13.146 Y63.553 E58.15495
G1 X13.566 Y62.817 E58.18313
G1 X14.054 Y62.123 E58.21135
G1 X14.605 Y61.478 E58.23957
G1 X15.215 Y60.888 E58.26779
G1 X15.877 Y60.358 E58.296
G1 X16.586 Y59.892 E58.32422
G1 X17.336 Y59.496 E58.35243
G1 X18.12 Y59.171 E58.38065
G0 F6000 X18.485 Y59.469
G1 F1200 X19.284 Y59.249 E58.40822
G1 X20.101 Y59.107 E58.4358
G1 X21.164 Y59.041 E58.47122
G1 X198.964 Y59.041 E64.38487
G1 X199.792 Y59.081 E64.41245
G1 X200.613 Y59.201 E64.44004
G1 X201.418 Y59.399 E64.46761
G1 X202.2 Y59.673 E64.49517
G1 X202.953 Y60.022 E64.52278
G1 X203.668 Y60.442 E64.55036
G1 X204.339 Y60.928 E64.57792
G1 X204.961 Y61.477 E64.60551
G1 X205.527 Y62.083 E64.63309
G1 X206.032 Y62.741 E64.66068
G1 X206.471 Y63.444 E64.68824
G1 X206.84 Y64.187 E64.71583
G1 X207.136 Y64.962 E64.74343
G1 X207.356 Y65.761 E64.77099
G1 X207.498 Y66.578 E64.79857
G1 X207.564 Y67.641 E64.834
G1 X207.563 Y94.192 E65.71709
G1 X207.523 Y95.021 E65.74469
G1 X207.403 Y95.841 E65.77225
G1 X207.205 Y96.646 E65.79983
G1 X206.931 Y97.429 E65.82742
G1 X206.582 Y98.181 E65.85499
G1 X206.162 Y98.896 E65.88257
G1 X206.138 Y98.929 E65.88393
G1 X206.538 Y99.643 E65.91115
G1 X206.87 Y100.402 E65.9387
G1 X207.128 Y101.191 E65.96631
G1 X207.309 Y102 E65.99389
G1 X207.412 Y102.823 E66.02147
G1 X207.436 Y103.47 E66.04301
G1 X207.436 Y152.359 E67.66906
G1 X207.396 Y153.187 E67.69663
G1 X207.276 Y154.008 E67.72423
G1 X207.078 Y154.813 E67.7518
G1 X206.804 Y155.595 E67.77936
G1 X206.455 Y156.348 E67.80697
G1 X206.035 Y157.063 E67.83455
G1 X205.549 Y157.734 E67.8621
G1 X205 Y158.356 E67.8897
G1 X204.394 Y158.922 E67.91728
G1 X203.736 Y159.427 E67.94486
G1 X203.033 Y159.866 E67.97243
G1 X202.29 Y160.235 E68.00002
G1 X201.515 Y160.531 E68.02761
G1 X200.716 Y160.751 E68.05518
G1 X199.899 Y160.893 E68.08276
G1 X198.836 Y160.959 E68.11818
G1 X21.036 Y160.959 E74.03184
G1 X20.208 Y160.919 E74.05941
G1 X19.387 Y160.799 E74.087
G1 X18.582 Y160.601 E74.11458
G1 X17.8 Y160.327 E74.14214
G1 X17.047 Y159.978 E74.16974
G1 X16.332 Y159.558 E74.19732
G1 X15.661 Y159.072 E74.22488
G1 X15.039 Y158.523 E74.25247
G1 X14.473 Y157.917 E74.28005
G1 X13.968 Y157.259 E74.30764
G1 X13.529 Y156.556 E74.3352
G1 X13.16 Y155.813 E74.3628
G1 X12.864 Y155.038 E74.39039
G1 X12.644 Y154.239 E74.41795
G1 X12.502 Y153.422 E74.44553
G1 X12.436 Y152.359 E74.48096
G1 X12.436 Y101.972 E76.15684
G1 X12.476 Y101.144 E76.18441
G1 X12.596 Y100.323 E76.212
G1 X12.794 Y99.518 E76.23958
G1 X13.068 Y98.736 E76.26714
G1 X13.417 Y97.983 E76.29474
G1 X13.837 Y97.268 E76.32232
G1 X14.17 Y96.809 E76.34118
G1 X13.807 Y96.271 E76.36277
G1 X13.413 Y95.542 E76.39033
G1 X13.09 Y94.778 E76.41792
G1 X12.842 Y93.987 E76.44549
G1 X12.672 Y93.175 E76.47308
G1 X12.581 Y92.351 E76.50065
G1 X12.564 Y91.817 E76.51842
G1 X12.564 Y67.641 E77.32252
G1 X12.604 Y66.813 E77.35009
G1 X12.724 Y65.992 E77.37769
G1 X12.922 Y65.187 E77.40526
G1 X13.196 Y64.405 E77.43282
G1 X13.545 Y63.652 E77.46043
G1 X13.965 Y62.937 E77.48801
G1 X14.451 Y62.266 E77.51556
G1 X15 Y61.644 E77.54316
G1 X15.606 Y61.078 E77.57074
G1 X16.264 Y60.573 E77.59832
G1 X16.967 Y60.134 E77.62589
G1 X17.71 Y59.765 E77.65348
G1 X18.485 Y59.469 E77.68107
G0 F6000 X18.846 Y59.776
G1 F1200 X19.633 Y59.585 E77.70801
G1 X20.435 Y59.473 E77.73494
G1 X21.164 Y59.441 E77.75921
G1 X198.964 Y59.441 E83.67287
G1 X199.773 Y59.481 E83.69981
G1 X200.574 Y59.601 E83.72675
G1 X201.359 Y59.798 E83.75366
G1 X202.12 Y60.073 E83.78058
G1 X202.851 Y60.421 E83.8075
G1 X203.545 Y60.84 E83.83447
G1 X204.193 Y61.325 E83.86139
G1 X204.79 Y61.871 E83.8883
G1 X205.331 Y62.474 E83.91524
G1 X205.81 Y63.127 E83.94218
G1 X206.221 Y63.824 E83.96909
G1 X206.563 Y64.558 E83.99602
G1 X206.829 Y65.323 E84.02296
G1 X207.02 Y66.11 E84.0499
G1 X207.132 Y66.912 E84.07683
G1 X207.164 Y67.641 E84.1011
G1 X207.163 Y94.192 E84.98419
G1 X207.123 Y95.001 E85.01113
G1 X207.003 Y95.802 E85.03807
G1 X206.805 Y96.587 E85.065
G1 X206.531 Y97.349 E85.09193
G1 X206.183 Y98.08 E85.11886
G1 X205.764 Y98.773 E85.14579
G1 X205.65 Y98.925 E85.15211
G1 X205.941 Y99.376 E85.16996
G1 X206.31 Y100.097 E85.1969
G1 X206.606 Y100.85 E85.22381
G1 X206.827 Y101.629 E85.25074
G1 X206.969 Y102.426 E85.27767
G1 X207.036 Y103.47 E85.31246
G1 X207.036 Y152.359 E86.93852
G1 X206.996 Y153.168 E86.96546
G1 X206.876 Y153.969 E86.9924
G1 X206.679 Y154.754 E87.01932
G1 X206.404 Y155.515 E87.04623
G1 X206.056 Y156.246 E87.07316
G1 X205.637 Y156.94 E87.10012
G1 X205.152 Y157.588 E87.12704
G1 X204.606 Y158.185 E87.15395
G1 X204.003 Y158.726 E87.18089
G1 X203.35 Y159.205 E87.20783
G1 X202.653 Y159.616 E87.23474
G1 X201.919 Y159.958 E87.26168
G1 X201.154 Y160.224 E87.28861
G1 X200.367 Y160.415 E87.31555
G1 X199.565 Y160.527 E87.34248
G1 X198.836 Y160.559 E87.36675
G1 X21.036 Y160.559 E93.2804
G1 X20.227 Y160.519 E93.30734
G1 X19.426 Y160.399 E93.33428
G1 X18.641 Y160.202 E93.3612
G1 X17.88 Y159.927 E93.38812
G1 X17.149 Y159.579 E93.41504
G1 X16.455 Y159.16 E93.44201
G1 X15.807 Y158.675 E93.46893
G1 X15.21 Y158.129 E93.49584
G1 X14.669 Y157.526 E93.52278
G1 X14.19 Y156.873 E93.54972
G1 X13.779 Y156.176 E93.57663
G1 X13.437 Y155.442 E93.60356
G1 X13.171 Y154.677 E93.6305
G1 X12.98 Y153.89 E93.65743
G1 X12.868 Y153.088 E93.68437
G1 X12.836 Y152.359 E93.70864
G1 X12.836 Y101.972 E95.38452
G1 X12.876 Y101.163 E95.41146
G1 X12.996 Y100.362 E95.4384
G1 X13.193 Y99.577 E95.46531
G1 X13.468 Y98.816 E95.49223
G1 X13.816 Y98.085 E95.51915
G1 X14.235 Y97.391 E95.54612
G1 X14.67 Y96.81 E95.57026
G1 X14.535 Y96.643 E95.5774
G1 X14.091 Y95.966 E95.60433
G1 X13.716 Y95.248 E95.63127
G1 X13.414 Y94.497 E95.65819
G1 X13.188 Y93.72 E95.68511
G1 X13.039 Y92.924 E95.71204
G1 X12.964 Y91.817 E95.74894
G1 X12.964 Y67.641 E96.55304
G1 X13.004 Y66.832 E96.57998
G1 X13.124 Y66.031 E96.60692
G1 X13.321 Y65.246 E96.63384
G1 X13.596 Y64.485 E96.66075
G1 X13.944 Y63.754 E96.68768
G1 X14.363 Y63.06 E96.71464
G1 X14.848 Y62.412 E96.74156
G1 X15.394 Y61.815 E96.76847
G1 X15.997 Y61.274 E96.79542
G1 X16.65 Y60.795 E96.82235
G1 X17.347 Y60.384 E96.84927
G1 X18.081 Y60.042 E96.8762
G1 X18.846 Y59.776 E96.90314
G0 F6000 X18.45 Y60.328
G1 F1200 X19.203 Y60.091 E96.92939
G1 X19.977 Y59.932 E96.95567
G1 X20.762 Y59.851 E96.98192
G1 X21.164 Y59.841 E96.9953
G1 X198.964 Y59.841 E102.90895
G1 X199.753 Y59.881 E102.93522
G1 X200.533 Y60 E102.96147
G1 X201.298 Y60.198 E102.98775
G1 X202.038 Y60.472 E103.014
G1 X202.747 Y60.82 E103.04026
G1 X203.418 Y61.238 E103.06656
G1 X204.042 Y61.721 E103.0928
G1 X204.615 Y62.264 E103.11906
G1 X205.13 Y62.863 E103.14533
