;FLAVOR:Marlin
;TIME:22794
;Filament used: 16.0374m
;Layer height: 0.2
;MINX:81.126
;MINY:81.168
;MINZ:0.2
;MAXX:138.856
;MAXY:138.837
;MAXZ:44.4
;Generated with Cura_SteamEngine 4.11.0
M140 S50
M105
M190 S50
M104 S200
M105
M109 S200
M82 ;absolute extrusion mode
; Ender 3 Custom Start G-code
G92 E0 ; Reset Extruder
G28 ; Home all axes
G29 ; Auto bed-level (BL-Touch)
G1 Z2.0 F3000 ; Move Z Axis up little to prevent scratching of Heat Bed
G1 X0.1 Y20 Z0.3 F5000.0 ; Move to start position
G1 X0.1 Y200.0 Z0.3 F1500.0 E15 ; Draw the first line
G1 X0.4 Y200.0 Z0.3 F5000.0 ; Move to side a little
G1 X0.4 Y20 Z0.3 F1500.0 E30 ; Draw the second line
G92 E0 ; Reset Extruder
G1 Z2.0 F3000 ; Move Z Axis up little to prevent scratching of Heat Bed
G1 X5 Y20 Z0.3 F5000.0 ; Move over to prevent blob squish
G92 E0
G92 E0
G1 F2700 E-5
;LAYER_COUNT:222
;LAYER:0
M107
G0 F6000 X84.192 Y93.653 Z0.2
;TYPE:SKIRT
G1 F2700 E0
G1 F1200 X84.862 Y93.075 E0.02943
G1 X85.581 Y92.559 E0.05887
G1 X86.344 Y92.11 E0.08831
G1 X87.145 Y91.732 E0.11777
G1 X87.976 Y91.428 E0.1472
G1 X88.011 Y91.419 E0.1484
G1 X88.877 Y90.398 E0.19293
G1 X89.779 Y89.468 E0.23602
G1 X91.646 Y87.781 E0.31971
G1 X92.665 Y86.976 E0.36291
G1 X94.734 Y85.554 E0.44641
G1 X95.84 Y84.896 E0.48921
G1 X98.08 Y83.756 E0.57281
G1 X99.272 Y83.246 E0.61593
G1 X101.642 Y82.412 E0.69949
G1 X102.885 Y82.064 E0.74243
G1 X105.347 Y81.548 E0.82609
G1 X106.624 Y81.367 E0.86899
G1 X109.13 Y81.179 E0.95257
G1 X110.425 Y81.168 E0.99565
G1 X112.932 Y81.312 E1.07917
G1 X114.22 Y81.472 E1.12234
G1 X116.691 Y81.947 E1.20603
G1 X117.933 Y82.272 E1.24873
G1 X120.315 Y83.064 E1.33222
G1 X121.521 Y83.556 E1.37554
G1 X123.781 Y84.659 E1.45918
G1 X124.897 Y85.298 E1.50195
G1 X126.994 Y86.688 E1.58563
G1 X128.026 Y87.474 E1.62878
G1 X129.918 Y89.126 E1.71232
G1 X130.834 Y90.039 E1.75533
G1 X132.493 Y91.927 E1.83893
G1 X133.28 Y92.953 E1.88193
G1 X134.676 Y95.043 E1.96553
G1 X135.32 Y96.158 E2.00835
G1 X136.43 Y98.413 E2.09195
G1 X136.925 Y99.615 E2.13519
G1 X137.727 Y101.998 E2.21881
G1 X138.057 Y103.246 E2.26175
G1 X138.539 Y105.715 E2.34542
G1 X138.703 Y106.996 E2.38837
G1 X138.856 Y109.503 E2.47191
G1 X138.849 Y110.794 E2.51485
G1 X138.671 Y113.302 E2.59848
G1 X138.493 Y114.59 E2.64172
G1 X137.985 Y117.05 E2.72527
G1 X137.643 Y118.291 E2.76808
G1 X136.816 Y120.666 E2.85173
G1 X136.309 Y121.86 E2.89487
G1 X135.176 Y124.104 E2.97848
G1 X134.52 Y125.215 E3.02139
G1 X133.101 Y127.292 E3.10506
G1 X132.301 Y128.311 E3.14815
G1 X130.623 Y130.18 E3.23169
G1 X129.699 Y131.082 E3.27464
G1 X127.789 Y132.715 E3.35822
G1 X126.755 Y133.487 E3.40114
G1 X124.645 Y134.856 E3.48479
G1 X123.51 Y135.49 E3.52803
G1 X121.237 Y136.568 E3.6117
G1 X120.037 Y137.043 E3.65463
G1 X117.648 Y137.811 E3.73809
G1 X116.393 Y138.125 E3.78112
G1 X113.916 Y138.573 E3.86484
G1 X112.636 Y138.718 E3.90769
G1 X110.128 Y138.837 E3.9912
G1 X108.833 Y138.813 E4.03428
G1 X106.329 Y138.6 E4.11786
G1 X105.045 Y138.404 E4.16106
G1 X102.588 Y137.861 E4.24475
G1 X101.352 Y137.501 E4.28757
G1 X98.991 Y136.642 E4.37114
G1 X97.809 Y136.121 E4.4141
G1 X95.58 Y134.958 E4.49772
G1 X94.475 Y134.286 E4.54073
G1 X92.422 Y132.842 E4.62422
G1 X91.412 Y132.026 E4.6674
G1 X89.561 Y130.317 E4.7512
G1 X88.676 Y129.385 E4.79394
G1 X87.808 Y128.341 E4.8391
G1 X87.461 Y128.228 E4.85124
G1 X86.648 Y127.878 E4.88068
G1 X85.869 Y127.456 E4.91014
G1 X85.133 Y126.965 E4.93957
G1 X84.443 Y126.41 E4.96902
G1 X83.806 Y125.795 E4.99847
G1 X83.228 Y125.125 E5.0279
G1 X82.712 Y124.406 E5.05734
G1 X82.263 Y123.643 E5.08678
G1 X81.885 Y122.842 E5.11624
G1 X81.581 Y122.011 E5.14567
G1 X81.353 Y121.156 E5.17511
G1 X81.203 Y120.283 E5.20457
G1 X81.126 Y119.061 E5.24529
G1 X81.126 Y100.773 E5.85355
G1 X81.166 Y99.889 E5.88298
G1 X81.286 Y99.012 E5.91243
G1 X81.484 Y98.149 E5.94187
G1 X81.759 Y97.308 E5.9713
G1 X82.109 Y96.495 E6.00074
G1 X82.531 Y95.716 E6.03021
G1 X83.022 Y94.98 E6.05964
G1 X83.577 Y94.29 E6.08909
G1 X84.192 Y93.653 E6.11854
G0 F6000 X84.585 Y93.834
G1 F1200 X85.251 Y93.279 E6.14737
G1 X85.965 Y92.789 E6.17618
G1 X86.722 Y92.365 E6.20503
G1 X87.515 Y92.014 E6.23388
G1 X88.237 Y91.77 E6.25923
G1 X89.182 Y90.657 E6.30779
G1 X90.047 Y89.764 E6.34914
G1 X91.914 Y88.077 E6.43283
G1 X92.892 Y87.305 E6.47427
G1 X94.961 Y85.883 E6.55777
G1 X96.021 Y85.253 E6.59879
G1 X98.261 Y84.113 E6.68238
G1 X99.405 Y83.623 E6.72377
G1 X101.775 Y82.789 E6.80734
G1 X102.967 Y82.456 E6.8485
G1 X105.429 Y81.94 E6.93217
G1 X106.654 Y81.766 E6.97332
G1 X109.16 Y81.578 E7.05691
G1 X110.402 Y81.567 E7.09822
G1 X112.909 Y81.711 E7.18174
G1 X114.144 Y81.865 E7.22313
G1 X116.615 Y82.34 E7.30682
G1 X117.807 Y82.651 E7.3478
G1 X120.189 Y83.443 E7.43129
G1 X121.346 Y83.915 E7.47285
G1 X123.606 Y85.018 E7.55649
G1 X124.676 Y85.631 E7.5975
G1 X126.773 Y87.021 E7.68118
G1 X127.763 Y87.775 E7.72257
G1 X129.655 Y89.427 E7.80611
G1 X130.533 Y90.303 E7.84736
G1 X132.192 Y92.191 E7.93096
G1 X132.948 Y93.175 E7.97223
G1 X134.344 Y95.265 E8.05582
G1 X134.961 Y96.335 E8.0969
G1 X136.071 Y98.59 E8.1805
G1 X136.546 Y99.743 E8.22198
G1 X137.348 Y102.126 E8.3056
G1 X137.665 Y103.323 E8.34679
G1 X138.147 Y105.792 E8.43046
G1 X138.304 Y107.02 E8.47163
G1 X138.457 Y109.527 E8.55517
G1 X138.45 Y110.765 E8.59635
G1 X138.272 Y113.273 E8.67997
G1 X138.102 Y114.509 E8.72147
G1 X137.594 Y116.969 E8.80502
G1 X137.265 Y118.159 E8.84608
G1 X136.438 Y120.534 E8.92973
G1 X135.952 Y121.68 E8.97113
G1 X134.819 Y123.924 E9.05474
G1 X134.19 Y124.99 E9.09591
G1 X132.771 Y127.067 E9.17957
G1 X132.004 Y128.044 E9.22088
G1 X130.326 Y129.913 E9.30442
G1 X129.44 Y130.778 E9.34561
G1 X127.53 Y132.411 E9.42919
G1 X126.537 Y133.152 E9.4704
G1 X124.427 Y134.521 E9.55405
G1 X123.339 Y135.128 E9.59549
G1 X121.066 Y136.206 E9.67916
G1 X119.915 Y136.662 E9.72034
G1 X117.526 Y137.43 E9.8038
G1 X116.322 Y137.731 E9.84508
G1 X113.845 Y138.179 E9.9288
G1 X112.618 Y138.318 E9.96987
G1 X110.11 Y138.437 E10.05338
G1 X108.867 Y138.414 E10.09473
G1 X106.363 Y138.201 E10.17832
G1 X105.132 Y138.014 E10.21973
G1 X102.675 Y137.471 E10.30342
G1 X101.489 Y137.126 E10.3445
G1 X99.128 Y136.267 E10.42807
G1 X97.994 Y135.767 E10.46929
G1 X95.765 Y134.604 E10.55291
G1 X94.705 Y133.959 E10.59418
G1 X92.652 Y132.515 E10.67766
G1 X91.683 Y131.732 E10.7191
G1 X89.832 Y130.023 E10.80289
G1 X88.983 Y129.129 E10.8439
G1 X88.042 Y127.997 E10.89286
G1 X87.535 Y127.828 E10.91063
G1 X86.742 Y127.478 E10.93946
G1 X85.984 Y127.057 E10.9683
G1 X85.269 Y126.568 E10.99711
G1 X84.601 Y126.015 E11.02595
G1 X83.987 Y125.402 E11.05481
G1 X83.432 Y124.736 E11.08364
G1 X82.942 Y124.022 E11.11245
G1 X82.518 Y123.265 E11.14131
G1 X82.167 Y122.472 E11.17015
G1 X81.89 Y121.651 E11.19897
G1 X81.69 Y120.807 E11.22782
G1 X81.568 Y119.949 E11.25664
G1 X81.526 Y119.061 E11.28621
G1 X81.526 Y100.773 E11.89447
G1 X81.566 Y99.907 E11.9233
G1 X81.686 Y99.048 E11.95215
G1 X81.884 Y98.204 E11.98099
G1 X82.159 Y97.382 E12.00981
G1 X82.509 Y96.589 E12.03864
G1 X82.93 Y95.831 E12.06748
G1 X83.419 Y95.116 E12.09629
G1 X83.972 Y94.448 E12.12514
G1 X84.585 Y93.834 E12.15399
G0 F6000 X84.977 Y94.02
G1 F1200 X85.639 Y93.49 E12.1822
G1 X86.348 Y93.024 E12.21042
G1 X87.098 Y92.628 E12.23863
G1 X87.882 Y92.303 E12.26686
G1 X88.461 Y92.125 E12.287
G1 X89.487 Y90.916 E12.33974
G1 X90.315 Y90.061 E12.37933
G1 X92.182 Y88.374 E12.46302
G1 X93.118 Y87.635 E12.50269
G1 X95.187 Y86.213 E12.58619
G1 X96.203 Y85.609 E12.6255
G1 X98.443 Y84.469 E12.7091
G1 X99.537 Y84 E12.74869
G1 X101.907 Y83.166 E12.83225
G1 X103.049 Y82.847 E12.87169
G1 X105.511 Y82.331 E12.95535
G1 X106.684 Y82.165 E12.99476
G1 X109.19 Y81.977 E13.07834
G1 X110.379 Y81.967 E13.11789
G1 X112.886 Y82.111 E13.20141
G1 X114.069 Y82.258 E13.24106
G1 X116.54 Y82.733 E13.32475
G1 X117.681 Y83.031 E13.36397
G1 X120.063 Y83.823 E13.44746
G1 X121.17 Y84.275 E13.48723
G1 X123.43 Y85.378 E13.57087
G1 X124.455 Y85.964 E13.61014
G1 X126.552 Y87.354 E13.69382
G1 X127.499 Y88.077 E13.73345
G1 X129.391 Y89.729 E13.81699
G1 X130.233 Y90.567 E13.8565
G1 X131.892 Y92.455 E13.94009
G1 X132.615 Y93.397 E13.97959
G1 X134.011 Y95.487 E14.06318
G1 X134.602 Y96.511 E14.10251
G1 X135.712 Y98.766 E14.1861
G1 X136.167 Y99.87 E14.22582
G1 X136.969 Y102.253 E14.30945
G1 X137.272 Y103.4 E14.3489
G1 X137.754 Y105.869 E14.43257
G1 X137.904 Y107.045 E14.472
G1 X138.057 Y109.552 E14.55554
G1 X138.051 Y110.737 E14.59496
G1 X137.873 Y113.245 E14.67858
G1 X137.71 Y114.428 E14.7183
G1 X137.202 Y116.888 E14.80185
G1 X136.887 Y118.028 E14.84118
G1 X136.06 Y120.403 E14.92483
G1 X135.595 Y121.499 E14.96443
G1 X134.462 Y123.743 E15.04804
G1 X133.859 Y124.764 E15.08748
G1 X132.44 Y126.841 E15.17114
G1 X131.706 Y127.777 E15.2107
G1 X130.028 Y129.646 E15.29424
G1 X129.18 Y130.474 E15.33366
G1 X127.27 Y132.107 E15.41724
G1 X126.32 Y132.816 E15.45667
G1 X124.21 Y134.185 E15.54033
G1 X123.168 Y134.767 E15.58002
G1 X120.895 Y135.845 E15.66369
G1 X119.792 Y136.281 E15.70314
G1 X117.403 Y137.049 E15.7866
G1 X116.251 Y137.337 E15.8261
G1 X113.774 Y137.785 E15.90982
G1 X112.599 Y137.919 E15.94916
G1 X110.091 Y138.038 E16.03267
G1 X108.901 Y138.016 E16.07225
G1 X106.397 Y137.803 E16.15584
G1 X105.218 Y137.623 E16.1955
G1 X102.761 Y137.08 E16.2792
G1 X101.626 Y136.75 E16.31851
G1 X99.265 Y135.891 E16.40207
G1 X98.179 Y135.412 E16.44155
G1 X95.95 Y134.249 E16.52517
G1 X94.935 Y133.631 E16.5647
G1 X92.882 Y132.187 E16.64818
G1 X91.955 Y131.439 E16.6878
G1 X90.104 Y129.73 E16.77159
G1 X89.291 Y128.873 E16.81088
G1 X88.279 Y127.657 E16.8635
G1 X87.611 Y127.428 E16.88698
G1 X86.838 Y127.079 E16.91519
G1 X86.102 Y126.659 E16.94338
G1 X85.408 Y126.171 E16.9716
G1 X84.763 Y125.62 E16.99981
G1 X84.173 Y125.01 E17.02804
G1 X83.643 Y124.348 E17.05624
G1 X83.177 Y123.639 E17.08446
G1 X82.781 Y122.889 E17.11267
G1 X82.456 Y122.105 E17.1409
G1 X82.207 Y121.294 E17.16911
G1 X82.036 Y120.463 E17.19733
G1 X81.943 Y119.62 E17.22554
G1 X81.926 Y119.061 E17.24414
G1 X81.926 Y100.773 E17.8524
G1 X81.966 Y99.926 E17.88061
G1 X82.086 Y99.086 E17.90883
G1 X82.284 Y98.261 E17.93705
G1 X82.559 Y97.458 E17.96528
G1 X82.908 Y96.685 E17.99349
G1 X83.328 Y95.949 E18.02167
G1 X83.816 Y95.255 E18.04989
G1 X84.367 Y94.61 E18.0781
G1 X84.977 Y94.02 E18.10633
G0 F6000 X84.762 Y94.776
G1 F1200 X85.368 Y94.21 E18.13391
G1 X86.026 Y93.705 E18.1615
G1 X86.729 Y93.266 E18.18906
G1 X87.472 Y92.897 E18.21666
G1 X88.247 Y92.601 E18.24425
G1 X88.683 Y92.481 E18.25929
G1 X89.792 Y91.174 E18.3163
G1 X90.583 Y90.358 E18.3541
G1 X92.45 Y88.671 E18.43779
G1 X93.345 Y87.965 E18.47571
G1 X95.414 Y86.543 E18.55921
G1 X96.384 Y85.965 E18.59676
G1 X98.624 Y84.825 E18.68036
G1 X99.67 Y84.378 E18.71819
G1 X102.04 Y83.544 E18.80176
G1 X103.131 Y83.239 E18.83943
G1 X105.593 Y82.723 E18.9231
G1 X106.714 Y82.564 E18.96076
G1 X109.22 Y82.376 E19.04434
G1 X110.356 Y82.366 E19.08213
G1 X112.863 Y82.51 E19.16565
G1 X113.993 Y82.651 E19.20352
G1 X116.464 Y83.126 E19.28721
G1 X117.554 Y83.41 E19.32468
G1 X119.936 Y84.202 E19.40817
G1 X120.995 Y84.634 E19.44621
G1 X123.255 Y85.737 E19.52985
G1 X124.234 Y86.298 E19.56738
G1 X126.331 Y87.688 E19.65106
G1 X127.236 Y88.378 E19.68891
G1 X129.128 Y90.03 E19.77245
G1 X129.932 Y90.831 E19.8102
G1 X131.591 Y92.719 E19.89379
G1 X132.282 Y93.619 E19.93153
G1 X133.678 Y95.709 E20.01512
G1 X134.243 Y96.688 E20.05272
G1 X135.353 Y98.943 E20.13631
G1 X135.788 Y99.998 E20.17427
G1 X136.59 Y102.381 E20.2579
G1 X136.88 Y103.476 E20.29557
G1 X137.362 Y105.945 E20.37924
G1 X137.505 Y107.069 E20.41693
G1 X137.658 Y109.576 E20.50047
G1 X137.652 Y110.709 E20.53815
G1 X137.474 Y113.217 E20.62178
G1 X137.318 Y114.347 E20.65972
G1 X136.81 Y116.807 E20.74326
G1 X136.51 Y117.896 E20.78083
G1 X135.683 Y120.271 E20.86448
G1 X135.238 Y121.319 E20.90235
G1 X134.105 Y123.563 E20.98596
G1 X133.529 Y124.538 E21.02362
G1 X132.11 Y126.615 E21.10728
G1 X131.408 Y127.509 E21.14509
G1 X129.73 Y129.378 E21.22863
G1 X128.92 Y130.17 E21.26631
G1 X127.01 Y131.803 E21.34989
G1 X126.102 Y132.481 E21.38758
G1 X123.992 Y133.85 E21.47124
G1 X122.996 Y134.405 E21.50916
G1 X120.723 Y135.483 E21.59283
G1 X119.67 Y135.9 E21.6305
G1 X117.281 Y136.668 E21.71396
G1 X116.18 Y136.944 E21.75172
G1 X113.703 Y137.392 E21.83544
G1 X112.58 Y137.519 E21.87303
G1 X110.072 Y137.638 E21.95654
G1 X108.935 Y137.617 E21.99436
G1 X106.431 Y137.404 E22.07795
G1 X105.304 Y137.232 E22.11586
G1 X102.847 Y136.689 E22.19956
G1 X101.763 Y136.374 E22.2371
G1 X99.402 Y135.515 E22.32066
G1 X98.364 Y135.058 E22.35839
G1 X96.135 Y133.895 E22.44201
G1 X95.165 Y133.304 E22.47979
G1 X93.112 Y131.86 E22.56327
G1 X92.226 Y131.145 E22.60114
G1 X90.375 Y129.436 E22.68493
G1 X89.598 Y128.618 E22.72245
G1 X88.512 Y127.313 E22.77892
G1 X88.472 Y127.303 E22.78029
G1 X87.69 Y127.029 E22.80785
G1 X86.937 Y126.68 E22.83546
G1 X86.222 Y126.26 E22.86304
G1 X85.551 Y125.774 E22.89059
G1 X84.929 Y125.225 E22.91819
G1 X84.363 Y124.619 E22.94577
G1 X83.858 Y123.961 E22.97335
G1 X83.419 Y123.258 E23.00092
G1 X83.05 Y122.515 E23.02851
G1 X82.754 Y121.74 E23.0561
G1 X82.534 Y120.941 E23.08367
G1 X82.392 Y120.124 E23.11125
G1 X82.326 Y119.061 E23.14667
G1 X82.326 Y100.773 E23.75493
G1 X82.366 Y99.945 E23.78251
G1 X82.486 Y99.124 E23.8101
G1 X82.684 Y98.319 E23.83767
G1 X82.958 Y97.537 E23.86523
G1 X83.307 Y96.784 E23.89284
G1 X83.727 Y96.069 E23.92042
G1 X84.213 Y95.398 E23.94798
G1 X84.762 Y94.776 E23.97557
G0 F6000 X85.156 Y94.947
G1 F1200 X85.759 Y94.406 E24.00251
G1 X86.412 Y93.927 E24.02945
G1 X87.109 Y93.516 E24.05636
G1 X87.843 Y93.174 E24.08329
G1 X88.608 Y92.908 E24.11023
G1 X88.907 Y92.835 E24.12047
G1 X90.097 Y91.433 E24.18163
G1 X90.851 Y90.655 E24.21767
G1 X92.718 Y88.968 E24.30136
G1 X93.571 Y88.294 E24.33752
G1 X95.64 Y86.872 E24.42102
G1 X96.566 Y86.322 E24.45684
G1 X98.806 Y85.182 E24.54044
G1 X99.803 Y84.755 E24.57651
G1 X102.173 Y83.921 E24.66008
G1 X103.213 Y83.63 E24.696
G1 X105.675 Y83.114 E24.77966
G1 X106.744 Y82.963 E24.81557
G1 X109.25 Y82.775 E24.89915
G1 X110.333 Y82.765 E24.93518
G1 X112.84 Y82.909 E25.0187
G1 X113.918 Y83.043 E25.05483
G1 X116.389 Y83.518 E25.13852
G1 X117.428 Y83.79 E25.17424
G1 X119.81 Y84.582 E25.25773
G1 X120.82 Y84.994 E25.29401
G1 X123.08 Y86.097 E25.37765
G1 X124.013 Y86.631 E25.41341
G1 X126.11 Y88.021 E25.49708
G1 X126.973 Y88.679 E25.53318
G1 X128.865 Y90.331 E25.61672
G1 X129.632 Y91.095 E25.65273
G1 X131.291 Y92.983 E25.73632
G1 X131.95 Y93.841 E25.7723
G1 X133.346 Y95.931 E25.8559
G1 X133.884 Y96.865 E25.89175
G1 X134.994 Y99.12 E25.97534
G1 X135.409 Y100.125 E26.01151
G1 X136.211 Y102.508 E26.09513
G1 X136.487 Y103.553 E26.13108
G1 X136.969 Y106.022 E26.21475
G1 X137.106 Y107.093 E26.25066
G1 X137.259 Y109.6 E26.3342
G1 X137.253 Y110.681 E26.37016
G1 X137.075 Y113.189 E26.45378
G1 X136.927 Y114.266 E26.48994
G1 X136.419 Y116.726 E26.57349
G1 X136.132 Y117.765 E26.60934
G1 X135.305 Y120.14 E26.69298
G1 X134.881 Y121.139 E26.72908
G1 X133.748 Y123.383 E26.81269
G1 X133.199 Y124.313 E26.84861
G1 X131.78 Y126.39 E26.93227
G1 X131.111 Y127.242 E26.9683
G1 X129.433 Y129.111 E27.05184
G1 X128.66 Y129.866 E27.08778
G1 X126.75 Y131.499 E27.17136
G1 X125.884 Y132.145 E27.2073
G1 X123.774 Y133.514 E27.29095
G1 X122.825 Y134.044 E27.32711
G1 X120.552 Y135.122 E27.41078
G1 X119.548 Y135.52 E27.4467
G1 X117.159 Y136.288 E27.53016
G1 X116.108 Y136.55 E27.56619
G1 X113.631 Y136.998 E27.64991
G1 X112.561 Y137.12 E27.68573
G1 X110.053 Y137.239 E27.76924
G1 X108.969 Y137.218 E27.8053
G1 X106.465 Y137.005 E27.88888
G1 X105.39 Y136.842 E27.92505
G1 X102.933 Y136.299 E28.00874
G1 X101.899 Y135.998 E28.04456
G1 X99.538 Y135.139 E28.12812
G1 X98.549 Y134.703 E28.16407
G1 X96.32 Y133.54 E28.24769
G1 X95.395 Y132.977 E28.28371
G1 X93.342 Y131.533 E28.36719
G1 X92.497 Y130.851 E28.40331
G1 X90.646 Y129.142 E28.4871
G1 X89.906 Y128.362 E28.52286
G1 X88.736 Y126.955 E28.58372
G1 X88.531 Y126.904 E28.59075
G1 X87.77 Y126.629 E28.61766
G1 X87.039 Y126.281 E28.64459
G1 X86.345 Y125.862 E28.67155
G1 X85.697 Y125.377 E28.69847
G1 X85.1 Y124.831 E28.72538
G1 X84.559 Y124.228 E28.75233
G1 X84.08 Y123.575 E28.77926
G1 X83.669 Y122.878 E28.80617
G1 X83.327 Y122.144 E28.83311
