;FLAVOR:Marlin
;TIME:15496
;Filament used: 10.3354m
;Layer height: 0.2
;MINX:91.056
;MINY:81.15
;MINZ:0.2
;MAXX:128.944
;MAXY:138.811
;MAXZ:44.4
;Generated with Cura_SteamEngine 4.11.0
M140 S50
M105
M190 S50
M104 S200
M105
M109 S200
M82 ;absolute extrusion mode
; Ender 3 Custom Start G-code
G92 E0 ; Reset Extruder
G28 ; Home all axes
G29 ; Auto bed-level (BL-Touch)
G1 Z2.0 F3000 ; Move Z Axis up little to prevent scratching of Heat Bed
G1 X0.1 Y20 Z0.3 F5000.0 ; Move to start position
G1 X0.1 Y200.0 Z0.3 F1500.0 E15 ; Draw the first line
G1 X0.4 Y200.0 Z0.3 F5000.0 ; Move to side a little
G1 X0.4 Y20 Z0.3 F1500.0 E30 ; Draw the second line
G92 E0 ; Reset Extruder
G1 Z2.0 F3000 ; Move Z Axis up little to prevent scratching of Heat Bed
G1 X5 Y20 Z0.3 F5000.0 ; Move over to prevent blob squish
G92 E0
G92 E0
G1 F2700 E-5
;LAYER_COUNT:222
;LAYER:0
M107
G0 F6000 X93.507 Y84.467 Z0.2
;TYPE:SKIRT
G1 F2700 E0
G1 F1200 X94.122 Y83.83 E0.02945
G1 X94.792 Y83.252 E0.05888
G1 X95.511 Y82.736 E0.08832
G1 X96.274 Y82.287 E0.11776
G1 X97.074 Y81.909 E0.14719
G1 X97.906 Y81.605 E0.17665
G1 X98.761 Y81.377 E0.20608
G1 X99.633 Y81.227 E0.23551
G1 X100.856 Y81.15 E0.27627
G1 X119.144 Y81.15 E0.88453
G1 X120.028 Y81.19 E0.91396
G1 X120.905 Y81.31 E0.9434
G1 X121.768 Y81.508 E0.97285
G1 X122.609 Y81.783 E1.00228
G1 X123.422 Y82.133 E1.03172
G1 X124.201 Y82.555 E1.06119
G1 X124.937 Y83.046 E1.09062
G1 X125.627 Y83.601 E1.12007
G1 X126.264 Y84.216 E1.14952
G1 X126.842 Y84.886 E1.17895
G1 X127.358 Y85.605 E1.20838
G1 X127.807 Y86.368 E1.23783
G1 X128.185 Y87.169 E1.26729
G1 X128.489 Y88 E1.29672
G1 X128.717 Y88.855 E1.32615
G1 X128.867 Y89.728 E1.35561
G1 X128.944 Y90.95 E1.39634
G1 X128.944 Y119.912 E2.35962
G1 X128.901 Y120.828 E2.39012
G1 X128.743 Y122.511 E2.44634
G1 X128.621 Y123.388 E2.47579
G1 X128.411 Y124.279 E2.50624
G1 X127.95 Y125.898 E2.56222
G1 X127.67 Y126.737 E2.59164
G1 X127.294 Y127.59 E2.62265
G1 X126.539 Y129.103 E2.67889
G1 X126.108 Y129.876 E2.70832
G1 X125.584 Y130.641 E2.73916
G1 X124.566 Y131.986 E2.79527
G1 X124.001 Y132.667 E2.8247
G1 X123.345 Y133.322 E2.85553
G1 X122.098 Y134.456 E2.91159
G1 X121.417 Y135.022 E2.94104
G1 X120.665 Y135.538 E2.97138
G1 X119.236 Y136.423 E3.02728
G1 X118.463 Y136.854 E3.05672
G1 X117.606 Y137.233 E3.08789
G1 X116.026 Y137.843 E3.14422
G1 X115.186 Y138.125 E3.17369
G1 X114.294 Y138.335 E3.20417
G1 X112.633 Y138.645 E3.26037
G1 X111.756 Y138.768 E3.28982
G1 X110.829 Y138.811 E3.32069
G1 X109.145 Y138.81 E3.3767
G1 X108.261 Y138.769 E3.40613
G1 X107.343 Y138.642 E3.43695
G1 X105.681 Y138.33 E3.4932
G1 X104.819 Y138.127 E3.52265
G1 X103.945 Y137.835 E3.5533
G1 X102.38 Y137.228 E3.60913
G1 X101.57 Y136.871 E3.63857
G1 X100.755 Y136.417 E3.6696
G1 X99.315 Y135.523 E3.72598
G1 X98.585 Y135.023 E3.7554
G1 X97.886 Y134.443 E3.78561
G1 X96.645 Y133.313 E3.84144
G1 X96.018 Y132.688 E3.87088
G1 X95.418 Y131.966 E3.90211
G1 X94.398 Y130.613 E3.95846
G1 X93.897 Y129.883 E3.98791
G1 X93.448 Y129.078 E4.01857
G1 X92.695 Y127.564 E4.07481
G1 X92.337 Y126.755 E4.10423
G1 X92.043 Y125.878 E4.135
G1 X91.585 Y124.266 E4.19073
G1 X91.382 Y123.405 E4.22016
G1 X91.254 Y122.492 E4.25082
G1 X91.099 Y120.819 E4.3067
G1 X91.057 Y119.915 E4.3368
G1 X91.056 Y90.95 E5.30018
G1 X91.096 Y90.066 E5.32961
G1 X91.216 Y89.189 E5.35906
G1 X91.414 Y88.326 E5.3885
G1 X91.689 Y87.485 E5.41793
G1 X92.039 Y86.672 E5.44737
G1 X92.461 Y85.894 E5.47681
G1 X92.952 Y85.157 E5.50627
G1 X93.507 Y84.467 E5.53572
G0 F6000 X93.902 Y84.625
G1 F1200 X94.514 Y84.011 E5.56455
G1 X95.181 Y83.457 E5.59339
G1 X95.895 Y82.966 E5.62221
G1 X96.652 Y82.543 E5.65105
G1 X97.444 Y82.191 E5.67988
G1 X98.266 Y81.914 E5.70873
G1 X99.109 Y81.714 E5.73755
G1 X99.968 Y81.592 E5.7664
G1 X100.856 Y81.55 E5.79597
G1 X119.144 Y81.55 E6.40423
G1 X120.01 Y81.59 E6.43307
G1 X120.869 Y81.71 E6.46192
G1 X121.713 Y81.908 E6.49075
G1 X122.535 Y82.183 E6.51958
G1 X123.328 Y82.533 E6.54841
G1 X124.086 Y82.954 E6.57725
G1 X124.801 Y83.443 E6.60606
G1 X125.469 Y83.996 E6.6349
G1 X126.083 Y84.609 E6.66376
G1 X126.638 Y85.275 E6.69259
G1 X127.128 Y85.989 E6.72139
G1 X127.552 Y86.746 E6.75025
G1 X127.903 Y87.539 E6.7791
G1 X128.18 Y88.36 E6.80792
G1 X128.38 Y89.204 E6.83676
G1 X128.502 Y90.062 E6.86559
G1 X128.544 Y90.95 E6.89516
G1 X128.544 Y119.912 E7.85844
G1 X128.503 Y120.791 E7.8877
G1 X128.345 Y122.474 E7.94393
G1 X128.224 Y123.332 E7.97275
G1 X128.027 Y124.169 E8.00135
G1 X127.566 Y125.788 E8.05733
G1 X127.29 Y126.61 E8.08617
G1 X126.936 Y127.411 E8.1153
G1 X126.181 Y128.924 E8.17154
G1 X125.758 Y129.681 E8.20038
G1 X125.265 Y130.4 E8.22938
G1 X124.247 Y131.745 E8.28548
G1 X123.693 Y132.411 E8.3143
G1 X123.076 Y133.026 E8.34327
G1 X121.829 Y134.16 E8.39933
G1 X121.162 Y134.714 E8.42817
G1 X120.454 Y135.198 E8.4567
G1 X119.025 Y136.083 E8.5126
G1 X118.268 Y136.505 E8.54143
G1 X117.462 Y136.86 E8.57072
G1 X115.882 Y137.47 E8.62705
G1 X115.059 Y137.745 E8.65591
G1 X114.221 Y137.941 E8.68454
G1 X112.56 Y138.251 E8.74073
G1 X111.701 Y138.371 E8.76958
G1 X110.829 Y138.411 E8.79862
G1 X109.145 Y138.41 E8.85463
G1 X108.279 Y138.37 E8.88346
G1 X107.417 Y138.249 E8.91241
G1 X105.755 Y137.937 E8.96866
G1 X104.911 Y137.738 E8.9975
G1 X104.09 Y137.462 E9.0263
G1 X102.525 Y136.855 E9.08214
G1 X101.732 Y136.504 E9.11098
G1 X100.966 Y136.077 E9.14015
G1 X99.526 Y135.183 E9.19652
G1 X98.811 Y134.692 E9.22537
G1 X98.155 Y134.147 E9.25374
G1 X96.914 Y133.017 E9.30956
G1 X96.301 Y132.405 E9.33837
G1 X95.737 Y131.726 E9.36773
G1 X94.717 Y130.373 E9.42408
G1 X94.228 Y129.657 E9.45292
G1 X93.807 Y128.9 E9.48173
G1 X93.054 Y127.386 E9.53797
G1 X92.704 Y126.593 E9.5668
G1 X92.428 Y125.769 E9.5957
G1 X91.97 Y124.157 E9.65144
G1 X91.772 Y123.313 E9.68028
G1 X91.652 Y122.455 E9.70909
G1 X91.497 Y120.782 E9.76497
G1 X91.457 Y119.915 E9.79384
G1 X91.456 Y90.95 E10.75722
G1 X91.496 Y90.084 E10.78605
G1 X91.616 Y89.226 E10.81487
G1 X91.814 Y88.382 E10.8437
G1 X92.089 Y87.559 E10.87256
G1 X92.438 Y86.766 E10.90138
G1 X92.86 Y86.008 E10.93023
G1 X93.349 Y85.293 E10.95905
G1 X93.902 Y84.625 E10.98789
G0 F6000 X94.297 Y84.787
G1 F1200 X94.907 Y84.197 E11.01611
G1 X95.569 Y83.667 E11.04432
G1 X96.278 Y83.201 E11.07254
G1 X97.028 Y82.805 E11.10075
G1 X97.812 Y82.481 E11.12896
G1 X98.623 Y82.232 E11.15718
G1 X99.453 Y82.06 E11.18537
G1 X100.297 Y81.967 E11.21361
G1 X100.856 Y81.95 E11.23221
G1 X119.144 Y81.95 E11.84048
G1 X119.991 Y81.99 E11.86868
G1 X120.831 Y82.11 E11.8969
G1 X121.656 Y82.308 E11.92512
G1 X122.459 Y82.583 E11.95335
G1 X123.232 Y82.932 E11.98156
G1 X123.968 Y83.352 E12.00974
G1 X124.662 Y83.84 E12.03796
G1 X125.307 Y84.391 E12.06618
G1 X125.897 Y85.001 E12.0944
G1 X126.427 Y85.663 E12.12261
G1 X126.893 Y86.372 E12.15083
G1 X127.289 Y87.122 E12.17904
G1 X127.614 Y87.906 E12.20726
G1 X127.863 Y88.717 E12.23548
G1 X128.034 Y89.548 E12.2637
G1 X128.127 Y90.391 E12.29191
G1 X128.144 Y90.95 E12.31051
G1 X128.144 Y119.912 E13.27379
G1 X128.105 Y120.753 E13.30179
G1 X127.947 Y122.436 E13.35801
G1 X127.828 Y123.276 E13.38623
G1 X127.642 Y124.06 E13.41303
G1 X127.181 Y125.679 E13.46902
G1 X126.91 Y126.483 E13.49724
G1 X126.578 Y127.233 E13.52452
G1 X125.823 Y128.746 E13.58076
G1 X125.409 Y129.486 E13.60896
G1 X124.946 Y130.159 E13.63613
G1 X123.928 Y131.504 E13.69223
G1 X123.385 Y132.155 E13.72043
G1 X122.807 Y132.73 E13.74755
G1 X121.56 Y133.864 E13.80361
G1 X120.906 Y134.405 E13.83184
G1 X120.244 Y134.857 E13.8585
G1 X118.815 Y135.742 E13.9144
G1 X118.073 Y136.155 E13.94265
G1 X117.317 Y136.487 E13.97011
G1 X115.737 Y137.097 E14.02644
G1 X114.933 Y137.365 E14.05463
G1 X114.147 Y137.548 E14.08147
G1 X112.486 Y137.858 E14.13767
G1 X111.646 Y137.974 E14.16587
G1 X110.83 Y138.011 E14.19304
G1 X109.146 Y138.01 E14.24905
G1 X108.298 Y137.97 E14.27729
G1 X107.49 Y137.855 E14.30443
G1 X105.828 Y137.543 E14.36068
G1 X105.003 Y137.348 E14.38887
G1 X104.234 Y137.089 E14.41586
G1 X102.669 Y136.482 E14.47169
G1 X101.894 Y136.138 E14.49989
G1 X101.177 Y135.737 E14.52722
G1 X99.737 Y134.843 E14.58359
G1 X99.038 Y134.362 E14.61181
G1 X98.425 Y133.852 E14.63833
G1 X97.184 Y132.722 E14.69416
G1 X96.584 Y132.122 E14.72238
G1 X96.056 Y131.485 E14.7499
G1 X95.036 Y130.132 E14.80625
G1 X94.558 Y129.431 E14.83447
G1 X94.165 Y128.722 E14.86144
G1 X93.412 Y127.208 E14.91768
G1 X93.07 Y126.431 E14.94591
G1 X92.813 Y125.66 E14.97294
G1 X92.355 Y124.048 E15.02868
G1 X92.162 Y123.222 E15.05689
G1 X92.05 Y122.418 E15.08389
G1 X91.895 Y120.745 E15.13978
G1 X91.857 Y119.915 E15.16741
G1 X91.856 Y90.95 E16.13079
G1 X91.896 Y90.103 E16.15899
G1 X92.015 Y89.263 E16.18721
G1 X92.214 Y88.438 E16.21544
G1 X92.488 Y87.636 E16.24362
G1 X92.838 Y86.863 E16.27185
G1 X93.258 Y86.126 E16.30006
G1 X93.746 Y85.432 E16.32828
G1 X94.297 Y84.787 E16.35649
G0 F6000 X94.143 Y85.575
G1 F1200 X94.692 Y84.953 E16.38409
G1 X95.298 Y84.387 E16.41167
G1 X95.956 Y83.883 E16.43923
G1 X96.659 Y83.444 E16.4668
G1 X97.402 Y83.074 E16.49441
G1 X98.176 Y82.778 E16.52197
G1 X98.976 Y82.558 E16.54957
G1 X99.793 Y82.416 E16.57715
G1 X100.856 Y82.35 E16.61257
G1 X119.144 Y82.35 E17.22083
G1 X119.972 Y82.39 E17.2484
G1 X120.793 Y82.51 E17.276
G1 X121.598 Y82.708 E17.30357
G1 X122.38 Y82.982 E17.33113
G1 X123.133 Y83.331 E17.35874
G1 X123.848 Y83.751 E17.38632
G1 X124.519 Y84.237 E17.41387
G1 X125.141 Y84.786 E17.44147
G1 X125.707 Y85.392 E17.46905
G1 X126.212 Y86.05 E17.49663
G1 X126.651 Y86.753 E17.5242
G1 X127.02 Y87.496 E17.55179
G1 X127.316 Y88.271 E17.57939
G1 X127.536 Y89.07 E17.60695
G1 X127.678 Y89.887 E17.63453
G1 X127.744 Y90.95 E17.66995
G1 X127.744 Y119.912 E18.63323
G1 X127.706 Y120.716 E18.66
G1 X127.548 Y122.399 E18.71623
G1 X127.431 Y123.22 E18.74381
G1 X127.257 Y123.95 E18.76877
G1 X126.796 Y125.569 E18.82476
G1 X126.531 Y126.355 E18.85235
G1 X126.22 Y127.054 E18.87779
G1 X125.465 Y128.567 E18.93403
G1 X125.06 Y129.29 E18.9616
G1 X124.627 Y129.917 E18.98694
G1 X123.609 Y131.262 E19.04304
G1 X123.078 Y131.898 E19.0706
G1 X122.538 Y132.435 E19.09593
G1 X121.291 Y133.569 E19.15199
G1 X120.651 Y134.096 E19.17956
G1 X120.033 Y134.517 E19.20444
G1 X118.604 Y135.402 E19.26034
G1 X117.879 Y135.805 E19.28793
G1 X117.173 Y136.114 E19.31356
G1 X115.593 Y136.724 E19.36989
G1 X114.806 Y136.985 E19.39747
G1 X114.074 Y137.155 E19.42247
G1 X112.413 Y137.465 E19.47866
G1 X111.591 Y137.578 E19.50626
G1 X110.83 Y137.611 E19.5316
G1 X109.146 Y137.61 E19.58761
G1 X108.318 Y137.57 E19.61518
G1 X107.564 Y137.462 E19.64051
G1 X105.902 Y137.15 E19.69676
G1 X105.096 Y136.958 E19.72431
G1 X104.379 Y136.716 E19.74948
G1 X102.814 Y136.109 E19.80531
G1 X102.056 Y135.772 E19.8329
G1 X101.388 Y135.397 E19.85838
G1 X99.948 Y134.503 E19.91476
G1 X99.265 Y134.033 E19.94233
G1 X98.694 Y133.556 E19.96708
G1 X97.453 Y132.426 E20.0229
G1 X96.867 Y131.839 E20.05049
G1 X96.376 Y131.244 E20.07615
G1 X95.356 Y129.891 E20.1325
G1 X94.889 Y129.206 E20.16008
G1 X94.523 Y128.544 E20.18524
G1 X93.77 Y127.03 E20.24148
G1 X93.437 Y126.27 E20.26907
G1 X93.197 Y125.55 E20.29432
G1 X92.739 Y123.938 E20.35005
G1 X92.552 Y123.131 E20.37761
G1 X92.449 Y122.381 E20.40279
G1 X92.294 Y120.708 E20.45867
G1 X92.257 Y119.915 E20.48507
G1 X92.256 Y90.95 E21.44845
G1 X92.296 Y90.122 E21.47602
G1 X92.415 Y89.301 E21.50362
G1 X92.613 Y88.496 E21.53119
G1 X92.888 Y87.714 E21.55876
G1 X93.237 Y86.962 E21.58633
G1 X93.656 Y86.246 E21.61393
G1 X94.143 Y85.575 E21.6415
G0 F6000 X94.539 Y85.721
G1 F1200 X95.086 Y85.124 E21.66843
G1 X95.689 Y84.583 E21.69538
G1 X96.342 Y84.105 E21.72229
G1 X97.039 Y83.693 E21.74922
G1 X97.773 Y83.352 E21.77614
G1 X98.538 Y83.085 E21.80309
G1 X99.325 Y82.894 E21.83003
G1 X100.126 Y82.783 E21.85692
G1 X100.856 Y82.75 E21.88123
G1 X119.144 Y82.75 E22.48949
G1 X119.953 Y82.79 E22.51643
G1 X120.754 Y82.91 E22.54337
G1 X121.539 Y83.107 E22.57029
G1 X122.3 Y83.382 E22.5972
G1 X123.031 Y83.73 E22.62413
G1 X123.725 Y84.149 E22.65109
G1 X124.373 Y84.634 E22.67801
G1 X124.97 Y85.18 E22.70492
G1 X125.511 Y85.783 E22.73186
G1 X125.99 Y86.436 E22.7588
G1 X126.401 Y87.133 E22.78571
G1 X126.743 Y87.867 E22.81264
G1 X127.009 Y88.632 E22.83958
G1 X127.2 Y89.419 E22.86652
G1 X127.312 Y90.221 E22.89345
G1 X127.344 Y90.95 E22.91772
G1 X127.344 Y119.912 E23.881
G1 X127.308 Y120.678 E23.90651
G1 X127.15 Y122.361 E23.96273
G1 X127.035 Y123.163 E23.98968
G1 X126.873 Y123.841 E24.01286
G1 X126.412 Y125.46 E24.06885
G1 X126.152 Y126.226 E24.09576
G1 X125.862 Y126.875 E24.1194
G1 X125.107 Y128.388 E24.17564
G1 X124.71 Y129.094 E24.20258
G1 X124.308 Y129.676 E24.2261
G1 X123.29 Y131.021 E24.28221
G1 X122.77 Y131.641 E24.30912
G1 X122.269 Y132.139 E24.33262
G1 X121.022 Y133.273 E24.38868
G1 X120.397 Y133.787 E24.41559
G1 X119.822 Y134.177 E24.4387
G1 X118.393 Y135.062 E24.49461
G1 X117.685 Y135.454 E24.52152
G1 X117.029 Y135.741 E24.54534
G1 X115.449 Y136.351 E24.60167
G1 X114.681 Y136.605 E24.62857
G1 X114 Y136.762 E24.65182
G1 X112.339 Y137.072 E24.70802
G1 X111.537 Y137.181 E24.73494
G1 X110.83 Y137.211 E24.75847
G1 X109.146 Y137.21 E24.81448
G1 X108.337 Y137.17 E24.84142
G1 X107.638 Y137.069 E24.86491
G1 X105.976 Y136.757 E24.92116
G1 X105.189 Y136.569 E24.94807
G1 X104.524 Y136.343 E24.97143
G1 X102.959 Y135.736 E25.02726
G1 X102.219 Y135.406 E25.05421
G1 X101.599 Y135.058 E25.07786
G1 X100.159 Y134.164 E25.13423
G1 X99.493 Y133.703 E25.16117
G1 X98.963 Y133.26 E25.18415
G1 X97.722 Y132.13 E25.23997
G1 X97.151 Y131.556 E25.2669
G1 X96.695 Y131.003 E25.29074
G1 X95.675 Y129.65 E25.34709
G1 X95.22 Y128.98 E25.37403
G1 X94.881 Y128.366 E25.39736
G1 X94.128 Y126.852 E25.4536
G1 X93.804 Y126.11 E25.48053
G1 X93.582 Y125.441 E25.50397
G1 X93.124 Y123.829 E25.55971
G1 X92.942 Y123.04 E25.58664
G1 X92.847 Y122.344 E25.61
G1 X92.692 Y120.671 E25.66589
G1 X92.657 Y119.915 E25.69106
G1 X92.656 Y90.95 E26.65444
G1 X92.696 Y90.142 E26.68135
G1 X92.815 Y89.341 E26.70828
G1 X93.013 Y88.556 E26.73521
G1 X93.288 Y87.794 E26.76215
G1 X93.636 Y87.063 E26.78908
G1 X94.054 Y86.37 E26.816
G1 X94.539 Y85.721 E26.84294
G0 F6000 X94.935 Y85.872
G1 F1200 X95.479 Y85.299 E26.86922
G1 X96.078 Y84.785 E26.89547
G1 X96.726 Y84.333 E26.92175
G1 X97.416 Y83.949 E26.94802
G1 X98.142 Y83.637 E26.9743
G1 X98.895 Y83.401 E27.00054
G1 X99.668 Y83.241 E27.0268
G1 X100.454 Y83.16 E27.05308
G1 X100.856 Y83.15 E27.06646
G1 X119.144 Y83.15 E27.67472
G1 X119.933 Y83.19 E27.70099
G1 X120.713 Y83.309 E27.72724
G1 X121.478 Y83.507 E27.75352
G1 X122.218 Y83.781 E27.77976
G1 X122.927 Y84.129 E27.80603
G1 X123.598 Y84.547 E27.83233
G1 X124.222 Y85.03 E27.85857
G1 X124.795 Y85.573 E27.88483
G1 X125.31 Y86.172 E27.9111
G1 X125.761 Y86.82 E27.93736
G1 X126.145 Y87.511 E27.96365
G1 X126.457 Y88.236 E27.98991
G1 X126.694 Y88.989 E28.01616
G1 X126.853 Y89.763 E28.04244
G1 X126.934 Y90.548 E28.06869
G1 X126.944 Y90.95 E28.08206
G1 X126.944 Y119.912 E29.04534
G1 X126.91 Y120.641 E29.06962
G1 X126.752 Y122.324 E29.12584
G1 X126.638 Y123.106 E29.15213
G1 X126.488 Y123.731 E29.1735
G1 X126.027 Y125.35 E29.22949
G1 X125.772 Y126.098 E29.25578
G1 X125.504 Y126.697 E29.2776
G1 X124.749 Y128.21 E29.33384
G1 X124.361 Y128.898 E29.36011
G1 X123.989 Y129.434 E29.38181
G1 X122.971 Y130.779 E29.43792
G1 X122.464 Y131.384 E29.46417
G1 X122 Y131.843 E29.48588
G1 X120.753 Y132.977 E29.54194
G1 X120.142 Y133.478 E29.56822
G1 X119.612 Y133.837 E29.58951
G1 X118.183 Y134.722 E29.64542
G1 X117.491 Y135.104 E29.67171
G1 X116.885 Y135.368 E29.69369
G1 X115.305 Y135.978 E29.75002
G1 X114.555 Y136.224 E29.77628
G1 X113.927 Y136.369 E29.79771
G1 X112.266 Y136.679 E29.85391
G1 X111.483 Y136.784 E29.88019
G1 X110.83 Y136.811 E29.90192
G1 X109.146 Y136.81 E29.95793
G1 X108.358 Y136.77 E29.98418
G1 X107.712 Y136.676 E30.00589
G1 X106.05 Y136.364 E30.06213
G1 X105.282 Y136.179 E30.08841
G1 X104.668 Y135.97 E30.10998
G1 X103.103 Y135.363 E30.16581
G1 X102.383 Y135.041 E30.19204
G1 X101.81 Y134.718 E30.21392
G1 X100.37 Y133.824 E30.2703
G1 X99.721 Y133.374 E30.29656
G1 X99.233 Y132.964 E30.31776
G1 X97.992 Y131.834 E30.37359
G1 X97.435 Y131.274 E30.39986
G1 X97.015 Y130.762 E30.42188
G1 X95.995 Y129.409 E30.47824
G1 X95.552 Y128.756 E30.50448
