;FLAVOR:Marlin
;TIME:32543
;Filament used: 24.331m
;Layer height: 0.2
;MINX:11.28
;MINY:44.302
;MINZ:0.2
;MAXX:208.72
;MAXY:175.698
;MAXZ:3.2
;Generated with Cura_SteamEngine 4.11.0
M140 S50
M105
M190 S50
M104 S200
M105
M109 S200
M82 ;absolute extrusion mode
; Ender 3 Custom Start G-code
G92 E0 ; Reset Extruder
G28 ; Home all axes
G29 ; Auto bed-level (BL-Touch)
G1 Z2.0 F3000 ; Move Z Axis up little to prevent scratching of Heat Bed
G1 X0.1 Y20 Z0.3 F5000.0 ; Move to start position
G1 X0.1 Y200.0 Z0.3 F1500.0 E15 ; Draw the first line
G1 X0.4 Y200.0 Z0.3 F5000.0 ; Move to side a little
G1 X0.4 Y20 Z0.3 F1500.0 E30 ; Draw the second line
G92 E0 ; Reset Extruder
G1 Z2.0 F3000 ; Move Z Axis up little to prevent scratching of Heat Bed
G1 X5 Y20 Z0.3 F5000.0 ; Move over to prevent blob squish
G92 E0
G92 E0
G1 F2700 E-5
;LAYER_COUNT:16
;LAYER:0
M107
G0 F6000 X17.339 Y45.061 Z0.2
;TYPE:SKIRT
G1 F2700 E0
G1 F1200 X18.17 Y44.757 E0.02943
G1 X19.025 Y44.529 E0.05886
G1 X19.898 Y44.379 E0.08832
G1 X21.12 Y44.302 E0.12905
G1 X198.92 Y44.302 E6.0427
G1 X199.804 Y44.342 E6.07213
G1 X200.681 Y44.462 E6.10157
G1 X201.544 Y44.66 E6.13102
G1 X202.385 Y44.935 E6.16045
G1 X203.198 Y45.285 E6.18989
G1 X203.977 Y45.707 E6.21936
G1 X204.713 Y46.198 E6.24879
G1 X205.403 Y46.753 E6.27824
G1 X206.04 Y47.368 E6.30769
G1 X206.618 Y48.038 E6.33712
G1 X207.134 Y48.757 E6.36655
G1 X207.583 Y49.52 E6.396
G1 X207.961 Y50.321 E6.42546
G1 X208.265 Y51.152 E6.45489
G1 X208.493 Y52.007 E6.48432
G1 X208.643 Y52.88 E6.51378
G1 X208.72 Y54.102 E6.5545
G1 X208.72 Y79.538 E7.40051
G1 X208.68 Y80.422 E7.42994
G1 X208.56 Y81.299 E7.45938
G1 X208.362 Y82.162 E7.48883
G1 X208.087 Y83.003 E7.51826
G1 X207.737 Y83.816 E7.5477
G1 X207.315 Y84.595 E7.57717
G1 X207.273 Y84.658 E7.57969
G1 X207.543 Y85.116 E7.59737
G1 X207.921 Y85.917 E7.62683
G1 X208.225 Y86.748 E7.65626
G1 X208.453 Y87.603 E7.68569
G1 X208.603 Y88.476 E7.71515
G1 X208.68 Y89.698 E7.75588
G1 X208.68 Y165.898 E10.2903
G1 X208.64 Y166.782 E10.31973
G1 X208.52 Y167.659 E10.34917
G1 X208.322 Y168.522 E10.37862
G1 X208.047 Y169.363 E10.40805
G1 X207.697 Y170.176 E10.43749
G1 X207.275 Y170.955 E10.46696
G1 X206.784 Y171.691 E10.49638
G1 X206.229 Y172.381 E10.52584
G1 X205.614 Y173.018 E10.55529
G1 X204.944 Y173.596 E10.58472
G1 X204.225 Y174.112 E10.61415
G1 X203.462 Y174.561 E10.6436
G1 X202.661 Y174.939 E10.67306
G1 X201.83 Y175.243 E10.70249
G1 X200.975 Y175.471 E10.73192
G1 X200.102 Y175.621 E10.76138
G1 X198.88 Y175.698 E10.8021
G1 X21.08 Y175.698 E16.71576
G1 X20.196 Y175.658 E16.74519
G1 X19.319 Y175.538 E16.77463
G1 X18.456 Y175.34 E16.80408
G1 X17.615 Y175.065 E16.83351
G1 X16.802 Y174.715 E16.86295
G1 X16.023 Y174.293 E16.89241
G1 X15.287 Y173.802 E16.92184
G1 X14.597 Y173.247 E16.95129
G1 X13.96 Y172.632 E16.98074
G1 X13.382 Y171.962 E17.01017
G1 X12.866 Y171.243 E17.03961
G1 X12.417 Y170.48 E17.06905
G1 X12.039 Y169.679 E17.09851
G1 X11.735 Y168.848 E17.12794
G1 X11.507 Y167.993 E17.15737
G1 X11.357 Y167.12 E17.18684
G1 X11.28 Y165.898 E17.22756
G1 X11.28 Y89.698 E19.76198
G1 X11.32 Y88.814 E19.79141
G1 X11.44 Y87.937 E19.82086
G1 X11.638 Y87.074 E19.8503
G1 X11.913 Y86.233 E19.87973
G1 X12.263 Y85.42 E19.90917
G1 X12.685 Y84.641 E19.93864
G1 X12.727 Y84.578 E19.94116
G1 X12.457 Y84.12 E19.95884
G1 X12.079 Y83.319 E19.9883
G1 X11.775 Y82.488 E20.01773
G1 X11.547 Y81.633 E20.04716
G1 X11.397 Y80.76 E20.07662
G1 X11.32 Y79.538 E20.11735
G1 X11.32 Y54.102 E20.96335
G1 X11.36 Y53.218 E20.99279
G1 X11.48 Y52.341 E21.02223
G1 X11.678 Y51.478 E21.05168
G1 X11.953 Y50.637 E21.08111
G1 X12.303 Y49.824 E21.11055
G1 X12.725 Y49.045 E21.14001
G1 X13.216 Y48.309 E21.16944
G1 X13.771 Y47.619 E21.19889
G1 X14.386 Y46.982 E21.22834
G1 X15.056 Y46.404 E21.25777
G1 X15.775 Y45.888 E21.28721
G1 X16.538 Y45.439 E21.31665
G1 X17.339 Y45.061 E21.34611
G0 F6000 X17.709 Y45.343
G1 F1200 X18.53 Y45.066 E21.37493
G1 X19.374 Y44.866 E21.40378
G1 X20.232 Y44.744 E21.4326
G1 X21.12 Y44.702 E21.46217
G1 X198.92 Y44.702 E27.37582
G1 X199.786 Y44.742 E27.40466
G1 X200.645 Y44.862 E27.43351
G1 X201.489 Y45.06 E27.46234
G1 X202.311 Y45.335 E27.49117
G1 X203.104 Y45.685 E27.52
G1 X203.862 Y46.106 E27.54884
G1 X204.577 Y46.595 E27.57765
G1 X205.245 Y47.148 E27.60649
G1 X205.859 Y47.761 E27.63535
G1 X206.414 Y48.427 E27.66418
G1 X206.904 Y49.141 E27.69298
G1 X207.328 Y49.898 E27.72184
G1 X207.679 Y50.691 E27.75069
G1 X207.956 Y51.512 E27.77951
G1 X208.156 Y52.356 E27.80835
G1 X208.278 Y53.214 E27.83718
G1 X208.32 Y54.102 E27.86675
G1 X208.32 Y79.538 E28.71275
G1 X208.28 Y80.404 E28.74159
G1 X208.16 Y81.263 E28.77043
G1 X207.962 Y82.107 E28.79927
G1 X207.687 Y82.929 E28.8281
G1 X207.337 Y83.722 E28.85693
G1 X206.916 Y84.48 E28.88576
G1 X206.802 Y84.647 E28.89249
G1 X206.864 Y84.737 E28.89612
G1 X207.288 Y85.494 E28.92498
G1 X207.639 Y86.287 E28.95383
G1 X207.916 Y87.108 E28.98265
G1 X208.116 Y87.952 E29.01149
G1 X208.238 Y88.81 E29.04032
G1 X208.28 Y89.698 E29.06989
G1 X208.28 Y165.898 E31.60431
G1 X208.24 Y166.764 E31.63314
G1 X208.12 Y167.623 E31.66199
G1 X207.922 Y168.467 E31.69082
G1 X207.647 Y169.289 E31.71965
G1 X207.297 Y170.082 E31.74848
G1 X206.876 Y170.84 E31.77732
G1 X206.387 Y171.555 E31.80613
G1 X205.834 Y172.223 E31.83498
G1 X205.221 Y172.837 E31.86383
G1 X204.555 Y173.392 E31.89267
G1 X203.841 Y173.882 E31.92147
G1 X203.084 Y174.306 E31.95033
G1 X202.291 Y174.657 E31.97917
G1 X201.47 Y174.934 E32.00799
G1 X200.626 Y175.134 E32.03684
G1 X199.768 Y175.256 E32.06566
G1 X198.88 Y175.298 E32.09523
G1 X21.08 Y175.298 E38.00888
G1 X20.214 Y175.258 E38.03772
G1 X19.355 Y175.138 E38.06657
G1 X18.511 Y174.94 E38.0954
G1 X17.689 Y174.665 E38.12423
G1 X16.896 Y174.315 E38.15306
G1 X16.138 Y173.894 E38.1819
G1 X15.423 Y173.405 E38.21071
G1 X14.755 Y172.852 E38.23955
G1 X14.141 Y172.239 E38.26841
G1 X13.586 Y171.573 E38.29724
G1 X13.096 Y170.859 E38.32605
G1 X12.672 Y170.102 E38.3549
G1 X12.321 Y169.309 E38.38375
G1 X12.044 Y168.488 E38.41257
G1 X11.844 Y167.644 E38.44142
G1 X11.722 Y166.786 E38.47024
G1 X11.68 Y165.898 E38.49981
G1 X11.68 Y89.698 E41.03423
G1 X11.72 Y88.832 E41.06306
G1 X11.84 Y87.973 E41.09191
G1 X12.038 Y87.129 E41.12075
G1 X12.313 Y86.307 E41.14957
G1 X12.663 Y85.514 E41.1784
G1 X13.084 Y84.756 E41.20724
G1 X13.198 Y84.589 E41.21397
G1 X13.136 Y84.499 E41.2176
G1 X12.712 Y83.742 E41.24646
G1 X12.361 Y82.949 E41.27531
G1 X12.084 Y82.128 E41.30412
G1 X11.884 Y81.284 E41.33297
G1 X11.762 Y80.426 E41.3618
G1 X11.72 Y79.538 E41.39137
G1 X11.72 Y54.102 E42.23737
G1 X11.76 Y53.236 E42.2662
G1 X11.88 Y52.377 E42.29505
G1 X12.078 Y51.533 E42.32389
G1 X12.353 Y50.711 E42.35271
G1 X12.703 Y49.918 E42.38154
G1 X13.124 Y49.16 E42.41038
G1 X13.613 Y48.445 E42.43919
G1 X14.166 Y47.777 E42.46804
G1 X14.779 Y47.163 E42.49689
G1 X15.445 Y46.608 E42.52573
G1 X16.159 Y46.118 E42.55453
G1 X16.916 Y45.694 E42.58339
G1 X17.709 Y45.343 E42.61223
G0 F6000 X17.292 Y45.957
G1 F1200 X18.076 Y45.632 E42.64046
G1 X18.887 Y45.383 E42.66868
G1 X19.718 Y45.212 E42.6969
G1 X20.561 Y45.119 E42.7251
G1 X21.12 Y45.102 E42.74371
G1 X198.92 Y45.102 E48.65736
G1 X199.767 Y45.142 E48.68556
G1 X200.607 Y45.262 E48.71378
G1 X201.432 Y45.46 E48.742
G1 X202.235 Y45.735 E48.77023
G1 X203.008 Y46.084 E48.79844
G1 X203.744 Y46.504 E48.82663
G1 X204.438 Y46.992 E48.85484
G1 X205.083 Y47.543 E48.88306
G1 X205.673 Y48.153 E48.91128
G1 X206.203 Y48.815 E48.93949
G1 X206.669 Y49.524 E48.96771
G1 X207.065 Y50.274 E48.99592
G1 X207.39 Y51.058 E49.02414
G1 X207.639 Y51.869 E49.05236
G1 X207.81 Y52.7 E49.08058
G1 X207.903 Y53.543 E49.10879
G1 X207.92 Y54.102 E49.12739
G1 X207.92 Y79.538 E49.97339
G1 X207.88 Y80.385 E50.0016
G1 X207.76 Y81.225 E50.02982
G1 X207.562 Y82.05 E50.05804
G1 X207.287 Y82.853 E50.08627
G1 X206.938 Y83.626 E50.11448
G1 X206.518 Y84.362 E50.14266
G1 X206.318 Y84.647 E50.15424
G1 X206.629 Y85.12 E50.17307
G1 X207.025 Y85.87 E50.20128
G1 X207.35 Y86.654 E50.22951
G1 X207.599 Y87.465 E50.25772
G1 X207.77 Y88.296 E50.28594
G1 X207.863 Y89.139 E50.31415
G1 X207.88 Y89.698 E50.33275
G1 X207.88 Y165.898 E52.86717
G1 X207.84 Y166.745 E52.89538
G1 X207.72 Y167.585 E52.9236
G1 X207.522 Y168.41 E52.95182
G1 X207.247 Y169.213 E52.98005
G1 X206.898 Y169.986 E53.00826
G1 X206.478 Y170.722 E53.03644
G1 X205.99 Y171.416 E53.06466
G1 X205.439 Y172.061 E53.09287
G1 X204.829 Y172.651 E53.1211
G1 X204.167 Y173.181 E53.14931
G1 X203.458 Y173.647 E53.17752
G1 X202.708 Y174.043 E53.20573
G1 X201.924 Y174.368 E53.23396
G1 X201.113 Y174.617 E53.26218
G1 X200.282 Y174.788 E53.2904
G1 X199.439 Y174.881 E53.3186
G1 X198.88 Y174.898 E53.33721
G1 X21.08 Y174.898 E59.25086
G1 X20.233 Y174.858 E59.27906
G1 X19.393 Y174.738 E59.30728
G1 X18.568 Y174.54 E59.3355
G1 X17.765 Y174.265 E59.36373
G1 X16.992 Y173.916 E59.39194
G1 X16.256 Y173.496 E59.42013
G1 X15.562 Y173.008 E59.44834
G1 X14.917 Y172.457 E59.47656
G1 X14.327 Y171.847 E59.50478
G1 X13.797 Y171.185 E59.53299
G1 X13.331 Y170.476 E59.56121
G1 X12.935 Y169.726 E59.58942
G1 X12.61 Y168.942 E59.61765
G1 X12.361 Y168.131 E59.64586
G1 X12.19 Y167.3 E59.67408
G1 X12.097 Y166.457 E59.70229
G1 X12.08 Y165.898 E59.72089
G1 X12.08 Y89.698 E62.25531
G1 X12.12 Y88.851 E62.28351
G1 X12.24 Y88.011 E62.31174
G1 X12.438 Y87.186 E62.33996
G1 X12.713 Y86.383 E62.36819
G1 X13.062 Y85.61 E62.3964
G1 X13.482 Y84.874 E62.42458
G1 X13.682 Y84.589 E62.43616
G1 X13.371 Y84.116 E62.45499
G1 X12.975 Y83.366 E62.4832
G1 X12.65 Y82.582 E62.51143
G1 X12.401 Y81.771 E62.53964
G1 X12.23 Y80.94 E62.56786
G1 X12.137 Y80.097 E62.59607
G1 X12.12 Y79.538 E62.61467
G1 X12.12 Y54.102 E63.46067
G1 X12.16 Y53.255 E63.48888
G1 X12.28 Y52.415 E63.5171
G1 X12.478 Y51.59 E63.54532
G1 X12.753 Y50.787 E63.57355
G1 X13.102 Y50.014 E63.60176
G1 X13.522 Y49.278 E63.62994
G1 X14.01 Y48.584 E63.65816
G1 X14.561 Y47.939 E63.68638
G1 X15.171 Y47.349 E63.7146
G1 X15.833 Y46.819 E63.74281
G1 X16.542 Y46.353 E63.77103
G1 X17.292 Y45.957 E63.79923
G0 F6000 X17.666 Y46.226
G1 F1200 X18.441 Y45.93 E63.82683
G1 X19.24 Y45.71 E63.85439
G1 X20.057 Y45.568 E63.88197
G1 X21.12 Y45.502 E63.9174
G1 X198.92 Y45.502 E69.83105
G1 X199.748 Y45.542 E69.85862
G1 X200.569 Y45.662 E69.88622
G1 X201.374 Y45.86 E69.91379
G1 X202.156 Y46.134 E69.94135
G1 X202.909 Y46.483 E69.96895
G1 X203.624 Y46.903 E69.99653
G1 X204.295 Y47.389 E70.02409
G1 X204.917 Y47.938 E70.05168
G1 X205.483 Y48.544 E70.07926
G1 X205.988 Y49.202 E70.10685
G1 X206.427 Y49.905 E70.13442
G1 X206.796 Y50.648 E70.16201
G1 X207.092 Y51.423 E70.1896
G1 X207.312 Y52.222 E70.21716
G1 X207.454 Y53.039 E70.24475
G1 X207.52 Y54.102 E70.28017
G1 X207.52 Y79.538 E71.12617
G1 X207.48 Y80.366 E71.15375
G1 X207.36 Y81.187 E71.18134
G1 X207.162 Y81.992 E71.20891
G1 X206.888 Y82.774 E71.23647
G1 X206.539 Y83.527 E71.26408
G1 X206.119 Y84.242 E71.29166
G1 X205.829 Y84.643 E71.30812
G1 X205.948 Y84.798 E71.31462
G1 X206.387 Y85.501 E71.34218
G1 X206.756 Y86.244 E71.36978
G1 X207.052 Y87.019 E71.39737
G1 X207.272 Y87.818 E71.42493
G1 X207.414 Y88.635 E71.45251
G1 X207.48 Y89.698 E71.48794
G1 X207.48 Y165.898 E74.02236
G1 X207.44 Y166.726 E74.04993
G1 X207.32 Y167.547 E74.07753
G1 X207.122 Y168.352 E74.1051
G1 X206.848 Y169.134 E74.13266
G1 X206.499 Y169.887 E74.16026
G1 X206.079 Y170.602 E74.18784
G1 X205.593 Y171.273 E74.2154
G1 X205.044 Y171.895 E74.24299
G1 X204.438 Y172.461 E74.27057
G1 X203.78 Y172.966 E74.29816
G1 X203.077 Y173.405 E74.32573
G1 X202.334 Y173.774 E74.35332
G1 X201.559 Y174.07 E74.38091
G1 X200.76 Y174.29 E74.40848
G1 X199.943 Y174.432 E74.43606
G1 X198.88 Y174.498 E74.47148
G1 X21.08 Y174.498 E80.38513
G1 X20.252 Y174.458 E80.41271
G1 X19.431 Y174.338 E80.4403
G1 X18.626 Y174.14 E80.46787
G1 X17.844 Y173.866 E80.49543
G1 X17.091 Y173.517 E80.52304
G1 X16.376 Y173.097 E80.55062
G1 X15.705 Y172.611 E80.57818
G1 X15.083 Y172.062 E80.60577
G1 X14.517 Y171.456 E80.63335
G1 X14.012 Y170.798 E80.66094
G1 X13.573 Y170.095 E80.6885
G1 X13.204 Y169.352 E80.71609
G1 X12.908 Y168.577 E80.74369
G1 X12.688 Y167.778 E80.77125
G1 X12.546 Y166.961 E80.79883
G1 X12.48 Y165.898 E80.83426
G1 X12.48 Y89.698 E83.36868
G1 X12.52 Y88.87 E83.39625
G1 X12.64 Y88.049 E83.42385
G1 X12.838 Y87.244 E83.45142
G1 X13.112 Y86.462 E83.47898
G1 X13.461 Y85.709 E83.50658
G1 X13.881 Y84.994 E83.53416
G1 X14.171 Y84.593 E83.55062
G1 X14.052 Y84.438 E83.55712
G1 X13.613 Y83.735 E83.58469
G1 X13.244 Y82.992 E83.61228
G1 X12.948 Y82.217 E83.63987
G1 X12.728 Y81.418 E83.66744
G1 X12.586 Y80.601 E83.69502
G1 X12.52 Y79.538 E83.73044
G1 X12.52 Y54.102 E84.57645
G1 X12.56 Y53.274 E84.60402
G1 X12.68 Y52.453 E84.63161
G1 X12.878 Y51.648 E84.65919
G1 X13.152 Y50.866 E84.68675
G1 X13.501 Y50.113 E84.71435
G1 X13.921 Y49.398 E84.74193
G1 X14.407 Y48.727 E84.76949
G1 X14.956 Y48.105 E84.79708
G1 X15.562 Y47.539 E84.82466
G1 X16.22 Y47.034 E84.85225
G1 X16.923 Y46.595 E84.87982
G1 X17.666 Y46.226 E84.90741
G0 F6000 X18.037 Y46.503
G1 F1200 X18.802 Y46.237 E84.93435
G1 X19.589 Y46.046 E84.96128
G1 X20.391 Y45.934 E84.98821
G1 X21.12 Y45.902 E85.01248
G1 X198.92 Y45.902 E90.92614
G1 X199.729 Y45.942 E90.95308
G1 X200.53 Y46.062 E90.98002
G1 X201.315 Y46.259 E91.00693
G1 X202.076 Y46.534 E91.03385
G1 X202.807 Y46.882 E91.06077
G1 X203.501 Y47.301 E91.08774
G1 X204.149 Y47.786 E91.11466
G1 X204.746 Y48.332 E91.14157
G1 X205.287 Y48.935 E91.16851
G1 X205.766 Y49.588 E91.19545
G1 X206.177 Y50.285 E91.22236
G1 X206.519 Y51.019 E91.24929
G1 X206.785 Y51.784 E91.27623
G1 X206.976 Y52.571 E91.30317
G1 X207.088 Y53.373 E91.3301
G1 X207.12 Y54.102 E91.35437
G1 X207.12 Y79.538 E92.20037
G1 X207.08 Y80.347 E92.22732
G1 X206.96 Y81.148 E92.25425
G1 X206.763 Y81.933 E92.28117
G1 X206.488 Y82.694 E92.30809
G1 X206.14 Y83.425 E92.33501
G1 X205.721 Y84.119 E92.36198
G1 X205.329 Y84.643 E92.38374
G1 X205.726 Y85.184 E92.40606
G1 X206.137 Y85.881 E92.43297
G1 X206.479 Y86.615 E92.45991
G1 X206.745 Y87.38 E92.48684
G1 X206.936 Y88.167 E92.51378
G1 X207.048 Y88.969 E92.54071
G1 X207.08 Y89.698 E92.56498
G1 X207.08 Y165.898 E95.09941
G1 X207.04 Y166.707 E95.12635
G1 X206.92 Y167.508 E95.15328
G1 X206.723 Y168.293 E95.1802
G1 X206.448 Y169.054 E95.20712
G1 X206.1 Y169.785 E95.23404
G1 X205.681 Y170.479 E95.26101
G1 X205.196 Y171.127 E95.28793
G1 X204.65 Y171.724 E95.31484
G1 X204.047 Y172.265 E95.34178
G1 X203.394 Y172.744 E95.36872
G1 X202.697 Y173.155 E95.39563
G1 X201.963 Y173.497 E95.42256
G1 X201.198 Y173.763 E95.4495
G1 X200.411 Y173.954 E95.47644
G1 X199.609 Y174.066 E95.50337
G1 X198.88 Y174.098 E95.52764
G1 X21.08 Y174.098 E101.44129
G1 X20.271 Y174.058 E101.46823
G1 X19.47 Y173.938 E101.49517
G1 X18.685 Y173.741 E101.52209
G1 X17.924 Y173.466 E101.549
G1 X17.193 Y173.118 E101.57593
G1 X16.499 Y172.699 E101.60289
G1 X15.851 Y172.214 E101.62981
G1 X15.254 Y171.668 E101.65672
G1 X14.713 Y171.065 E101.68367
G1 X14.234 Y170.412 E101.7106
G1 X13.823 Y169.715 E101.73751
G1 X13.481 Y168.981 E101.76445
G1 X13.215 Y168.216 E101.79139
G1 X13.024 Y167.429 E101.81832
G1 X12.912 Y166.627 E101.84526
G1 X12.88 Y165.898 E101.86953
G1 X12.88 Y89.698 E104.40395
G1 X12.92 Y88.889 E104.43089
G1 X13.04 Y88.088 E104.45783
G1 X13.237 Y87.303 E104.48475
G1 X13.512 Y86.542 E104.51166
G1 X13.86 Y85.811 E104.53859
G1 X14.279 Y85.117 E104.56555
G1 X14.671 Y84.593 E104.58731
G1 X14.274 Y84.052 E104.60963
G1 X13.863 Y83.355 E104.63655
G1 X13.521 Y82.621 E104.66348
G1 X13.255 Y81.856 E104.69042
G1 X13.064 Y81.069 E104.71735
G1 X12.952 Y80.267 E104.74429
G1 X12.92 Y79.538 E104.76856
G1 X12.92 Y54.102 E105.61456
G1 X12.96 Y53.293 E105.6415
G1 X13.08 Y52.492 E105.66844
G1 X13.277 Y51.707 E105.69536
G1 X13.552 Y50.946 E105.72227
G1 X13.9 Y50.215 E105.7492
G1 X14.319 Y49.521 E105.77616
G1 X14.804 Y48.873 E105.80308
G1 X15.35 Y48.276 E105.82999
G1 X15.953 Y47.735 E105.85694
G1 X16.606 Y47.256 E105.88387
G1 X17.303 Y46.845 E105.91078
G1 X18.037 Y46.503 E105.93772
G0 F6000 X18.406 Y46.789
G1 F1200 X19.159 Y46.552 E105.96397
G1 X19.933 Y46.393 E105.99025
G1 X20.718 Y46.312 E106.0165
G1 X21.12 Y46.302 E106.02988
G1 X198.92 Y46.302 E111.94353
G1 X199.709 Y46.342 E111.9698
G1 X200.489 Y46.461 E111.99605
