;FLAVOR:Marlin
;TIME:24965
;Filament used: 18.2888m
;Layer height: 0.2
;MINX:11.071
;MINY:57.185
;MINZ:0.2
;MAXX:208.929
;MAXY:162.815
;MAXZ:3.2
;Generated with Cura_SteamEngine 4.11.0
M140 S50
M105
M190 S50
M104 S200
M105
M109 S200
M82 ;absolute extrusion mode
; Ender 3 Custom Start G-code
G92 E0 ; Reset Extruder
G28 ; Home all axes
G29 ; Auto bed-level (BL-Touch)
G1 Z2.0 F3000 ; Move Z Axis up little to prevent scratching of Heat Bed
G1 X0.1 Y20 Z0.3 F5000.0 ; Move to start position
G1 X0.1 Y200.0 Z0.3 F1500.0 E15 ; Draw the first line
G1 X0.4 Y200.0 Z0.3 F5000.0 ; Move to side a little
G1 X0.4 Y20 Z0.3 F1500.0 E30 ; Draw the second line
G92 E0 ; Reset Extruder
G1 Z2.0 F3000 ; Move Z Axis up little to prevent scratching of Heat Bed
G1 X5 Y20 Z0.3 F5000.0 ; Move over to prevent blob squish
G92 E0
G92 E0
G1 F2700 E-5
;LAYER_COUNT:16
;LAYER:0
M107
G0 F6000 X18.379 Y57.64 Z0.2
;TYPE:SKIRT
G1 F2700 E0
G1 F1200 X19.234 Y57.412 E0.02943
G1 X20.107 Y57.262 E0.05889
G1 X21.329 Y57.185 E0.09962
G1 X199.129 Y57.185 E6.01327
G1 X200.013 Y57.225 E6.0427
G1 X200.89 Y57.345 E6.07214
G1 X201.753 Y57.543 E6.10159
G1 X202.594 Y57.818 E6.13102
G1 X203.407 Y58.168 E6.16046
G1 X204.186 Y58.59 E6.18993
G1 X204.922 Y59.081 E6.21935
G1 X205.612 Y59.636 E6.24881
G1 X206.249 Y60.251 E6.27826
G1 X206.827 Y60.921 E6.30769
G1 X207.343 Y61.64 E6.33712
G1 X207.792 Y62.403 E6.36657
G1 X208.17 Y63.204 E6.39603
G1 X208.474 Y64.035 E6.42546
G1 X208.702 Y64.89 E6.45489
G1 X208.852 Y65.763 E6.48435
G1 X208.929 Y66.985 E6.52507
G1 X208.929 Y101.202 E7.66314
G1 X208.889 Y102.086 E7.69257
G1 X208.769 Y102.963 E7.72201
G1 X208.571 Y103.826 E7.75146
G1 X208.296 Y104.667 E7.78089
G1 X207.946 Y105.48 E7.81033
G1 X207.524 Y106.259 E7.83979
G1 X207.033 Y106.995 E7.86922
G1 X206.9 Y107.16 E7.87627
G1 X207 Y107.306 E7.88216
G1 X207.432 Y108.079 E7.91161
G1 X207.793 Y108.887 E7.94104
G1 X208.079 Y109.725 E7.97049
G1 X208.288 Y110.585 E7.99993
G1 X208.419 Y111.46 E8.02936
G1 X208.471 Y112.47 E8.06299
G1 X208.471 Y153.015 E9.41153
G1 X208.431 Y153.899 E9.44096
G1 X208.311 Y154.776 E9.4704
G1 X208.113 Y155.639 E9.49985
G1 X207.838 Y156.48 E9.52928
G1 X207.488 Y157.293 E9.55872
G1 X207.066 Y158.072 E9.58818
G1 X206.575 Y158.808 E9.61761
G1 X206.02 Y159.498 E9.64706
G1 X205.405 Y160.135 E9.67651
G1 X204.735 Y160.713 E9.70594
G1 X204.016 Y161.229 E9.73538
G1 X203.253 Y161.678 E9.76482
G1 X202.452 Y162.056 E9.79428
G1 X201.621 Y162.36 E9.82371
G1 X200.766 Y162.588 E9.85315
G1 X199.893 Y162.738 E9.88261
G1 X198.671 Y162.815 E9.92333
G1 X20.871 Y162.815 E15.83698
G1 X19.987 Y162.775 E15.86642
G1 X19.11 Y162.655 E15.89586
G1 X18.247 Y162.457 E15.92531
G1 X17.406 Y162.182 E15.95473
G1 X16.593 Y161.832 E15.98417
G1 X15.814 Y161.41 E16.01364
G1 X15.078 Y160.919 E16.04307
G1 X14.388 Y160.364 E16.07252
G1 X13.751 Y159.749 E16.10197
G1 X13.173 Y159.079 E16.1314
G1 X12.657 Y158.36 E16.16084
G1 X12.208 Y157.597 E16.19028
G1 X11.83 Y156.796 E16.21974
G1 X11.526 Y155.965 E16.24917
G1 X11.298 Y155.11 E16.2786
G1 X11.148 Y154.237 E16.30806
G1 X11.071 Y153.015 E16.34879
G1 X11.071 Y112.747 E17.68811
G1 X11.111 Y111.863 E17.71754
G1 X11.231 Y110.986 E17.74698
G1 X11.429 Y110.123 E17.77643
G1 X11.704 Y109.282 E17.80586
G1 X12.054 Y108.469 E17.8353
G1 X12.476 Y107.69 E17.86477
G1 X12.851 Y107.127 E17.88726
G1 X12.666 Y106.812 E17.89941
G1 X12.288 Y106.011 E17.92887
G1 X11.984 Y105.18 E17.9583
G1 X11.756 Y104.325 E17.98774
G1 X11.606 Y103.452 E18.0172
G1 X11.529 Y102.23 E18.05792
G1 X11.529 Y66.985 E19.23018
G1 X11.569 Y66.101 E19.25961
G1 X11.689 Y65.224 E19.28905
G1 X11.887 Y64.361 E19.3185
G1 X12.162 Y63.52 E19.34793
G1 X12.512 Y62.707 E19.37737
G1 X12.934 Y61.928 E19.40683
G1 X13.425 Y61.192 E19.43626
G1 X13.98 Y60.502 E19.46571
G1 X14.595 Y59.865 E19.49516
G1 X15.265 Y59.287 E19.52459
G1 X15.984 Y58.771 E19.55403
G1 X16.747 Y58.322 E19.58347
G1 X17.548 Y57.944 E19.61293
G1 X18.379 Y57.64 E19.64236
G0 F6000 X18.739 Y57.949
G1 F1200 X19.583 Y57.749 E19.67121
G1 X20.441 Y57.627 E19.70004
G1 X21.329 Y57.585 E19.7296
G1 X199.129 Y57.585 E25.64326
G1 X199.995 Y57.625 E25.67209
G1 X200.854 Y57.745 E25.70094
G1 X201.698 Y57.943 E25.72977
G1 X202.52 Y58.218 E25.7586
G1 X203.313 Y58.568 E25.78743
G1 X204.071 Y58.989 E25.81627
G1 X204.786 Y59.478 E25.84508
G1 X205.454 Y60.031 E25.87392
G1 X206.068 Y60.644 E25.90278
G1 X206.623 Y61.31 E25.93162
G1 X207.113 Y62.024 E25.96042
G1 X207.537 Y62.781 E25.98928
G1 X207.888 Y63.574 E26.01812
G1 X208.165 Y64.395 E26.04694
G1 X208.365 Y65.239 E26.07579
G1 X208.487 Y66.097 E26.10461
G1 X208.529 Y66.985 E26.13418
G1 X208.529 Y101.202 E27.27224
G1 X208.489 Y102.068 E27.30108
G1 X208.369 Y102.927 E27.32992
G1 X208.171 Y103.771 E27.35876
G1 X207.896 Y104.593 E27.38759
G1 X207.546 Y105.386 E27.41642
G1 X207.125 Y106.144 E27.44525
G1 X206.636 Y106.859 E27.47407
G1 X206.405 Y107.138 E27.48611
G1 X206.78 Y107.716 E27.50903
G1 X207.184 Y108.483 E27.53786
G1 X207.515 Y109.284 E27.56669
G1 X207.771 Y110.113 E27.59555
G1 X207.949 Y110.961 E27.62436
G1 X208.049 Y111.822 E27.65319
G1 X208.071 Y112.47 E27.67476
G1 X208.071 Y153.015 E29.02329
G1 X208.031 Y153.881 E29.05213
G1 X207.911 Y154.74 E29.08097
G1 X207.713 Y155.584 E29.10981
G1 X207.438 Y156.406 E29.13864
G1 X207.088 Y157.199 E29.16747
G1 X206.667 Y157.957 E29.19631
G1 X206.178 Y158.672 E29.22512
G1 X205.625 Y159.34 E29.25396
G1 X205.012 Y159.954 E29.28282
G1 X204.346 Y160.509 E29.31165
G1 X203.632 Y160.999 E29.34045
G1 X202.875 Y161.423 E29.36931
G1 X202.082 Y161.774 E29.39815
G1 X201.261 Y162.051 E29.42697
G1 X200.417 Y162.251 E29.45582
G1 X199.559 Y162.373 E29.48465
G1 X198.671 Y162.415 E29.51421
G1 X20.871 Y162.415 E35.42787
G1 X20.005 Y162.375 E35.4567
G1 X19.146 Y162.255 E35.48555
G1 X18.302 Y162.057 E35.51438
G1 X17.48 Y161.782 E35.54321
G1 X16.687 Y161.432 E35.57204
G1 X15.929 Y161.011 E35.60088
G1 X15.214 Y160.522 E35.62969
G1 X14.546 Y159.969 E35.65853
G1 X13.932 Y159.356 E35.68739
G1 X13.377 Y158.69 E35.71623
G1 X12.887 Y157.976 E35.74503
G1 X12.463 Y157.219 E35.77389
G1 X12.112 Y156.426 E35.80273
G1 X11.835 Y155.605 E35.83155
G1 X11.635 Y154.761 E35.8604
G1 X11.513 Y153.903 E35.88922
G1 X11.471 Y153.015 E35.91879
G1 X11.471 Y112.747 E37.25811
G1 X11.511 Y111.881 E37.28694
G1 X11.631 Y111.022 E37.31579
G1 X11.829 Y110.178 E37.34462
G1 X12.104 Y109.356 E37.37345
G1 X12.454 Y108.563 E37.40228
G1 X12.875 Y107.805 E37.43112
G1 X13.322 Y107.151 E37.45747
G1 X12.921 Y106.434 E37.48479
G1 X12.57 Y105.641 E37.51364
G1 X12.293 Y104.82 E37.54246
G1 X12.093 Y103.976 E37.57131
G1 X11.971 Y103.118 E37.60013
G1 X11.929 Y102.23 E37.6297
G1 X11.929 Y66.985 E38.80195
G1 X11.969 Y66.119 E38.83078
G1 X12.089 Y65.26 E38.85963
G1 X12.287 Y64.416 E38.88847
G1 X12.562 Y63.594 E38.9173
G1 X12.912 Y62.801 E38.94613
G1 X13.333 Y62.043 E38.97496
G1 X13.822 Y61.328 E39.00378
G1 X14.375 Y60.66 E39.03262
G1 X14.988 Y60.046 E39.06148
G1 X15.654 Y59.491 E39.09031
G1 X16.368 Y59.001 E39.11911
G1 X17.125 Y58.577 E39.14797
G1 X17.918 Y58.226 E39.17681
G1 X18.739 Y57.949 E39.20563
G0 F6000 X18.285 Y58.515
G1 F1200 X19.096 Y58.266 E39.23385
G1 X19.927 Y58.095 E39.26207
G1 X20.77 Y58.002 E39.29028
G1 X21.329 Y57.985 E39.30888
G1 X199.129 Y57.985 E45.22253
G1 X199.976 Y58.025 E45.25073
G1 X200.816 Y58.145 E45.27895
G1 X201.641 Y58.343 E45.30717
G1 X202.444 Y58.618 E45.3354
G1 X203.217 Y58.967 E45.36361
G1 X203.953 Y59.387 E45.3918
G1 X204.647 Y59.875 E45.42002
G1 X205.292 Y60.426 E45.44823
G1 X205.882 Y61.036 E45.47646
G1 X206.412 Y61.698 E45.50466
G1 X206.878 Y62.407 E45.53288
G1 X207.274 Y63.157 E45.56109
G1 X207.599 Y63.941 E45.58932
G1 X207.848 Y64.752 E45.61753
G1 X208.019 Y65.583 E45.64575
G1 X208.112 Y66.426 E45.67396
G1 X208.129 Y66.985 E45.69256
G1 X208.129 Y101.202 E46.83062
G1 X208.089 Y102.049 E46.85883
G1 X207.969 Y102.889 E46.88705
G1 X207.771 Y103.714 E46.91527
G1 X207.496 Y104.517 E46.9435
G1 X207.147 Y105.29 E46.97171
G1 X206.727 Y106.026 E46.99989
G1 X206.239 Y106.72 E47.02811
G1 X205.897 Y107.121 E47.04564
G1 X206.108 Y107.402 E47.05733
G1 X206.552 Y108.124 E47.08552
G1 X206.926 Y108.886 E47.11375
G1 X207.227 Y109.679 E47.14196
G1 X207.452 Y110.497 E47.17018
G1 X207.599 Y111.332 E47.19838
G1 X207.671 Y112.47 E47.2363
G1 X207.671 Y153.015 E48.58484
G1 X207.631 Y153.862 E48.61304
G1 X207.511 Y154.702 E48.64126
G1 X207.313 Y155.527 E48.66948
G1 X207.038 Y156.33 E48.69771
G1 X206.689 Y157.103 E48.72592
G1 X206.269 Y157.839 E48.7541
G1 X205.781 Y158.533 E48.78232
G1 X205.23 Y159.178 E48.81054
G1 X204.62 Y159.768 E48.83876
G1 X203.958 Y160.298 E48.86697
G1 X203.249 Y160.764 E48.89519
G1 X202.499 Y161.16 E48.9234
G1 X201.715 Y161.485 E48.95162
G1 X200.904 Y161.734 E48.97984
G1 X200.073 Y161.905 E49.00806
G1 X199.23 Y161.998 E49.03627
G1 X198.671 Y162.015 E49.05487
G1 X20.871 Y162.015 E54.96852
G1 X20.024 Y161.975 E54.99672
G1 X19.184 Y161.855 E55.02494
G1 X18.359 Y161.657 E55.05316
G1 X17.556 Y161.382 E55.08139
G1 X16.783 Y161.033 E55.1096
G1 X16.047 Y160.613 E55.13779
G1 X15.353 Y160.125 E55.16601
G1 X14.708 Y159.574 E55.19422
G1 X14.118 Y158.964 E55.22245
G1 X13.588 Y158.302 E55.25065
G1 X13.122 Y157.593 E55.27887
G1 X12.726 Y156.843 E55.30708
G1 X12.401 Y156.059 E55.33531
G1 X12.152 Y155.248 E55.36352
G1 X11.981 Y154.417 E55.39174
G1 X11.888 Y153.574 E55.41995
G1 X11.871 Y153.015 E55.43855
G1 X11.871 Y112.747 E56.77787
G1 X11.911 Y111.9 E56.80607
G1 X12.031 Y111.06 E56.8343
G1 X12.229 Y110.235 E56.86251
G1 X12.504 Y109.432 E56.89075
G1 X12.853 Y108.659 E56.91895
G1 X13.273 Y107.923 E56.94714
G1 X13.761 Y107.229 E56.97536
G1 X13.815 Y107.166 E56.97812
G1 X13.58 Y106.808 E56.99236
G1 X13.184 Y106.058 E57.02057
G1 X12.859 Y105.274 E57.0488
G1 X12.61 Y104.463 E57.07701
G1 X12.439 Y103.632 E57.10523
G1 X12.346 Y102.789 E57.13344
G1 X12.329 Y102.23 E57.15204
G1 X12.329 Y66.985 E58.32429
G1 X12.369 Y66.138 E58.3525
G1 X12.489 Y65.298 E58.38072
G1 X12.687 Y64.473 E58.40894
G1 X12.962 Y63.67 E58.43717
G1 X13.311 Y62.897 E58.46538
G1 X13.731 Y62.161 E58.49356
G1 X14.219 Y61.467 E58.52178
G1 X14.77 Y60.822 E58.55
G1 X15.38 Y60.232 E58.57822
G1 X16.042 Y59.702 E58.60643
G1 X16.751 Y59.236 E58.63465
G1 X17.501 Y58.84 E58.66285
G1 X18.285 Y58.515 E58.69108
G0 F6000 X18.65 Y58.813
G1 F1200 X19.449 Y58.593 E58.71865
G1 X20.266 Y58.451 E58.74623
G1 X21.329 Y58.385 E58.78165
G1 X199.129 Y58.385 E64.6953
G1 X199.957 Y58.425 E64.72287
G1 X200.778 Y58.545 E64.75047
G1 X201.583 Y58.743 E64.77804
G1 X202.365 Y59.017 E64.8056
G1 X203.118 Y59.366 E64.83321
G1 X203.833 Y59.786 E64.86079
G1 X204.504 Y60.272 E64.88834
G1 X205.126 Y60.821 E64.91594
G1 X205.692 Y61.427 E64.94352
G1 X206.197 Y62.085 E64.9711
G1 X206.636 Y62.788 E64.99867
G1 X207.005 Y63.531 E65.02626
G1 X207.301 Y64.306 E65.05386
G1 X207.521 Y65.105 E65.08142
G1 X207.663 Y65.922 E65.109
G1 X207.729 Y66.985 E65.14442
G1 X207.729 Y101.202 E66.28249
G1 X207.689 Y102.03 E66.31006
G1 X207.569 Y102.851 E66.33765
G1 X207.371 Y103.656 E66.36523
G1 X207.097 Y104.438 E66.39279
G1 X206.748 Y105.191 E66.42039
G1 X206.328 Y105.906 E66.44797
G1 X205.842 Y106.577 E66.47553
G1 X205.383 Y107.097 E66.4986
G1 X205.419 Y107.139 E66.50044
G1 X205.901 Y107.813 E66.528
G1 X206.316 Y108.531 E66.55558
G1 X206.66 Y109.286 E66.58317
G1 X206.929 Y110.07 E66.61074
G1 X207.122 Y110.877 E66.63834
G1 X207.236 Y111.698 E66.66591
G1 X207.271 Y112.47 E66.69161
G1 X207.271 Y153.015 E68.04014
G1 X207.231 Y153.843 E68.06772
G1 X207.111 Y154.664 E68.09531
G1 X206.913 Y155.469 E68.12289
G1 X206.639 Y156.251 E68.15045
G1 X206.29 Y157.004 E68.17805
G1 X205.87 Y157.719 E68.20563
G1 X205.384 Y158.39 E68.23319
G1 X204.835 Y159.012 E68.26078
G1 X204.229 Y159.578 E68.28836
G1 X203.571 Y160.083 E68.31595
G1 X202.868 Y160.522 E68.34351
G1 X202.125 Y160.891 E68.37111
G1 X201.35 Y161.187 E68.3987
G1 X200.551 Y161.407 E68.42626
G1 X199.734 Y161.549 E68.45384
G1 X198.671 Y161.615 E68.48927
G1 X20.871 Y161.615 E74.40292
G1 X20.043 Y161.575 E74.43049
G1 X19.222 Y161.455 E74.45809
G1 X18.417 Y161.257 E74.48566
G1 X17.635 Y160.983 E74.51322
G1 X16.882 Y160.634 E74.54082
G1 X16.167 Y160.214 E74.5684
G1 X15.496 Y159.728 E74.59596
G1 X14.874 Y159.179 E74.62355
G1 X14.308 Y158.573 E74.65113
G1 X13.803 Y157.915 E74.67872
G1 X13.364 Y157.212 E74.70629
G1 X12.995 Y156.469 E74.73388
G1 X12.699 Y155.694 E74.76147
G1 X12.479 Y154.895 E74.78904
G1 X12.337 Y154.078 E74.81662
G1 X12.271 Y153.015 E74.85204
G1 X12.271 Y112.747 E76.19136
G1 X12.311 Y111.919 E76.21893
G1 X12.431 Y111.098 E76.24653
G1 X12.629 Y110.293 E76.2741
G1 X12.903 Y109.511 E76.30166
G1 X13.252 Y108.758 E76.32926
G1 X13.672 Y108.043 E76.35684
G1 X14.158 Y107.372 E76.3844
G1 X14.312 Y107.197 E76.39215
G1 X14.261 Y107.13 E76.39495
G1 X13.822 Y106.427 E76.42252
G1 X13.453 Y105.684 E76.45011
G1 X13.157 Y104.909 E76.47771
G1 X12.937 Y104.11 E76.50527
G1 X12.795 Y103.293 E76.53285
G1 X12.729 Y102.23 E76.56827
G1 X12.729 Y66.985 E77.74053
G1 X12.769 Y66.157 E77.7681
G1 X12.889 Y65.336 E77.7957
G1 X13.087 Y64.531 E77.82327
G1 X13.361 Y63.749 E77.85083
G1 X13.71 Y62.996 E77.87843
G1 X14.13 Y62.281 E77.90601
G1 X14.616 Y61.61 E77.93357
G1 X15.165 Y60.988 E77.96116
G1 X15.771 Y60.422 E77.98874
G1 X16.429 Y59.917 E78.01633
G1 X17.132 Y59.478 E78.0439
G1 X17.875 Y59.109 E78.07149
G1 X18.65 Y58.813 E78.09908
G0 F6000 X19.011 Y59.12
G1 F1200 X19.798 Y58.929 E78.12602
G1 X20.6 Y58.817 E78.15295
G1 X21.329 Y58.785 E78.17722
G1 X199.129 Y58.785 E84.09087
G1 X199.938 Y58.825 E84.11781
G1 X200.739 Y58.945 E84.14475
G1 X201.524 Y59.142 E84.17167
G1 X202.285 Y59.417 E84.19858
G1 X203.016 Y59.765 E84.22551
G1 X203.71 Y60.184 E84.25247
G1 X204.358 Y60.669 E84.27939
G1 X204.955 Y61.215 E84.3063
G1 X205.496 Y61.818 E84.33325
G1 X205.975 Y62.471 E84.36018
G1 X206.386 Y63.168 E84.3871
G1 X206.728 Y63.902 E84.41403
G1 X206.994 Y64.667 E84.44097
G1 X207.185 Y65.454 E84.4679
G1 X207.297 Y66.256 E84.49484
G1 X207.329 Y66.985 E84.51911
G1 X207.329 Y101.202 E85.65717
G1 X207.289 Y102.011 E85.68411
G1 X207.169 Y102.812 E85.71105
G1 X206.972 Y103.597 E85.73797
G1 X206.697 Y104.358 E85.76488
G1 X206.349 Y105.089 E85.79181
G1 X205.93 Y105.783 E85.81877
G1 X205.445 Y106.431 E85.84569
G1 X204.899 Y107.028 E85.8726
G1 X204.841 Y107.08 E85.87519
G1 X205.233 Y107.553 E85.89562
G1 X205.686 Y108.224 E85.92255
G1 X206.071 Y108.937 E85.9495
G1 X206.383 Y109.684 E85.97643
G1 X206.62 Y110.458 E86.00335
G1 X206.78 Y111.252 E86.03029
G1 X206.861 Y112.057 E86.0572
G1 X206.871 Y112.47 E86.07094
G1 X206.871 Y153.015 E87.41947
G1 X206.831 Y153.824 E87.44641
G1 X206.711 Y154.625 E87.47335
G1 X206.514 Y155.41 E87.50027
G1 X206.239 Y156.171 E87.52718
G1 X205.891 Y156.902 E87.55411
G1 X205.472 Y157.596 E87.58107
G1 X204.987 Y158.244 E87.60799
G1 X204.441 Y158.841 E87.6349
G1 X203.838 Y159.382 E87.66185
G1 X203.185 Y159.861 E87.68878
G1 X202.488 Y160.272 E87.71569
G1 X201.754 Y160.614 E87.74263
G1 X200.989 Y160.88 E87.76957
G1 X200.202 Y161.071 E87.7965
G1 X199.4 Y161.183 E87.82343
G1 X198.671 Y161.215 E87.8477
G1 X20.871 Y161.215 E93.76136
G1 X20.062 Y161.175 E93.7883
G1 X19.261 Y161.055 E93.81524
G1 X18.476 Y160.858 E93.84215
G1 X17.715 Y160.583 E93.86907
G1 X16.984 Y160.235 E93.89599
G1 X16.29 Y159.816 E93.92296
G1 X15.642 Y159.331 E93.94988
G1 X15.045 Y158.785 E93.97679
G1 X14.504 Y158.182 E94.00373
G1 X14.025 Y157.529 E94.03067
G1 X13.614 Y156.832 E94.05758
G1 X13.272 Y156.098 E94.08451
G1 X13.006 Y155.333 E94.11145
G1 X12.815 Y154.546 E94.13839
G1 X12.703 Y153.744 E94.16532
G1 X12.671 Y153.015 E94.18959
G1 X12.671 Y112.747 E95.52891
G1 X12.711 Y111.938 E95.55585
G1 X12.831 Y111.137 E95.58279
G1 X13.028 Y110.352 E95.60971
G1 X13.303 Y109.591 E95.63662
G1 X13.651 Y108.86 E95.66355
G1 X14.07 Y108.166 E95.69051
G1 X14.555 Y107.518 E95.71743
G1 X14.83 Y107.217 E95.73099
G1 X14.483 Y106.744 E95.7505
G1 X14.072 Y106.047 E95.77742
G1 X13.73 Y105.313 E95.80435
G1 X13.464 Y104.548 E95.83129
G1 X13.273 Y103.761 E95.85822
G1 X13.161 Y102.959 E95.88516
G1 X13.129 Y102.23 E95.90943
G1 X13.129 Y66.985 E97.08168
G1 X13.169 Y66.176 E97.10862
G1 X13.289 Y65.375 E97.13556
G1 X13.486 Y64.59 E97.16248
G1 X13.761 Y63.829 E97.18939
