;FLAVOR:Marlin
;TIME:24826
;Filament used: 18.205m
;Layer height: 0.2
;MINX:11.053
;MINY:58.016
;MINZ:0.2
;MAXX:208.947
;MAXY:161.984
;MAXZ:3.2
;Generated with Cura_SteamEngine 4.11.0
M140 S50
M105
M190 S50
M104 S200
M105
M109 S200
M82 ;absolute extrusion mode
; Ender 3 Custom Start G-code
G92 E0 ; Reset Extruder
G28 ; Home all axes
G29 ; Auto bed-level (BL-Touch)
G1 Z2.0 F3000 ; Move Z Axis up little to prevent scratching of Heat Bed
G1 X0.1 Y20 Z0.3 F5000.0 ; Move to start position
G1 X0.1 Y200.0 Z0.3 F1500.0 E15 ; Draw the first line
G1 X0.4 Y200.0 Z0.3 F5000.0 ; Move to side a little
G1 X0.4 Y20 Z0.3 F1500.0 E30 ; Draw the second line
G92 E0 ; Reset Extruder
G1 Z2.0 F3000 ; Move Z Axis up little to prevent scratching of Heat Bed
G1 X5 Y20 Z0.3 F5000.0 ; Move over to prevent blob squish
G92 E0
G92 E0
G1 F2700 E-5
;LAYER_COUNT:16
;LAYER:0
M107
G0 F6000 X18.397 Y58.471 Z0.2
;TYPE:SKIRT
G1 F2700 E0
G1 F1200 X19.252 Y58.243 E0.02943
G1 X20.125 Y58.093 E0.05889
G1 X21.347 Y58.016 E0.09962
G1 X199.147 Y58.016 E6.01327
G1 X200.031 Y58.056 E6.0427
G1 X200.908 Y58.176 E6.07214
G1 X201.771 Y58.374 E6.10159
G1 X202.612 Y58.649 E6.13102
G1 X203.425 Y58.999 E6.16046
G1 X204.204 Y59.421 E6.18993
G1 X204.94 Y59.912 E6.21935
G1 X205.63 Y60.467 E6.24881
G1 X206.267 Y61.082 E6.27826
G1 X206.845 Y61.752 E6.30769
G1 X207.361 Y62.471 E6.33712
G1 X207.81 Y63.234 E6.36657
G1 X208.188 Y64.035 E6.39603
G1 X208.492 Y64.866 E6.42546
G1 X208.72 Y65.721 E6.45489
G1 X208.87 Y66.594 E6.48435
G1 X208.947 Y67.816 E6.52507
G1 X208.947 Y99.904 E7.59233
G1 X208.907 Y100.788 E7.62176
G1 X208.787 Y101.665 E7.6512
G1 X208.589 Y102.528 E7.68065
G1 X208.314 Y103.369 E7.71008
G1 X207.964 Y104.182 E7.73952
G1 X207.542 Y104.961 E7.76898
G1 X207.33 Y105.279 E7.7817
G1 X207.635 Y105.9 E7.80471
G1 X207.952 Y106.727 E7.83416
G1 X208.193 Y107.578 E7.86358
G1 X208.357 Y108.448 E7.89303
G1 X208.441 Y109.329 E7.92246
G1 X208.453 Y109.82 E7.9388
G1 X208.453 Y152.184 E9.34783
G1 X208.413 Y153.068 E9.37726
G1 X208.293 Y153.945 E9.4067
G1 X208.095 Y154.808 E9.43615
G1 X207.82 Y155.649 E9.46558
G1 X207.47 Y156.462 E9.49502
G1 X207.048 Y157.241 E9.52449
G1 X206.557 Y157.977 E9.55392
G1 X206.002 Y158.667 E9.58337
G1 X205.387 Y159.304 E9.61282
G1 X204.717 Y159.882 E9.64225
G1 X203.998 Y160.398 E9.67168
G1 X203.235 Y160.847 E9.70113
G1 X202.434 Y161.225 E9.73059
G1 X201.603 Y161.529 E9.76002
G1 X200.748 Y161.757 E9.78945
G1 X199.875 Y161.907 E9.81891
G1 X198.653 Y161.984 E9.85964
G1 X20.853 Y161.984 E15.77329
G1 X19.969 Y161.944 E15.80272
G1 X19.092 Y161.824 E15.83216
G1 X18.229 Y161.626 E15.86161
G1 X17.388 Y161.351 E15.89104
G1 X16.575 Y161.001 E15.92048
G1 X15.796 Y160.579 E15.94995
G1 X15.06 Y160.088 E15.97937
G1 X14.37 Y159.533 E16.00883
G1 X13.733 Y158.918 E16.03827
G1 X13.155 Y158.248 E16.06771
G1 X12.639 Y157.529 E16.09714
G1 X12.19 Y156.766 E16.12659
G1 X11.812 Y155.965 E16.15604
G1 X11.508 Y155.134 E16.18548
G1 X11.28 Y154.279 E16.21491
G1 X11.13 Y153.406 E16.24437
G1 X11.053 Y152.184 E16.28509
G1 X11.053 Y110.166 E17.68262
G1 X11.093 Y109.282 E17.71205
G1 X11.213 Y108.405 E17.74149
G1 X11.411 Y107.542 E17.77094
G1 X11.686 Y106.701 E17.80037
G1 X12.036 Y105.888 E17.82981
G1 X12.448 Y105.127 E17.85859
G1 X12.306 Y104.825 E17.86969
G1 X12.002 Y103.994 E17.89912
G1 X11.774 Y103.139 E17.92855
G1 X11.624 Y102.266 E17.95801
G1 X11.547 Y101.044 E17.99874
G1 X11.547 Y67.816 E19.10391
G1 X11.587 Y66.932 E19.13334
G1 X11.707 Y66.055 E19.16278
G1 X11.905 Y65.192 E19.19223
G1 X12.18 Y64.351 E19.22166
G1 X12.53 Y63.538 E19.2511
G1 X12.952 Y62.759 E19.28056
G1 X13.443 Y62.023 E19.30999
G1 X13.998 Y61.333 E19.33944
G1 X14.613 Y60.696 E19.36889
G1 X15.283 Y60.118 E19.39832
G1 X16.002 Y59.602 E19.42776
G1 X16.765 Y59.153 E19.4572
G1 X17.566 Y58.775 E19.48666
G1 X18.397 Y58.471 E19.51609
G0 F6000 X18.757 Y58.78
G1 F1200 X19.601 Y58.58 E19.54494
G1 X20.459 Y58.458 E19.57377
G1 X21.347 Y58.416 E19.60333
G1 X199.147 Y58.416 E25.51699
G1 X200.013 Y58.456 E25.54582
G1 X200.872 Y58.576 E25.57467
G1 X201.716 Y58.774 E25.6035
G1 X202.538 Y59.049 E25.63233
G1 X203.331 Y59.399 E25.66116
G1 X204.089 Y59.82 E25.69
G1 X204.804 Y60.309 E25.71881
G1 X205.472 Y60.862 E25.74765
G1 X206.086 Y61.475 E25.77651
G1 X206.641 Y62.141 E25.80535
G1 X207.131 Y62.855 E25.83415
G1 X207.555 Y63.612 E25.86301
G1 X207.906 Y64.405 E25.89185
G1 X208.183 Y65.226 E25.92067
G1 X208.383 Y66.07 E25.94952
G1 X208.505 Y66.928 E25.97834
G1 X208.547 Y67.816 E26.00791
G1 X208.547 Y99.904 E27.07516
G1 X208.507 Y100.77 E27.10399
G1 X208.387 Y101.629 E27.13284
G1 X208.189 Y102.473 E27.16168
G1 X207.914 Y103.295 E27.19051
G1 X207.564 Y104.088 E27.21934
G1 X207.143 Y104.846 E27.24817
G1 X206.861 Y105.258 E27.26478
G1 X207.011 Y105.519 E27.27479
G1 X207.372 Y106.307 E27.30362
G1 X207.659 Y107.126 E27.33249
G1 X207.869 Y107.967 E27.36132
G1 X208 Y108.824 E27.39015
G1 X208.053 Y109.82 E27.42332
G1 X208.053 Y152.184 E28.83236
G1 X208.013 Y153.05 E28.86119
G1 X207.893 Y153.909 E28.89004
G1 X207.695 Y154.753 E28.91887
G1 X207.42 Y155.575 E28.9477
G1 X207.07 Y156.368 E28.97653
G1 X206.649 Y157.126 E29.00537
G1 X206.16 Y157.841 E29.03418
G1 X205.607 Y158.509 E29.06302
G1 X204.994 Y159.123 E29.09188
G1 X204.328 Y159.678 E29.12072
G1 X203.614 Y160.168 E29.14952
G1 X202.857 Y160.592 E29.17838
G1 X202.064 Y160.943 E29.20722
G1 X201.243 Y161.22 E29.23604
G1 X200.399 Y161.42 E29.26489
G1 X199.541 Y161.542 E29.29371
G1 X198.653 Y161.584 E29.32328
G1 X20.853 Y161.584 E35.23693
G1 X19.987 Y161.544 E35.26577
G1 X19.128 Y161.424 E35.29461
G1 X18.284 Y161.226 E35.32345
G1 X17.462 Y160.951 E35.35228
G1 X16.669 Y160.601 E35.38111
G1 X15.911 Y160.18 E35.40995
G1 X15.196 Y159.691 E35.43876
G1 X14.528 Y159.138 E35.4676
G1 X13.914 Y158.525 E35.49646
G1 X13.359 Y157.859 E35.52529
G1 X12.869 Y157.145 E35.55409
G1 X12.445 Y156.388 E35.58295
G1 X12.094 Y155.595 E35.6118
G1 X11.817 Y154.774 E35.64061
G1 X11.617 Y153.93 E35.66946
G1 X11.495 Y153.072 E35.69829
G1 X11.453 Y152.184 E35.72786
G1 X11.453 Y110.166 E37.12538
G1 X11.493 Y109.3 E37.15421
G1 X11.613 Y108.441 E37.18306
G1 X11.811 Y107.597 E37.2119
G1 X12.086 Y106.775 E37.24072
G1 X12.436 Y105.982 E37.26955
G1 X12.857 Y105.224 E37.29839
G1 X12.9 Y105.161 E37.30093
G1 X12.588 Y104.455 E37.3266
G1 X12.311 Y103.634 E37.35542
G1 X12.111 Y102.79 E37.38427
G1 X11.989 Y101.932 E37.41309
G1 X11.947 Y101.044 E37.44266
G1 X11.947 Y67.816 E38.54783
G1 X11.987 Y66.95 E38.57666
G1 X12.107 Y66.091 E38.60551
G1 X12.305 Y65.247 E38.63435
G1 X12.58 Y64.425 E38.66318
G1 X12.93 Y63.632 E38.69201
G1 X13.351 Y62.874 E38.72084
G1 X13.84 Y62.159 E38.74965
G1 X14.393 Y61.491 E38.7785
G1 X15.006 Y60.877 E38.80736
G1 X15.672 Y60.322 E38.83619
G1 X16.386 Y59.832 E38.86499
G1 X17.143 Y59.408 E38.89385
G1 X17.936 Y59.057 E38.92269
G1 X18.757 Y58.78 E38.95151
G0 F6000 X18.303 Y59.346
G1 F1200 X19.114 Y59.097 E38.97973
G1 X19.945 Y58.926 E39.00795
G1 X20.788 Y58.833 E39.03616
G1 X21.347 Y58.816 E39.05476
G1 X199.147 Y58.816 E44.96841
G1 X199.994 Y58.856 E44.99661
G1 X200.834 Y58.976 E45.02483
G1 X201.659 Y59.174 E45.05305
G1 X202.462 Y59.449 E45.08128
G1 X203.235 Y59.798 E45.10949
G1 X203.971 Y60.218 E45.13768
G1 X204.665 Y60.706 E45.16589
G1 X205.31 Y61.257 E45.19411
G1 X205.9 Y61.867 E45.22234
G1 X206.43 Y62.529 E45.25054
G1 X206.896 Y63.238 E45.27876
G1 X207.292 Y63.988 E45.30697
G1 X207.617 Y64.772 E45.3352
G1 X207.866 Y65.583 E45.36341
G1 X208.037 Y66.414 E45.39163
G1 X208.13 Y67.257 E45.41984
G1 X208.147 Y67.816 E45.43844
G1 X208.147 Y99.904 E46.50569
G1 X208.107 Y100.751 E46.5339
G1 X207.987 Y101.591 E46.56212
G1 X207.789 Y102.416 E46.59034
G1 X207.514 Y103.219 E46.61857
G1 X207.165 Y103.992 E46.64678
G1 X206.745 Y104.728 E46.67496
G1 X206.392 Y105.23 E46.69537
G1 X206.769 Y105.931 E46.72185
G1 X207.099 Y106.712 E46.75004
G1 X207.355 Y107.521 E46.77827
G1 X207.532 Y108.351 E46.80649
G1 X207.631 Y109.193 E46.83469
G1 X207.653 Y109.82 E46.85556
G1 X207.653 Y152.184 E48.26459
G1 X207.613 Y153.031 E48.29279
G1 X207.493 Y153.871 E48.32102
G1 X207.295 Y154.696 E48.34924
G1 X207.02 Y155.499 E48.37747
G1 X206.671 Y156.272 E48.40567
G1 X206.251 Y157.008 E48.43386
G1 X205.763 Y157.702 E48.46208
G1 X205.212 Y158.347 E48.49029
G1 X204.602 Y158.937 E48.51852
G1 X203.94 Y159.467 E48.54672
G1 X203.231 Y159.933 E48.57494
G1 X202.481 Y160.329 E48.60315
G1 X201.697 Y160.654 E48.63138
G1 X200.886 Y160.903 E48.6596
G1 X200.055 Y161.074 E48.68781
G1 X199.212 Y161.167 E48.71602
G1 X198.653 Y161.184 E48.73462
G1 X20.853 Y161.184 E54.64828
G1 X20.006 Y161.144 E54.67648
G1 X19.166 Y161.024 E54.7047
G1 X18.341 Y160.826 E54.73292
G1 X17.538 Y160.551 E54.76115
G1 X16.765 Y160.202 E54.78936
G1 X16.029 Y159.782 E54.81754
G1 X15.335 Y159.294 E54.84576
G1 X14.69 Y158.743 E54.87398
G1 X14.1 Y158.133 E54.9022
G1 X13.57 Y157.471 E54.93041
G1 X13.104 Y156.762 E54.95863
G1 X12.708 Y156.012 E54.98684
G1 X12.383 Y155.228 E55.01506
G1 X12.134 Y154.417 E55.04328
G1 X11.963 Y153.586 E55.0715
G1 X11.87 Y152.743 E55.09971
G1 X11.853 Y152.184 E55.11831
G1 X11.853 Y110.166 E56.51583
G1 X11.893 Y109.319 E56.54403
G1 X12.013 Y108.479 E56.57226
G1 X12.211 Y107.654 E56.60048
G1 X12.486 Y106.851 E56.62871
G1 X12.835 Y106.078 E56.65692
G1 X13.255 Y105.342 E56.6851
G1 X13.366 Y105.183 E56.69155
G1 X13.202 Y104.872 E56.70324
G1 X12.877 Y104.088 E56.73147
G1 X12.628 Y103.277 E56.75969
G1 X12.457 Y102.446 E56.78791
G1 X12.364 Y101.603 E56.81611
G1 X12.347 Y101.044 E56.83472
G1 X12.347 Y67.816 E57.93988
G1 X12.387 Y66.969 E57.96809
G1 X12.507 Y66.129 E57.99631
G1 X12.705 Y65.304 E58.02453
G1 X12.98 Y64.501 E58.05276
G1 X13.329 Y63.728 E58.08097
G1 X13.749 Y62.992 E58.10915
G1 X14.237 Y62.298 E58.13737
G1 X14.788 Y61.653 E58.16558
G1 X15.398 Y61.063 E58.19381
G1 X16.06 Y60.533 E58.22202
G1 X16.769 Y60.067 E58.25023
G1 X17.519 Y59.671 E58.27844
G1 X18.303 Y59.346 E58.30667
G0 F6000 X18.668 Y59.644
G1 F1200 X19.467 Y59.424 E58.33424
G1 X20.284 Y59.282 E58.36182
G1 X21.347 Y59.216 E58.39724
G1 X199.147 Y59.216 E64.31089
G1 X199.975 Y59.256 E64.33846
G1 X200.796 Y59.376 E64.36606
G1 X201.601 Y59.574 E64.39363
G1 X202.383 Y59.848 E64.42119
G1 X203.136 Y60.197 E64.4488
G1 X203.851 Y60.617 E64.47638
G1 X204.522 Y61.103 E64.50393
G1 X205.144 Y61.652 E64.53153
G1 X205.71 Y62.258 E64.55911
G1 X206.215 Y62.916 E64.58669
G1 X206.654 Y63.619 E64.61426
G1 X207.023 Y64.362 E64.64185
G1 X207.319 Y65.137 E64.66945
G1 X207.539 Y65.936 E64.69701
G1 X207.681 Y66.753 E64.72459
G1 X207.747 Y67.816 E64.76001
G1 X207.747 Y99.904 E65.82726
G1 X207.707 Y100.732 E65.85484
G1 X207.587 Y101.553 E65.88243
G1 X207.389 Y102.358 E65.91001
G1 X207.115 Y103.14 E65.93757
G1 X206.766 Y103.893 E65.96517
G1 X206.346 Y104.608 E65.99275
G1 X205.905 Y105.217 E66.01776
G1 X206.146 Y105.6 E66.03281
G1 X206.518 Y106.341 E66.06039
G1 X206.816 Y107.115 E66.08797
G1 X207.039 Y107.913 E66.11553
G1 X207.184 Y108.73 E66.14313
G1 X207.253 Y109.82 E66.17945
G1 X207.253 Y152.184 E67.58849
G1 X207.213 Y153.012 E67.61606
G1 X207.093 Y153.833 E67.64365
G1 X206.895 Y154.638 E67.67123
G1 X206.621 Y155.42 E67.69879
G1 X206.272 Y156.173 E67.72639
G1 X205.852 Y156.888 E67.75397
G1 X205.366 Y157.559 E67.78153
G1 X204.817 Y158.181 E67.80912
G1 X204.211 Y158.747 E67.8367
G1 X203.553 Y159.252 E67.86429
G1 X202.85 Y159.691 E67.89186
G1 X202.107 Y160.06 E67.91945
G1 X201.332 Y160.356 E67.94704
G1 X200.533 Y160.576 E67.9746
G1 X199.716 Y160.718 E68.00218
G1 X198.653 Y160.784 E68.03761
G1 X20.853 Y160.784 E73.95126
G1 X20.025 Y160.744 E73.97883
G1 X19.204 Y160.624 E74.00643
G1 X18.399 Y160.426 E74.034
G1 X17.617 Y160.152 E74.06156
G1 X16.864 Y159.803 E74.08916
G1 X16.149 Y159.383 E74.11675
G1 X15.478 Y158.897 E74.1443
G1 X14.856 Y158.348 E74.1719
G1 X14.29 Y157.742 E74.19948
G1 X13.785 Y157.084 E74.22706
G1 X13.346 Y156.381 E74.25463
G1 X12.977 Y155.638 E74.28222
G1 X12.681 Y154.863 E74.30981
G1 X12.461 Y154.064 E74.33738
G1 X12.319 Y153.247 E74.36496
G1 X12.253 Y152.184 E74.40038
G1 X12.253 Y110.166 E75.79791
G1 X12.293 Y109.338 E75.82548
G1 X12.413 Y108.517 E75.85307
G1 X12.611 Y107.712 E75.88065
G1 X12.885 Y106.93 E75.90821
G1 X13.234 Y106.177 E75.93581
G1 X13.654 Y105.462 E75.96339
G1 X13.829 Y105.22 E75.97332
G1 X13.471 Y104.498 E76.00013
G1 X13.175 Y103.723 E76.02772
G1 X12.955 Y102.924 E76.05528
G1 X12.813 Y102.107 E76.08287
G1 X12.747 Y101.044 E76.11829
G1 X12.747 Y67.816 E77.22346
G1 X12.787 Y66.988 E77.25103
G1 X12.907 Y66.167 E77.27863
G1 X13.105 Y65.362 E77.3062
G1 X13.379 Y64.58 E77.33376
G1 X13.728 Y63.827 E77.36136
G1 X14.148 Y63.112 E77.38894
G1 X14.634 Y62.441 E77.4165
G1 X15.183 Y61.819 E77.44409
G1 X15.789 Y61.253 E77.47167
G1 X16.447 Y60.748 E77.49926
G1 X17.15 Y60.309 E77.52683
G1 X17.893 Y59.94 E77.55442
G1 X18.668 Y59.644 E77.58201
G0 F6000 X19.029 Y59.951
G1 F1200 X19.816 Y59.76 E77.60895
G1 X20.618 Y59.648 E77.63588
G1 X21.347 Y59.616 E77.66015
G1 X199.147 Y59.616 E83.5738
G1 X199.956 Y59.656 E83.60074
G1 X200.757 Y59.776 E83.62768
G1 X201.542 Y59.973 E83.6546
G1 X202.303 Y60.248 E83.68151
G1 X203.034 Y60.596 E83.70844
G1 X203.728 Y61.015 E83.7354
G1 X204.376 Y61.5 E83.76232
G1 X204.973 Y62.046 E83.78923
G1 X205.514 Y62.649 E83.81618
G1 X205.993 Y63.302 E83.84311
G1 X206.404 Y63.999 E83.87003
G1 X206.746 Y64.733 E83.89696
G1 X207.012 Y65.498 E83.9239
G1 X207.203 Y66.285 E83.95083
G1 X207.315 Y67.087 E83.97777
G1 X207.347 Y67.816 E84.00204
G1 X207.347 Y99.904 E85.06929
G1 X207.307 Y100.713 E85.09623
G1 X207.187 Y101.514 E85.12317
G1 X206.99 Y102.299 E85.15008
G1 X206.715 Y103.06 E85.177
G1 X206.367 Y103.791 E85.20393
G1 X205.948 Y104.485 E85.23089
G1 X205.463 Y105.133 E85.25781
G1 X205.412 Y105.189 E85.26033
G1 X205.505 Y105.316 E85.26556
G1 X205.916 Y106.014 E85.2925
G1 X206.256 Y106.749 E85.31944
G1 X206.522 Y107.513 E85.34635
G1 X206.711 Y108.301 E85.3733
G1 X206.822 Y109.103 E85.40023
G1 X206.853 Y109.82 E85.4241
G1 X206.853 Y152.184 E86.83313
G1 X206.813 Y152.993 E86.86007
G1 X206.693 Y153.794 E86.88701
G1 X206.496 Y154.579 E86.91393
G1 X206.221 Y155.34 E86.94084
G1 X205.873 Y156.071 E86.96777
G1 X205.454 Y156.765 E86.99473
G1 X204.969 Y157.413 E87.02165
G1 X204.423 Y158.01 E87.04856
G1 X203.82 Y158.551 E87.07551
G1 X203.167 Y159.03 E87.10244
G1 X202.47 Y159.441 E87.12935
G1 X201.736 Y159.783 E87.15629
G1 X200.971 Y160.049 E87.18322
G1 X200.184 Y160.24 E87.21016
G1 X199.382 Y160.352 E87.23709
G1 X198.653 Y160.384 E87.26136
G1 X20.853 Y160.384 E93.17502
G1 X20.044 Y160.344 E93.20196
G1 X19.243 Y160.224 E93.22889
G1 X18.458 Y160.027 E93.25581
G1 X17.697 Y159.752 E93.28273
G1 X16.966 Y159.404 E93.30965
G1 X16.272 Y158.985 E93.33662
G1 X15.624 Y158.5 E93.36354
G1 X15.027 Y157.954 E93.39045
G1 X14.486 Y157.351 E93.41739
G1 X14.007 Y156.698 E93.44433
G1 X13.596 Y156.001 E93.47124
G1 X13.254 Y155.267 E93.49817
G1 X12.988 Y154.502 E93.52511
G1 X12.797 Y153.715 E93.55205
G1 X12.685 Y152.913 E93.57898
G1 X12.653 Y152.184 E93.60325
G1 X12.653 Y110.166 E95.00077
G1 X12.693 Y109.357 E95.02771
G1 X12.813 Y108.556 E95.05465
G1 X13.01 Y107.771 E95.08157
G1 X13.285 Y107.01 E95.10848
G1 X13.633 Y106.279 E95.13541
G1 X14.052 Y105.585 E95.16238
G1 X14.312 Y105.238 E95.1768
G1 X14.09 Y104.861 E95.19135
G1 X13.748 Y104.127 E95.21828
G1 X13.482 Y103.362 E95.24522
G1 X13.291 Y102.575 E95.27216
G1 X13.179 Y101.773 E95.29909
G1 X13.147 Y101.044 E95.32336
G1 X13.147 Y67.816 E96.42853
G1 X13.187 Y67.007 E96.45547
G1 X13.307 Y66.206 E96.48241
G1 X13.504 Y65.421 E96.50932
G1 X13.779 Y64.66 E96.53624
G1 X14.127 Y63.929 E96.56317
G1 X14.546 Y63.235 E96.59013
G1 X15.031 Y62.587 E96.61705
G1 X15.577 Y61.99 E96.64396
G1 X16.18 Y61.449 E96.6709
G1 X16.833 Y60.97 E96.69784
G1 X17.53 Y60.559 E96.72475
G1 X18.264 Y60.217 E96.75168
G1 X19.029 Y59.951 E96.77862
G0 F6000 X18.633 Y60.503
G1 F1200 X19.386 Y60.266 E96.80488
G1 X20.16 Y60.107 E96.83116
G1 X20.945 Y60.026 E96.85741
G1 X21.347 Y60.016 E96.87078
G1 X199.147 Y60.016 E102.78443
G1 X199.936 Y60.056 E102.81071
G1 X200.716 Y60.175 E102.83695
G1 X201.481 Y60.373 E102.86323
G1 X202.221 Y60.647 E102.88948
G1 X202.93 Y60.995 E102.91575
G1 X203.601 Y61.413 E102.94204
