;FLAVOR:Marlin
;TIME:24775
;Filament used: 18.2073m
;Layer height: 0.2
;MINX:10.607
;MINY:58.043
;MINZ:0.2
;MAXX:209.393
;MAXY:161.957
;MAXZ:3.2
;Generated with Cura_SteamEngine 4.11.0
M140 S50
M105
M190 S50
M104 S200
M105
M109 S200
M82 ;absolute extrusion mode
; Ender 3 Custom Start G-code
G92 E0 ; Reset Extruder
G28 ; Home all axes
G29 ; Auto bed-level (BL-Touch)
G1 Z2.0 F3000 ; Move Z Axis up little to prevent scratching of Heat Bed
G1 X0.1 Y20 Z0.3 F5000.0 ; Move to start position
G1 X0.1 Y200.0 Z0.3 F1500.0 E15 ; Draw the first line
G1 X0.4 Y200.0 Z0.3 F5000.0 ; Move to side a little
G1 X0.4 Y20 Z0.3 F1500.0 E30 ; Draw the second line
G92 E0 ; Reset Extruder
G1 Z2.0 F3000 ; Move Z Axis up little to prevent scratching of Heat Bed
G1 X5 Y20 Z0.3 F5000.0 ; Move over to prevent blob squish
G92 E0
G92 E0
G1 F2700 E-5
;LAYER_COUNT:16
;LAYER:0
M107
G0 F6000 X18.843 Y58.498 Z0.2
;TYPE:SKIRT
G1 F2700 E0
G1 F1200 X19.698 Y58.27 E0.02943
G1 X20.571 Y58.12 E0.05889
G1 X21.793 Y58.043 E0.09962
G1 X199.593 Y58.043 E6.01327
G1 X200.477 Y58.083 E6.0427
G1 X201.354 Y58.203 E6.07214
G1 X202.217 Y58.401 E6.10159
G1 X203.058 Y58.676 E6.13102
G1 X203.871 Y59.026 E6.16046
G1 X204.65 Y59.448 E6.18993
G1 X205.386 Y59.939 E6.21935
G1 X206.076 Y60.494 E6.24881
G1 X206.713 Y61.109 E6.27826
G1 X207.291 Y61.779 E6.30769
G1 X207.807 Y62.498 E6.33712
G1 X208.256 Y63.261 E6.36657
G1 X208.634 Y64.062 E6.39603
G1 X208.938 Y64.893 E6.42546
G1 X209.166 Y65.748 E6.45489
G1 X209.316 Y66.621 E6.48435
G1 X209.393 Y67.843 E6.52507
G1 X209.393 Y96.237 E7.46946
G1 X209.353 Y97.121 E7.49889
G1 X209.233 Y97.998 E7.52834
G1 X209.035 Y98.861 E7.55778
G1 X208.76 Y99.702 E7.58721
G1 X208.41 Y100.515 E7.61665
G1 X207.988 Y101.294 E7.64612
G1 X207.497 Y102.03 E7.67555
G1 X207.243 Y102.346 E7.68903
G1 X207.347 Y102.583 E7.69764
G1 X207.628 Y103.423 E7.7271
G1 X207.833 Y104.284 E7.75654
G1 X207.96 Y105.16 E7.78598
G1 X208.007 Y106.12 E7.81795
G1 X208.007 Y152.157 E9.34914
G1 X207.967 Y153.041 E9.37858
G1 X207.847 Y153.918 E9.40802
G1 X207.649 Y154.781 E9.43747
G1 X207.374 Y155.622 E9.4669
G1 X207.024 Y156.435 E9.49633
G1 X206.602 Y157.214 E9.5258
G1 X206.111 Y157.95 E9.55523
G1 X205.556 Y158.64 E9.58468
G1 X204.941 Y159.277 E9.61413
G1 X204.271 Y159.855 E9.64356
G1 X203.552 Y160.371 E9.673
G1 X202.789 Y160.82 E9.70244
G1 X201.988 Y161.198 E9.7319
G1 X201.157 Y161.502 E9.76133
G1 X200.302 Y161.73 E9.79076
G1 X199.429 Y161.88 E9.82022
G1 X198.207 Y161.957 E9.86095
G1 X20.407 Y161.957 E15.7746
G1 X19.523 Y161.917 E15.80403
G1 X18.646 Y161.797 E15.83347
G1 X17.783 Y161.599 E15.86292
G1 X16.942 Y161.324 E15.89235
G1 X16.129 Y160.974 E15.92179
G1 X15.35 Y160.552 E15.95126
G1 X14.614 Y160.061 E15.98069
G1 X13.924 Y159.506 E16.01014
G1 X13.287 Y158.891 E16.03959
G1 X12.709 Y158.221 E16.06902
G1 X12.193 Y157.502 E16.09845
G1 X11.744 Y156.739 E16.1279
G1 X11.366 Y155.938 E16.15736
G1 X11.062 Y155.107 E16.18679
G1 X10.834 Y154.252 E16.21622
G1 X10.684 Y153.379 E16.24568
G1 X10.607 Y152.157 E16.28641
G1 X10.607 Y104.967 E17.85595
G1 X10.647 Y104.083 E17.88538
G1 X10.767 Y103.206 E17.91482
G1 X10.965 Y102.343 E17.94427
G1 X11.24 Y101.502 E17.9737
G1 X11.59 Y100.689 E18.00314
G1 X12.012 Y99.91 E18.03261
G1 X12.503 Y99.174 E18.06204
G1 X12.556 Y99.108 E18.06485
G1 X12.448 Y98.813 E18.0753
G1 X12.22 Y97.958 E18.10473
G1 X12.07 Y97.085 E18.13419
G1 X11.993 Y95.863 E18.17492
G1 X11.993 Y67.843 E19.10687
G1 X12.033 Y66.959 E19.1363
G1 X12.153 Y66.082 E19.16574
G1 X12.351 Y65.219 E19.19519
G1 X12.626 Y64.378 E19.22462
G1 X12.976 Y63.565 E19.25406
G1 X13.398 Y62.786 E19.28353
G1 X13.889 Y62.05 E19.31295
G1 X14.444 Y61.36 E19.3424
G1 X15.059 Y60.723 E19.37185
G1 X15.729 Y60.145 E19.40128
G1 X16.448 Y59.629 E19.43072
G1 X17.211 Y59.18 E19.46016
G1 X18.012 Y58.802 E19.48962
G1 X18.843 Y58.498 E19.51905
G0 F6000 X19.203 Y58.807
G1 F1200 X20.047 Y58.607 E19.5479
G1 X20.905 Y58.485 E19.57673
G1 X21.793 Y58.443 E19.6063
G1 X199.593 Y58.443 E25.51995
G1 X200.459 Y58.483 E25.54878
G1 X201.318 Y58.603 E25.57763
G1 X202.162 Y58.801 E25.60646
G1 X202.984 Y59.076 E25.63529
G1 X203.777 Y59.426 E25.66412
G1 X204.535 Y59.847 E25.69296
G1 X205.25 Y60.336 E25.72177
G1 X205.918 Y60.889 E25.75061
G1 X206.532 Y61.502 E25.77947
G1 X207.087 Y62.168 E25.80831
G1 X207.577 Y62.882 E25.83711
G1 X208.001 Y63.639 E25.86597
G1 X208.352 Y64.432 E25.89481
G1 X208.629 Y65.253 E25.92363
G1 X208.829 Y66.097 E25.95248
G1 X208.951 Y66.955 E25.9813
G1 X208.993 Y67.843 E26.01087
G1 X208.993 Y96.237 E26.95526
G1 X208.953 Y97.103 E26.98409
G1 X208.833 Y97.962 E27.01294
G1 X208.635 Y98.806 E27.04177
G1 X208.36 Y99.628 E27.0706
G1 X208.01 Y100.421 E27.09943
G1 X207.589 Y101.179 E27.12827
G1 X207.1 Y101.894 E27.15708
G1 X206.783 Y102.277 E27.17362
G1 X207.079 Y103.013 E27.2
G1 X207.327 Y103.844 E27.22885
G1 X207.498 Y104.694 E27.25769
G1 X207.59 Y105.556 E27.28652
G1 X207.607 Y106.12 E27.30529
G1 X207.607 Y152.157 E28.83648
G1 X207.567 Y153.023 E28.86532
G1 X207.447 Y153.882 E28.89416
G1 X207.249 Y154.726 E28.923
G1 X206.974 Y155.548 E28.95183
G1 X206.624 Y156.341 E28.98066
G1 X206.203 Y157.099 E29.0095
G1 X205.714 Y157.814 E29.03831
G1 X205.161 Y158.482 E29.06715
G1 X204.548 Y159.096 E29.09601
G1 X203.882 Y159.651 E29.12484
G1 X203.168 Y160.141 E29.15364
G1 X202.411 Y160.565 E29.1825
G1 X201.618 Y160.916 E29.21135
G1 X200.797 Y161.193 E29.24016
G1 X199.953 Y161.393 E29.26901
G1 X199.095 Y161.515 E29.29784
G1 X198.207 Y161.557 E29.32741
G1 X20.407 Y161.557 E35.24106
G1 X19.541 Y161.517 E35.26989
G1 X18.682 Y161.397 E35.29874
G1 X17.838 Y161.199 E35.32757
G1 X17.016 Y160.924 E35.3564
G1 X16.223 Y160.574 E35.38523
G1 X15.465 Y160.153 E35.41407
G1 X14.75 Y159.664 E35.44288
G1 X14.082 Y159.111 E35.47173
G1 X13.468 Y158.498 E35.50058
G1 X12.913 Y157.832 E35.52942
G1 X12.423 Y157.118 E35.55822
G1 X11.999 Y156.361 E35.58708
G1 X11.648 Y155.568 E35.61592
G1 X11.371 Y154.747 E35.64474
G1 X11.171 Y153.903 E35.67359
G1 X11.049 Y153.045 E35.70241
G1 X11.007 Y152.157 E35.73198
G1 X11.007 Y104.967 E37.30153
G1 X11.047 Y104.101 E37.33036
G1 X11.167 Y103.242 E37.35921
G1 X11.365 Y102.398 E37.38804
G1 X11.64 Y101.576 E37.41687
G1 X11.99 Y100.783 E37.4457
G1 X12.411 Y100.025 E37.47454
G1 X12.9 Y99.31 E37.50335
G1 X13.004 Y99.185 E37.50876
G1 X12.757 Y98.453 E37.53445
G1 X12.557 Y97.609 E37.5633
G1 X12.435 Y96.751 E37.59213
G1 X12.393 Y95.863 E37.6217
G1 X12.393 Y67.843 E38.55364
G1 X12.433 Y66.977 E38.58248
G1 X12.553 Y66.118 E38.61133
G1 X12.751 Y65.274 E38.64016
G1 X13.026 Y64.452 E38.66899
G1 X13.376 Y63.659 E38.69782
G1 X13.797 Y62.901 E38.72666
G1 X14.286 Y62.186 E38.75547
G1 X14.839 Y61.518 E38.78431
G1 X15.452 Y60.904 E38.81317
G1 X16.118 Y60.349 E38.842
G1 X16.832 Y59.859 E38.87081
G1 X17.589 Y59.435 E38.89966
G1 X18.382 Y59.084 E38.92851
G1 X19.203 Y58.807 E38.95733
G0 F6000 X18.749 Y59.373
G1 F1200 X19.56 Y59.124 E38.98554
G1 X20.391 Y58.953 E39.01376
G1 X21.234 Y58.86 E39.04197
G1 X21.793 Y58.843 E39.06057
G1 X199.593 Y58.843 E44.97422
G1 X200.44 Y58.883 E45.00243
G1 X201.28 Y59.003 E45.03065
G1 X202.105 Y59.201 E45.05887
G1 X202.908 Y59.476 E45.0871
G1 X203.681 Y59.825 E45.11531
G1 X204.417 Y60.245 E45.14349
G1 X205.111 Y60.733 E45.17171
G1 X205.756 Y61.284 E45.19992
G1 X206.346 Y61.894 E45.22815
G1 X206.876 Y62.556 E45.25636
G1 X207.342 Y63.265 E45.28457
G1 X207.738 Y64.015 E45.31278
G1 X208.063 Y64.799 E45.34101
G1 X208.312 Y65.61 E45.36923
G1 X208.483 Y66.441 E45.39745
G1 X208.576 Y67.284 E45.42565
G1 X208.593 Y67.843 E45.44426
G1 X208.593 Y96.237 E46.38864
G1 X208.553 Y97.084 E46.41685
G1 X208.433 Y97.924 E46.44507
G1 X208.235 Y98.749 E46.47329
G1 X207.96 Y99.552 E46.50152
G1 X207.611 Y100.325 E46.52973
G1 X207.191 Y101.061 E46.55791
G1 X206.703 Y101.755 E46.58613
G1 X206.307 Y102.219 E46.60642
G1 X206.508 Y102.643 E46.62203
G1 X206.799 Y103.44 E46.65025
G1 X207.013 Y104.261 E46.67846
G1 X207.149 Y105.098 E46.70667
G1 X207.207 Y106.12 E46.74071
G1 X207.207 Y152.157 E48.27191
G1 X207.167 Y153.004 E48.30011
G1 X207.047 Y153.844 E48.32834
G1 X206.849 Y154.669 E48.35655
G1 X206.574 Y155.472 E48.38479
G1 X206.225 Y156.245 E48.41299
G1 X205.805 Y156.981 E48.44118
G1 X205.317 Y157.675 E48.4694
G1 X204.766 Y158.32 E48.49761
G1 X204.156 Y158.91 E48.52584
G1 X203.494 Y159.44 E48.55404
G1 X202.785 Y159.906 E48.58226
G1 X202.035 Y160.302 E48.61047
G1 X201.251 Y160.627 E48.6387
G1 X200.44 Y160.876 E48.66692
G1 X199.609 Y161.047 E48.69513
G1 X198.766 Y161.14 E48.72334
G1 X198.207 Y161.157 E48.74194
G1 X20.407 Y161.157 E54.6556
G1 X19.56 Y161.117 E54.6838
G1 X18.72 Y160.997 E54.71202
G1 X17.895 Y160.799 E54.74024
G1 X17.092 Y160.524 E54.76847
G1 X16.319 Y160.175 E54.79668
G1 X15.583 Y159.755 E54.82486
G1 X14.889 Y159.267 E54.85308
G1 X14.244 Y158.716 E54.8813
G1 X13.654 Y158.106 E54.90952
G1 X13.124 Y157.444 E54.93773
G1 X12.658 Y156.735 E54.96595
G1 X12.262 Y155.985 E54.99416
G1 X11.937 Y155.201 E55.02238
G1 X11.688 Y154.39 E55.0506
G1 X11.517 Y153.559 E55.07882
G1 X11.424 Y152.716 E55.10703
G1 X11.407 Y152.157 E55.12563
G1 X11.407 Y104.967 E56.69517
G1 X11.447 Y104.12 E56.72338
G1 X11.567 Y103.28 E56.7516
G1 X11.765 Y102.455 E56.77982
G1 X12.04 Y101.652 E56.80805
G1 X12.389 Y100.879 E56.83626
G1 X12.809 Y100.143 E56.86444
G1 X13.297 Y99.449 E56.89266
G1 X13.466 Y99.251 E56.90132
G1 X13.323 Y98.907 E56.91371
G1 X13.074 Y98.096 E56.94192
G1 X12.903 Y97.265 E56.97014
G1 X12.81 Y96.422 E56.99835
G1 X12.793 Y95.863 E57.01695
G1 X12.793 Y67.843 E57.9489
G1 X12.833 Y66.996 E57.9771
G1 X12.953 Y66.156 E58.00533
G1 X13.151 Y65.331 E58.03355
G1 X13.426 Y64.528 E58.06178
G1 X13.775 Y63.755 E58.08999
G1 X14.195 Y63.019 E58.11817
G1 X14.683 Y62.325 E58.14639
G1 X15.234 Y61.68 E58.1746
G1 X15.844 Y61.09 E58.20283
G1 X16.506 Y60.56 E58.23103
G1 X17.215 Y60.094 E58.25925
G1 X17.965 Y59.698 E58.28746
G1 X18.749 Y59.373 E58.31569
G0 F6000 X19.114 Y59.671
G1 F1200 X19.913 Y59.451 E58.34325
G1 X20.73 Y59.309 E58.37083
G1 X21.793 Y59.243 E58.40626
G1 X199.593 Y59.243 E64.31991
G1 X200.421 Y59.283 E64.34748
G1 X201.242 Y59.403 E64.37508
G1 X202.047 Y59.601 E64.40265
G1 X202.829 Y59.875 E64.43021
G1 X203.582 Y60.224 E64.45781
G1 X204.297 Y60.644 E64.48539
G1 X204.968 Y61.13 E64.51295
G1 X205.59 Y61.679 E64.54054
G1 X206.156 Y62.285 E64.56812
G1 X206.661 Y62.943 E64.59571
G1 X207.1 Y63.646 E64.62328
G1 X207.469 Y64.389 E64.65087
G1 X207.765 Y65.164 E64.67846
G1 X207.985 Y65.963 E64.70603
G1 X208.127 Y66.78 E64.73361
G1 X208.193 Y67.843 E64.76903
G1 X208.193 Y96.237 E65.71342
G1 X208.153 Y97.065 E65.74099
G1 X208.033 Y97.886 E65.76859
G1 X207.835 Y98.691 E65.79616
G1 X207.561 Y99.473 E65.82372
G1 X207.212 Y100.226 E65.85132
G1 X206.792 Y100.941 E65.8789
G1 X206.306 Y101.612 E65.90646
G1 X205.829 Y102.152 E65.93043
G1 X205.919 Y102.314 E65.93659
G1 X206.25 Y103.075 E65.96419
G1 X206.506 Y103.863 E65.99175
G1 X206.684 Y104.673 E66.01933
G1 X206.784 Y105.496 E66.04691
G1 X206.807 Y106.12 E66.06767
G1 X206.807 Y152.157 E67.59887
G1 X206.767 Y152.985 E67.62644
G1 X206.647 Y153.806 E67.65404
G1 X206.449 Y154.611 E67.68161
G1 X206.175 Y155.393 E67.70917
G1 X205.826 Y156.146 E67.73678
G1 X205.406 Y156.861 E67.76436
G1 X204.92 Y157.532 E67.79191
G1 X204.371 Y158.154 E67.81951
G1 X203.765 Y158.72 E67.84709
G1 X203.107 Y159.225 E67.87467
G1 X202.404 Y159.664 E67.90224
G1 X201.661 Y160.033 E67.92983
G1 X200.886 Y160.329 E67.95742
G1 X200.087 Y160.549 E67.98499
G1 X199.27 Y160.691 E68.01257
G1 X198.207 Y160.757 E68.04799
G1 X20.407 Y160.757 E73.96165
G1 X19.579 Y160.717 E73.98922
G1 X18.758 Y160.597 E74.01681
G1 X17.953 Y160.399 E74.04439
G1 X17.171 Y160.125 E74.07195
G1 X16.418 Y159.776 E74.09955
G1 X15.703 Y159.356 E74.12713
G1 X15.032 Y158.87 E74.15469
G1 X14.41 Y158.321 E74.18228
G1 X13.844 Y157.715 E74.20986
G1 X13.339 Y157.057 E74.23745
G1 X12.9 Y156.354 E74.26501
G1 X12.531 Y155.611 E74.29261
G1 X12.235 Y154.836 E74.3202
G1 X12.015 Y154.037 E74.34776
G1 X11.873 Y153.22 E74.37534
G1 X11.807 Y152.157 E74.41077
G1 X11.807 Y104.967 E75.98031
G1 X11.847 Y104.139 E76.00788
G1 X11.967 Y103.318 E76.03548
G1 X12.165 Y102.513 E76.06305
G1 X12.439 Y101.731 E76.09061
G1 X12.788 Y100.978 E76.11822
G1 X13.208 Y100.263 E76.1458
G1 X13.694 Y99.592 E76.17335
G1 X13.924 Y99.331 E76.18492
G1 X13.917 Y99.317 E76.18545
G1 X13.621 Y98.542 E76.21304
G1 X13.401 Y97.743 E76.2406
G1 X13.259 Y96.926 E76.26818
G1 X13.193 Y95.863 E76.30361
G1 X13.193 Y67.843 E77.23556
G1 X13.233 Y67.015 E77.26313
G1 X13.353 Y66.194 E77.29072
G1 X13.551 Y65.389 E77.3183
G1 X13.825 Y64.607 E77.34586
G1 X14.174 Y63.854 E77.37346
G1 X14.594 Y63.139 E77.40104
G1 X15.08 Y62.468 E77.4286
G1 X15.629 Y61.846 E77.45619
G1 X16.235 Y61.28 E77.48377
G1 X16.893 Y60.775 E77.51136
G1 X17.596 Y60.336 E77.53892
G1 X18.339 Y59.967 E77.56652
G1 X19.114 Y59.671 E77.59411
G0 F6000 X19.475 Y59.978
G1 F1200 X20.262 Y59.787 E77.62104
G1 X21.064 Y59.675 E77.64798
G1 X21.793 Y59.643 E77.67225
G1 X199.593 Y59.643 E83.5859
G1 X200.402 Y59.683 E83.61284
G1 X201.203 Y59.803 E83.63978
G1 X201.988 Y60 E83.6667
G1 X202.749 Y60.275 E83.69361
G1 X203.48 Y60.623 E83.72054
G1 X204.174 Y61.042 E83.7475
G1 X204.822 Y61.527 E83.77442
G1 X205.419 Y62.073 E83.80133
G1 X205.96 Y62.676 E83.82828
G1 X206.439 Y63.329 E83.85521
G1 X206.85 Y64.026 E83.88212
G1 X207.192 Y64.76 E83.90906
G1 X207.458 Y65.525 E83.93599
G1 X207.649 Y66.312 E83.96293
G1 X207.761 Y67.114 E83.98986
G1 X207.793 Y67.843 E84.01413
G1 X207.793 Y96.237 E84.95852
G1 X207.753 Y97.046 E84.98546
G1 X207.633 Y97.847 E85.0124
G1 X207.436 Y98.632 E85.03932
G1 X207.161 Y99.393 E85.06623
G1 X206.813 Y100.124 E85.09316
G1 X206.394 Y100.818 E85.12012
G1 X205.909 Y101.466 E85.14704
G1 X205.363 Y102.063 E85.17395
G1 X205.341 Y102.082 E85.17492
G1 X205.682 Y102.75 E85.19986
G1 X205.978 Y103.503 E85.22678
G1 X206.199 Y104.283 E85.25374
G1 X206.341 Y105.08 E85.28067
G1 X206.407 Y106.12 E85.31533
G1 X206.407 Y152.157 E86.84652
G1 X206.367 Y152.966 E86.87346
G1 X206.247 Y153.767 E86.9004
G1 X206.05 Y154.552 E86.92732
G1 X205.775 Y155.313 E86.95423
G1 X205.427 Y156.044 E86.98116
G1 X205.008 Y156.738 E87.00812
G1 X204.523 Y157.386 E87.03504
G1 X203.977 Y157.983 E87.06195
G1 X203.374 Y158.524 E87.0889
G1 X202.721 Y159.003 E87.11583
G1 X202.024 Y159.414 E87.14275
G1 X201.29 Y159.756 E87.16968
G1 X200.525 Y160.022 E87.19662
G1 X199.738 Y160.213 E87.22355
G1 X198.936 Y160.325 E87.25049
G1 X198.207 Y160.357 E87.27476
G1 X20.407 Y160.357 E93.18841
G1 X19.598 Y160.317 E93.21535
G1 X18.797 Y160.197 E93.24229
G1 X18.012 Y160 E93.26921
G1 X17.251 Y159.725 E93.29612
G1 X16.52 Y159.377 E93.32305
G1 X15.826 Y158.958 E93.35001
G1 X15.178 Y158.473 E93.37693
G1 X14.581 Y157.927 E93.40384
G1 X14.04 Y157.324 E93.43078
G1 X13.561 Y156.671 E93.45772
G1 X13.15 Y155.974 E93.48463
G1 X12.808 Y155.24 E93.51156
G1 X12.542 Y154.475 E93.5385
G1 X12.351 Y153.688 E93.56544
G1 X12.239 Y152.886 E93.59237
G1 X12.207 Y152.157 E93.61664
G1 X12.207 Y104.967 E95.18619
G1 X12.247 Y104.158 E95.21313
G1 X12.367 Y103.357 E95.24007
G1 X12.564 Y102.572 E95.26699
G1 X12.839 Y101.811 E95.2939
G1 X13.187 Y101.08 E95.32083
G1 X13.606 Y100.386 E95.34779
G1 X14.091 Y99.738 E95.37471
G1 X14.404 Y99.396 E95.39013
G1 X14.194 Y98.946 E95.40665
G1 X13.928 Y98.181 E95.43358
G1 X13.737 Y97.394 E95.46052
G1 X13.625 Y96.592 E95.48745
G1 X13.593 Y95.863 E95.51172
G1 X13.593 Y67.843 E96.44367
G1 X13.633 Y67.034 E96.47061
G1 X13.753 Y66.233 E96.49755
G1 X13.95 Y65.448 E96.52447
G1 X14.225 Y64.687 E96.55138
G1 X14.573 Y63.956 E96.57831
G1 X14.992 Y63.262 E96.60527
G1 X15.477 Y62.614 E96.63219
G1 X16.023 Y62.017 E96.6591
G1 X16.626 Y61.476 E96.68605
G1 X17.279 Y60.997 E96.71298
G1 X17.976 Y60.586 E96.7399
G1 X18.71 Y60.244 E96.76683
G1 X19.475 Y59.978 E96.79377
G0 F6000 X19.079 Y60.53
G1 F1200 X19.832 Y60.293 E96.82002
G1 X20.606 Y60.134 E96.8463
G1 X21.391 Y60.053 E96.87255
G1 X21.793 Y60.043 E96.88593
G1 X199.593 Y60.043 E102.79958
G1 X200.382 Y60.083 E102.82585
G1 X201.162 Y60.202 E102.8521
G1 X201.927 Y60.4 E102.87838
G1 X202.667 Y60.674 E102.90463
G1 X203.376 Y61.022 E102.93089
G1 X204.047 Y61.44 E102.95719
G1 X204.671 Y61.923 E102.98343
