;FLAVOR:Marlin
;TIME:24838
;Filament used: 18.234m
;Layer height: 0.2
;MINX:11.231
;MINY:57.417
;MINZ:0.2
;MAXX:208.769
;MAXY:162.583
;MAXZ:3.2
;Generated with Cura_SteamEngine 4.11.0
M140 S50
M105
M190 S50
M104 S200
M105
M109 S200
M82 ;absolute extrusion mode
; Ender 3 Custom Start G-code
G92 E0 ; Reset Extruder
G28 ; Home all axes
G29 ; Auto bed-level (BL-Touch)
G1 Z2.0 F3000 ; Move Z Axis up little to prevent scratching of Heat Bed
G1 X0.1 Y20 Z0.3 F5000.0 ; Move to start position
G1 X0.1 Y200.0 Z0.3 F1500.0 E15 ; Draw the first line
G1 X0.4 Y200.0 Z0.3 F5000.0 ; Move to side a little
G1 X0.4 Y20 Z0.3 F1500.0 E30 ; Draw the second line
G92 E0 ; Reset Extruder
G1 Z2.0 F3000 ; Move Z Axis up little to prevent scratching of Heat Bed
G1 X5 Y20 Z0.3 F5000.0 ; Move over to prevent blob squish
G92 E0
G92 E0
G1 F2700 E-5
;LAYER_COUNT:16
;LAYER:0
M107
G0 F6000 X18.081 Y57.872 Z0.2
;TYPE:SKIRT
G1 F2700 E0
G1 F1200 X18.936 Y57.644 E0.02943
G1 X19.809 Y57.494 E0.05889
G1 X21.031 Y57.417 E0.09962
G1 X198.831 Y57.417 E6.01327
G1 X199.715 Y57.457 E6.0427
G1 X200.592 Y57.577 E6.07214
G1 X201.455 Y57.775 E6.10159
G1 X202.296 Y58.05 E6.13102
G1 X203.109 Y58.4 E6.16046
G1 X203.888 Y58.822 E6.18993
G1 X204.624 Y59.313 E6.21935
G1 X205.314 Y59.868 E6.24881
G1 X205.951 Y60.483 E6.27826
G1 X206.529 Y61.153 E6.30769
G1 X207.045 Y61.872 E6.33712
G1 X207.494 Y62.635 E6.36657
G1 X207.872 Y63.436 E6.39603
G1 X208.176 Y64.267 E6.42546
G1 X208.404 Y65.122 E6.45489
G1 X208.554 Y65.995 E6.48435
G1 X208.631 Y67.217 E6.52507
G1 X208.631 Y98.555 E7.56738
G1 X208.591 Y99.439 E7.59681
G1 X208.471 Y100.316 E7.62625
G1 X208.273 Y101.179 E7.6557
G1 X207.998 Y102.02 E7.68513
G1 X207.648 Y102.833 E7.71457
G1 X207.226 Y103.612 E7.74404
G1 X206.967 Y104 E7.75955
G1 X207.364 Y104.596 E7.78337
G1 X207.786 Y105.374 E7.81281
G1 X208.136 Y106.187 E7.84225
G1 X208.411 Y107.028 E7.87168
G1 X208.609 Y107.891 E7.90113
G1 X208.729 Y108.768 E7.93057
G1 X208.769 Y109.652 E7.96
G1 X208.769 Y152.783 E9.39454
G1 X208.729 Y153.667 E9.42398
G1 X208.609 Y154.544 E9.45342
G1 X208.411 Y155.407 E9.48287
G1 X208.136 Y156.248 E9.5123
G1 X207.786 Y157.061 E9.54174
G1 X207.364 Y157.84 E9.5712
G1 X206.873 Y158.576 E9.60063
G1 X206.318 Y159.266 E9.63008
G1 X205.703 Y159.903 E9.65953
G1 X205.033 Y160.481 E9.68896
G1 X204.314 Y160.997 E9.7184
G1 X203.551 Y161.446 E9.74784
G1 X202.75 Y161.824 E9.7773
G1 X201.919 Y162.128 E9.80673
G1 X201.064 Y162.356 E9.83616
G1 X200.191 Y162.506 E9.86563
G1 X198.969 Y162.583 E9.90635
G1 X21.169 Y162.583 E15.82
G1 X20.285 Y162.543 E15.84943
G1 X19.408 Y162.423 E15.87887
G1 X18.545 Y162.225 E15.90832
G1 X17.704 Y161.95 E15.93775
G1 X16.891 Y161.6 E15.96719
G1 X16.112 Y161.178 E15.99666
G1 X15.376 Y160.687 E16.02609
G1 X14.686 Y160.132 E16.05554
G1 X14.049 Y159.517 E16.08499
G1 X13.471 Y158.847 E16.11442
G1 X12.955 Y158.128 E16.14385
G1 X12.506 Y157.365 E16.1733
G1 X12.128 Y156.564 E16.20276
G1 X11.824 Y155.733 E16.23219
G1 X11.596 Y154.878 E16.26162
G1 X11.446 Y154.005 E16.29108
G1 X11.369 Y152.783 E16.33181
G1 X11.369 Y109.102 E17.78464
G1 X11.409 Y108.218 E17.81407
G1 X11.529 Y107.341 E17.84352
G1 X11.727 Y106.478 E17.87296
G1 X12.002 Y105.637 E17.90239
G1 X12.352 Y104.824 E17.93183
G1 X12.774 Y104.045 E17.9613
G1 X12.368 Y103.355 E17.98793
G1 X11.99 Y102.554 E18.01739
G1 X11.686 Y101.723 E18.04682
G1 X11.458 Y100.868 E18.07625
G1 X11.308 Y99.995 E18.10571
G1 X11.231 Y98.773 E18.14644
G1 X11.231 Y67.217 E19.19599
G1 X11.271 Y66.333 E19.22542
G1 X11.391 Y65.456 E19.25487
G1 X11.589 Y64.593 E19.28431
G1 X11.864 Y63.752 E19.31374
G1 X12.214 Y62.939 E19.34318
G1 X12.636 Y62.16 E19.37265
G1 X13.127 Y61.424 E19.40208
G1 X13.682 Y60.734 E19.43153
G1 X14.297 Y60.097 E19.46098
G1 X14.967 Y59.519 E19.49041
G1 X15.686 Y59.003 E19.51984
G1 X16.449 Y58.554 E19.54929
G1 X17.25 Y58.176 E19.57875
G1 X18.081 Y57.872 E19.60818
G0 F6000 X18.441 Y58.181
G1 F1200 X19.285 Y57.981 E19.63703
G1 X20.143 Y57.859 E19.66585
G1 X21.031 Y57.817 E19.69542
G1 X198.831 Y57.817 E25.60907
G1 X199.697 Y57.857 E25.63791
G1 X200.556 Y57.977 E25.66675
G1 X201.4 Y58.175 E25.69559
G1 X202.222 Y58.45 E25.72442
G1 X203.015 Y58.8 E25.75325
G1 X203.773 Y59.221 E25.78209
G1 X204.488 Y59.71 E25.8109
G1 X205.156 Y60.263 E25.83974
G1 X205.77 Y60.876 E25.8686
G1 X206.325 Y61.542 E25.89743
G1 X206.815 Y62.256 E25.92623
G1 X207.239 Y63.013 E25.95509
G1 X207.59 Y63.806 E25.98394
G1 X207.867 Y64.627 E26.01276
G1 X208.067 Y65.471 E26.0416
G1 X208.189 Y66.329 E26.07043
G1 X208.231 Y67.217 E26.1
G1 X208.231 Y98.555 E27.1423
G1 X208.191 Y99.421 E27.17114
G1 X208.071 Y100.28 E27.19998
G1 X207.873 Y101.124 E27.22882
G1 X207.598 Y101.946 E27.25765
G1 X207.248 Y102.739 E27.28648
G1 X206.827 Y103.497 E27.31532
G1 X206.476 Y104.01 E27.33599
G1 X206.686 Y104.284 E27.34747
G1 X207.148 Y105.018 E27.37632
G1 X207.54 Y105.791 E27.40515
G1 X207.859 Y106.597 E27.43398
G1 X208.102 Y107.429 E27.4628
G1 X208.268 Y108.28 E27.49164
G1 X208.355 Y109.143 E27.52049
G1 X208.369 Y109.652 E27.53743
G1 X208.369 Y152.783 E28.97197
G1 X208.329 Y153.649 E29.0008
G1 X208.209 Y154.508 E29.02965
G1 X208.011 Y155.352 E29.05849
G1 X207.736 Y156.174 E29.08732
G1 X207.386 Y156.967 E29.11615
G1 X206.965 Y157.725 E29.14498
G1 X206.476 Y158.44 E29.17379
G1 X205.923 Y159.108 E29.20264
G1 X205.31 Y159.722 E29.2315
G1 X204.644 Y160.277 E29.26033
G1 X203.93 Y160.767 E29.28913
G1 X203.173 Y161.191 E29.31799
G1 X202.38 Y161.542 E29.34683
G1 X201.559 Y161.819 E29.37565
G1 X200.715 Y162.019 E29.4045
G1 X199.857 Y162.141 E29.43333
G1 X198.969 Y162.183 E29.46289
G1 X21.169 Y162.183 E35.37655
G1 X20.303 Y162.143 E35.40538
G1 X19.444 Y162.023 E35.43423
G1 X18.6 Y161.825 E35.46306
G1 X17.778 Y161.55 E35.49189
G1 X16.985 Y161.2 E35.52072
G1 X16.227 Y160.779 E35.54956
G1 X15.512 Y160.29 E35.57837
G1 X14.844 Y159.737 E35.60721
G1 X14.23 Y159.124 E35.63607
G1 X13.675 Y158.458 E35.6649
G1 X13.185 Y157.744 E35.69371
G1 X12.761 Y156.987 E35.72257
G1 X12.41 Y156.194 E35.75141
G1 X12.133 Y155.373 E35.78023
G1 X11.933 Y154.529 E35.80908
G1 X11.811 Y153.671 E35.8379
G1 X11.769 Y152.783 E35.86747
G1 X11.769 Y109.102 E37.3203
G1 X11.809 Y108.236 E37.34914
G1 X11.929 Y107.377 E37.37799
G1 X12.127 Y106.533 E37.40682
G1 X12.402 Y105.711 E37.43565
G1 X12.752 Y104.918 E37.46448
G1 X13.173 Y104.16 E37.49332
G1 X13.256 Y104.039 E37.4982
G1 X13.047 Y103.734 E37.5105
G1 X12.623 Y102.977 E37.53935
G1 X12.272 Y102.184 E37.5682
G1 X11.995 Y101.363 E37.59702
G1 X11.795 Y100.519 E37.62587
G1 X11.673 Y99.661 E37.65469
G1 X11.631 Y98.773 E37.68426
G1 X11.631 Y67.217 E38.73381
G1 X11.671 Y66.351 E38.76265
G1 X11.791 Y65.492 E38.7915
G1 X11.989 Y64.648 E38.82033
G1 X12.264 Y63.826 E38.84916
G1 X12.614 Y63.033 E38.87799
G1 X13.035 Y62.275 E38.90683
G1 X13.524 Y61.56 E38.93564
G1 X14.077 Y60.892 E38.96448
G1 X14.69 Y60.278 E38.99334
G1 X15.356 Y59.723 E39.02217
G1 X16.07 Y59.233 E39.05098
G1 X16.827 Y58.809 E39.07983
G1 X17.62 Y58.458 E39.10868
G1 X18.441 Y58.181 E39.1375
G0 F6000 X17.987 Y58.747
G1 F1200 X18.798 Y58.498 E39.16571
G1 X19.629 Y58.327 E39.19393
G1 X20.472 Y58.234 E39.22214
G1 X21.031 Y58.217 E39.24074
G1 X198.831 Y58.217 E45.15439
G1 X199.678 Y58.257 E45.1826
G1 X200.518 Y58.377 E45.21082
G1 X201.343 Y58.575 E45.23904
G1 X202.146 Y58.85 E45.26727
G1 X202.919 Y59.199 E45.29548
G1 X203.655 Y59.619 E45.32366
G1 X204.349 Y60.107 E45.35188
G1 X204.994 Y60.658 E45.38009
G1 X205.584 Y61.268 E45.40832
G1 X206.114 Y61.93 E45.43653
G1 X206.58 Y62.639 E45.46474
G1 X206.976 Y63.389 E45.49295
G1 X207.301 Y64.173 E45.52118
G1 X207.55 Y64.984 E45.5494
G1 X207.721 Y65.815 E45.57762
G1 X207.814 Y66.658 E45.60582
G1 X207.831 Y67.217 E45.62443
G1 X207.831 Y98.555 E46.66673
G1 X207.791 Y99.402 E46.69493
G1 X207.671 Y100.242 E46.72316
G1 X207.473 Y101.067 E46.75137
G1 X207.198 Y101.87 E46.77961
G1 X206.849 Y102.643 E46.80781
G1 X206.429 Y103.379 E46.836
G1 X205.983 Y104.013 E46.86178
G1 X206.49 Y104.709 E46.89042
G1 X206.922 Y105.44 E46.91866
G1 X207.284 Y106.207 E46.94687
G1 X207.571 Y107.005 E46.97508
G1 X207.782 Y107.827 E47.0033
G1 X207.915 Y108.665 E47.03152
G1 X207.969 Y109.652 E47.0644
G1 X207.969 Y152.783 E48.49894
G1 X207.929 Y153.63 E48.52715
G1 X207.809 Y154.47 E48.55537
G1 X207.611 Y155.295 E48.58359
G1 X207.336 Y156.098 E48.61182
G1 X206.987 Y156.871 E48.64003
G1 X206.567 Y157.607 E48.66821
G1 X206.079 Y158.301 E48.69643
G1 X205.528 Y158.946 E48.72465
G1 X204.918 Y159.536 E48.75287
G1 X204.256 Y160.066 E48.78108
G1 X203.547 Y160.532 E48.8093
G1 X202.797 Y160.928 E48.8375
G1 X202.013 Y161.253 E48.86573
G1 X201.202 Y161.502 E48.89395
G1 X200.371 Y161.673 E48.92217
G1 X199.528 Y161.766 E48.95038
G1 X198.969 Y161.783 E48.96898
G1 X21.169 Y161.783 E54.88263
G1 X20.322 Y161.743 E54.91083
G1 X19.482 Y161.623 E54.93905
G1 X18.657 Y161.425 E54.96727
G1 X17.854 Y161.15 E54.9955
G1 X17.081 Y160.801 E55.02371
G1 X16.345 Y160.381 E55.0519
G1 X15.651 Y159.893 E55.08011
G1 X15.006 Y159.342 E55.10833
G1 X14.416 Y158.732 E55.13656
G1 X13.886 Y158.07 E55.16476
G1 X13.42 Y157.361 E55.19298
G1 X13.024 Y156.611 E55.22119
G1 X12.699 Y155.827 E55.24942
G1 X12.45 Y155.016 E55.27763
G1 X12.279 Y154.185 E55.30585
G1 X12.186 Y153.342 E55.33406
G1 X12.169 Y152.783 E55.35266
G1 X12.169 Y109.102 E56.8055
G1 X12.209 Y108.255 E56.8337
G1 X12.329 Y107.415 E56.86192
G1 X12.527 Y106.59 E56.89014
G1 X12.802 Y105.787 E56.91837
G1 X13.151 Y105.014 E56.94658
G1 X13.571 Y104.278 E56.97476
G1 X13.737 Y104.043 E56.98433
G1 X13.282 Y103.351 E57.01188
G1 X12.886 Y102.601 E57.04009
G1 X12.561 Y101.817 E57.06832
G1 X12.312 Y101.006 E57.09653
G1 X12.141 Y100.175 E57.12475
G1 X12.048 Y99.332 E57.15296
G1 X12.031 Y98.773 E57.17156
G1 X12.031 Y67.217 E58.22112
G1 X12.071 Y66.37 E58.24932
G1 X12.191 Y65.53 E58.27754
G1 X12.389 Y64.705 E58.30576
G1 X12.664 Y63.902 E58.33399
G1 X13.013 Y63.129 E58.3622
G1 X13.433 Y62.393 E58.39039
G1 X13.921 Y61.699 E58.4186
G1 X14.472 Y61.054 E58.44682
G1 X15.082 Y60.464 E58.47504
G1 X15.744 Y59.934 E58.50325
G1 X16.453 Y59.468 E58.53147
G1 X17.203 Y59.072 E58.55968
G1 X17.987 Y58.747 E58.58791
G0 F6000 X18.352 Y59.045
G1 F1200 X19.151 Y58.825 E58.61547
G1 X19.968 Y58.683 E58.64305
G1 X21.031 Y58.617 E58.67847
G1 X198.831 Y58.617 E64.59213
G1 X199.659 Y58.657 E64.6197
G1 X200.48 Y58.777 E64.64729
G1 X201.285 Y58.975 E64.67487
G1 X202.067 Y59.249 E64.70243
G1 X202.82 Y59.598 E64.73003
G1 X203.535 Y60.018 E64.75761
G1 X204.206 Y60.504 E64.78517
G1 X204.828 Y61.053 E64.81276
G1 X205.394 Y61.659 E64.84034
G1 X205.899 Y62.317 E64.86793
G1 X206.338 Y63.02 E64.89549
G1 X206.707 Y63.763 E64.92309
G1 X207.003 Y64.538 E64.95068
G1 X207.223 Y65.337 E64.97824
G1 X207.365 Y66.154 E65.00582
G1 X207.431 Y67.217 E65.04125
G1 X207.431 Y98.555 E66.08355
G1 X207.391 Y99.383 E66.11113
G1 X207.271 Y100.204 E66.13872
G1 X207.073 Y101.009 E66.16629
G1 X206.799 Y101.791 E66.19385
G1 X206.45 Y102.544 E66.22146
G1 X206.03 Y103.259 E66.24904
G1 X205.544 Y103.93 E66.27659
G1 X205.46 Y104.025 E66.28081
G1 X205.817 Y104.45 E66.29927
G1 X206.286 Y105.134 E66.32686
G1 X206.687 Y105.859 E66.35441
G1 X207.017 Y106.62 E66.382
G1 X207.271 Y107.409 E66.40957
G1 X207.449 Y108.219 E66.43715
G1 X207.547 Y109.043 E66.46475
G1 X207.569 Y109.652 E66.48502
G1 X207.569 Y152.783 E67.91957
G1 X207.529 Y153.611 E67.94714
G1 X207.409 Y154.432 E67.97473
G1 X207.211 Y155.237 E68.00231
G1 X206.937 Y156.019 E68.02987
G1 X206.588 Y156.772 E68.05747
G1 X206.168 Y157.487 E68.08505
G1 X205.682 Y158.158 E68.11261
G1 X205.133 Y158.78 E68.1402
G1 X204.527 Y159.346 E68.16778
G1 X203.869 Y159.851 E68.19537
G1 X203.166 Y160.29 E68.22293
G1 X202.423 Y160.659 E68.25053
G1 X201.648 Y160.955 E68.27812
G1 X200.849 Y161.175 E68.30568
G1 X200.032 Y161.317 E68.33326
G1 X198.969 Y161.383 E68.36869
G1 X21.169 Y161.383 E74.28234
G1 X20.341 Y161.343 E74.30991
G1 X19.52 Y161.223 E74.33751
G1 X18.715 Y161.025 E74.36508
G1 X17.933 Y160.751 E74.39264
G1 X17.18 Y160.402 E74.42024
G1 X16.465 Y159.982 E74.44782
G1 X15.794 Y159.496 E74.47538
G1 X15.172 Y158.947 E74.50297
G1 X14.606 Y158.341 E74.53055
G1 X14.101 Y157.683 E74.55814
G1 X13.662 Y156.98 E74.58571
G1 X13.293 Y156.237 E74.6133
G1 X12.997 Y155.462 E74.64089
G1 X12.777 Y154.663 E74.66846
G1 X12.635 Y153.846 E74.69604
G1 X12.569 Y152.783 E74.73146
G1 X12.569 Y109.102 E76.1843
G1 X12.609 Y108.274 E76.21187
G1 X12.729 Y107.453 E76.23947
G1 X12.927 Y106.648 E76.26704
G1 X13.201 Y105.866 E76.2946
G1 X13.55 Y105.113 E76.3222
G1 X13.97 Y104.398 E76.34978
G1 X14.237 Y104.03 E76.3649
G1 X13.963 Y103.673 E76.37987
G1 X13.524 Y102.97 E76.40744
G1 X13.155 Y102.227 E76.43503
G1 X12.859 Y101.452 E76.46262
G1 X12.639 Y100.653 E76.49019
G1 X12.497 Y99.836 E76.51777
G1 X12.431 Y98.773 E76.55319
G1 X12.431 Y67.217 E77.60275
G1 X12.471 Y66.389 E77.63032
G1 X12.591 Y65.568 E77.65792
G1 X12.789 Y64.763 E77.68549
G1 X13.063 Y63.981 E77.71305
G1 X13.412 Y63.228 E77.74065
G1 X13.832 Y62.513 E77.76823
G1 X14.318 Y61.842 E77.79579
G1 X14.867 Y61.22 E77.82338
G1 X15.473 Y60.654 E77.85096
G1 X16.131 Y60.149 E77.87855
G1 X16.834 Y59.71 E77.90612
G1 X17.577 Y59.341 E77.93371
G1 X18.352 Y59.045 E77.9613
G0 F6000 X18.713 Y59.352
G1 F1200 X19.5 Y59.161 E77.98824
G1 X20.302 Y59.049 E78.01517
G1 X21.031 Y59.017 E78.03944
G1 X198.831 Y59.017 E83.95309
G1 X199.64 Y59.057 E83.98003
G1 X200.441 Y59.177 E84.00697
G1 X201.226 Y59.374 E84.03389
G1 X201.987 Y59.649 E84.0608
G1 X202.718 Y59.997 E84.08773
G1 X203.412 Y60.416 E84.11469
G1 X204.06 Y60.901 E84.14162
G1 X204.657 Y61.447 E84.16852
G1 X205.198 Y62.05 E84.19547
G1 X205.677 Y62.703 E84.2224
G1 X206.088 Y63.4 E84.24932
G1 X206.43 Y64.134 E84.27625
G1 X206.696 Y64.899 E84.30319
G1 X206.887 Y65.686 E84.33012
G1 X206.999 Y66.488 E84.35706
G1 X207.031 Y67.217 E84.38133
G1 X207.031 Y98.555 E85.42363
G1 X206.991 Y99.364 E85.45057
G1 X206.871 Y100.165 E85.47751
G1 X206.674 Y100.95 E85.50443
G1 X206.399 Y101.711 E85.53134
G1 X206.051 Y102.442 E85.55827
G1 X205.632 Y103.136 E85.58523
G1 X205.147 Y103.784 E85.61216
G1 X204.924 Y104.028 E85.62315
G1 X205.131 Y104.242 E85.63305
G1 X205.634 Y104.876 E85.65997
G1 X206.073 Y105.557 E85.68692
G1 X206.442 Y106.277 E85.71383
G1 X206.739 Y107.031 E85.74078
G1 X206.959 Y107.81 E85.7677
G1 X207.102 Y108.607 E85.79464
G1 X207.169 Y109.652 E85.82946
G1 X207.169 Y152.783 E87.26401
G1 X207.129 Y153.592 E87.29095
G1 X207.009 Y154.393 E87.31789
G1 X206.812 Y155.178 E87.3448
G1 X206.537 Y155.939 E87.37172
G1 X206.189 Y156.67 E87.39864
G1 X205.77 Y157.364 E87.42561
G1 X205.285 Y158.012 E87.45253
G1 X204.739 Y158.609 E87.47944
G1 X204.136 Y159.15 E87.50638
G1 X203.483 Y159.629 E87.53332
G1 X202.786 Y160.04 E87.56023
G1 X202.052 Y160.382 E87.58716
G1 X201.287 Y160.648 E87.6141
G1 X200.5 Y160.839 E87.64104
G1 X199.698 Y160.951 E87.66797
G1 X198.969 Y160.983 E87.69224
G1 X21.169 Y160.983 E93.60589
G1 X20.36 Y160.943 E93.63283
G1 X19.559 Y160.823 E93.65977
G1 X18.774 Y160.626 E93.68669
G1 X18.013 Y160.351 E93.7136
G1 X17.282 Y160.003 E93.74053
G1 X16.588 Y159.584 E93.76749
G1 X15.94 Y159.099 E93.79441
G1 X15.343 Y158.553 E93.82132
G1 X14.802 Y157.95 E93.84827
G1 X14.323 Y157.297 E93.8752
G1 X13.912 Y156.6 E93.90212
G1 X13.57 Y155.866 E93.92905
G1 X13.304 Y155.101 E93.95599
G1 X13.113 Y154.314 E93.98292
G1 X13.001 Y153.512 E94.00986
G1 X12.969 Y152.783 E94.03413
G1 X12.969 Y109.102 E95.48696
G1 X13.009 Y108.293 E95.5139
G1 X13.129 Y107.492 E95.54084
G1 X13.326 Y106.707 E95.56776
G1 X13.601 Y105.946 E95.59467
G1 X13.949 Y105.215 E95.6216
G1 X14.368 Y104.521 E95.64856
G1 X14.74 Y104.024 E95.66921
G1 X14.664 Y103.94 E95.67298
G1 X14.185 Y103.287 E95.69991
G1 X13.774 Y102.59 E95.72683
G1 X13.432 Y101.856 E95.75376
G1 X13.166 Y101.091 E95.7807
G1 X12.975 Y100.304 E95.80763
G1 X12.863 Y99.502 E95.83457
G1 X12.831 Y98.773 E95.85884
G1 X12.831 Y67.217 E96.90839
G1 X12.871 Y66.408 E96.93533
G1 X12.991 Y65.607 E96.96227
G1 X13.188 Y64.822 E96.98919
G1 X13.463 Y64.061 E97.0161
G1 X13.811 Y63.33 E97.04303
G1 X14.23 Y62.636 E97.07
G1 X14.715 Y61.988 E97.09692
G1 X15.261 Y61.391 E97.12382
G1 X15.864 Y60.85 E97.15077
G1 X16.517 Y60.371 E97.17771
G1 X17.214 Y59.96 E97.20462
