;FLAVOR:Marlin
;TIME:24985
;Filament used: 17.3251m
;Layer height: 0.2
;MINX:11.3
;MINY:39.627
;MINZ:0.2
;MAXX:208.7
;MAXY:180.373
;MAXZ:3.2
;Generated with Cura_SteamEngine 4.11.0
M140 S50
M105
M190 S50
M104 S200
M105
M109 S200
M82 ;absolute extrusion mode
; Ender 3 Custom Start G-code
G92 E0 ; Reset Extruder
G28 ; Home all axes
G29 ; Auto bed-level (BL-Touch)
G1 Z2.0 F3000 ; Move Z Axis up little to prevent scratching of Heat Bed
G1 X0.1 Y20 Z0.3 F5000.0 ; Move to start position
G1 X0.1 Y200.0 Z0.3 F1500.0 E15 ; Draw the first line
G1 X0.4 Y200.0 Z0.3 F5000.0 ; Move to side a little
G1 X0.4 Y20 Z0.3 F1500.0 E30 ; Draw the second line
G92 E0 ; Reset Extruder
G1 Z2.0 F3000 ; Move Z Axis up little to prevent scratching of Heat Bed
G1 X5 Y20 Z0.3 F5000.0 ; Move over to prevent blob squish
G92 E0
G92 E0
G1 F2700 E-5
;LAYER_COUNT:16
;LAYER:0
M107
G0 F6000 X63.539 Y109.253 Z0.2
;TYPE:SKIRT
G1 F2700 E0
G1 F1200 X64.381 Y110.476 E0.04939
G1 X64.843 Y111.216 E0.0784
G1 X65.677 Y112.694 E0.13485
G1 X66.072 Y113.473 E0.1639
G1 X66.771 Y115.019 E0.22033
G1 X67.097 Y115.836 E0.24958
G1 X67.682 Y117.519 E0.30885
G1 X68.059 Y118.619 E0.34752
G1 X68.384 Y119.37 E0.37474
G1 X68.772 Y120.104 E0.40235
G1 X69.21 Y120.796 E0.42959
G1 X69.705 Y121.457 E0.45706
G1 X70.244 Y122.071 E0.48423
G1 X70.912 Y122.721 E0.51523
G1 X72.154 Y123.804 E0.57004
G1 X73.429 Y124.771 E0.62326
G1 X74.751 Y125.638 E0.67585
G1 X76.124 Y126.41 E0.72824
G1 X77.563 Y127.094 E0.78123
G1 X79.037 Y127.676 E0.83394
G1 X80.547 Y128.155 E0.88663
G1 X82.1 Y128.534 E0.9398
G1 X83.648 Y128.801 E0.99204
G1 X85.233 Y128.964 E1.04504
G1 X86.972 Y129.023 E1.10291
G1 X145.92 Y129.024 E3.06353
G1 X145.92 Y109.253 E3.72112
G1 X63.539 Y109.253 E6.46112
G0 F6000 X63.092 Y109.308
G1 F1200 X64.052 Y110.703 E6.51744
G1 X64.495 Y111.413 E6.54528
G1 X65.329 Y112.891 E6.60172
G1 X65.707 Y113.637 E6.62954
G1 X66.406 Y115.183 E6.68597
G1 X66.719 Y115.967 E6.71404
G1 X67.304 Y117.649 E6.77328
G1 X67.686 Y118.761 E6.81238
G1 X68.028 Y119.553 E6.84108
G1 X68.424 Y120.301 E6.86923
G1 X68.876 Y121.016 E6.89736
G1 X69.401 Y121.718 E6.92652
G1 X69.953 Y122.346 E6.95432
G1 X70.633 Y123.009 E6.98591
G1 X71.909 Y124.121 E7.04221
G1 X73.193 Y125.094 E7.09579
G1 X74.547 Y125.982 E7.14965
G1 X75.946 Y126.769 E7.20303
G1 X77.392 Y127.457 E7.25629
G1 X78.913 Y128.057 E7.31068
G1 X80.435 Y128.54 E7.36379
G1 X82.01 Y128.924 E7.41771
G1 X83.597 Y129.198 E7.47127
G1 X85.193 Y129.362 E7.52463
G1 X86.987 Y129.423 E7.58434
G1 X146.32 Y129.424 E9.55776
G1 X146.32 Y108.853 E10.24195
G1 X62.748 Y108.853 E13.02157
G1 X63.092 Y109.308 E13.04054
G0 F6000 X62.762 Y109.535
G1 F1200 X63.722 Y110.93 E13.09686
G1 X64.146 Y111.609 E13.12349
G1 X64.98 Y113.087 E13.17993
G1 X65.343 Y113.802 E13.2066
G1 X66.042 Y115.348 E13.26304
G1 X66.341 Y116.099 E13.28992
G1 X66.926 Y117.779 E13.34909
G1 X67.314 Y118.909 E13.38883
G1 X67.664 Y119.72 E13.41821
G1 X68.081 Y120.508 E13.44786
G1 X68.552 Y121.251 E13.47712
G1 X69.082 Y121.96 E13.50656
G1 X69.667 Y122.627 E13.53607
G1 X70.365 Y123.306 E13.56846
G1 X71.656 Y124.431 E13.62541
G1 X72.96 Y125.42 E13.67984
G1 X74.329 Y126.318 E13.7343
G1 X75.768 Y127.128 E13.78922
G1 X77.234 Y127.825 E13.84321
G1 X78.776 Y128.433 E13.89834
G1 X80.337 Y128.928 E13.95281
G1 X81.919 Y129.314 E14.00697
G1 X83.545 Y129.595 E14.06185
G1 X85.168 Y129.761 E14.11612
G1 X86.974 Y129.823 E14.17622
G1 X146.72 Y129.824 E16.16338
G1 X146.72 Y108.453 E16.87418
G1 X61.913 Y108.453 E19.69487
G1 X62.278 Y108.894 E19.71391
G1 X62.762 Y109.535 E19.74063
G0 F6000 X62.433 Y109.762
G1 F1200 X63.393 Y111.157 E19.79695
G1 X63.798 Y111.806 E19.82239
G1 X64.632 Y113.284 E19.87884
G1 X64.978 Y113.967 E19.9043
G1 X65.677 Y115.513 E19.96074
G1 X65.963 Y116.23 E19.98641
G1 X66.547 Y117.909 E20.04554
G1 X66.937 Y119.045 E20.08548
G1 X67.306 Y119.898 E20.1164
G1 X67.733 Y120.706 E20.14679
G1 X68.217 Y121.471 E20.1769
G1 X68.773 Y122.214 E20.20777
G1 X69.371 Y122.895 E20.23791
G1 X70.106 Y123.61 E20.27202
G1 X71.404 Y124.742 E20.3293
G1 X72.724 Y125.743 E20.3844
G1 X74.132 Y126.666 E20.44039
G1 X75.574 Y127.477 E20.49542
G1 X77.082 Y128.195 E20.55097
G1 X78.638 Y128.809 E20.60661
G1 X80.225 Y129.312 E20.66198
G1 X81.843 Y129.707 E20.71737
G1 X83.495 Y129.992 E20.77313
G1 X85.143 Y130.161 E20.82823
G1 X86.96 Y130.223 E20.8887
G1 X147.12 Y130.224 E22.88963
G1 X147.12 Y108.053 E23.62704
G1 X61.062 Y108.053 E26.48934
G1 X61.97 Y109.149 E26.53668
G1 X62.433 Y109.762 E26.56223
G0 F6000 X62.103 Y109.988
G1 F1200 X63.063 Y111.383 E26.61855
G1 X63.449 Y112.002 E26.64282
G1 X64.283 Y113.48 E26.69926
G1 X64.614 Y114.132 E26.72358
G1 X65.313 Y115.678 E26.78001
G1 X65.586 Y116.361 E26.80448
G1 X66.169 Y118.039 E26.86356
G1 X66.565 Y119.192 E26.90411
G1 X66.942 Y120.065 E26.93574
G1 X67.391 Y120.913 E26.96765
G1 X67.893 Y121.706 E26.99887
G1 X68.458 Y122.462 E27.03026
G1 X69.079 Y123.17 E27.06158
G1 X69.837 Y123.907 E27.09674
G1 X71.142 Y125.045 E27.15433
G1 X72.507 Y126.08 E27.21131
G1 X73.907 Y126.998 E27.26699
G1 X75.396 Y127.836 E27.32382
G1 X76.937 Y128.568 E27.38056
G1 X78.488 Y129.181 E27.43603
G1 X80.126 Y129.7 E27.49318
G1 X81.767 Y130.1 E27.54936
G1 X83.43 Y130.388 E27.60549
G1 X85.118 Y130.561 E27.66193
G1 X86.946 Y130.623 E27.72276
G1 X147.52 Y130.624 E29.73746
G1 X147.52 Y107.653 E30.50148
G1 X60.175 Y107.653 E33.40659
G1 X60.578 Y108.097 E33.42653
G1 X61.662 Y109.405 E33.48303
G1 X62.103 Y109.988 E33.50735
G0 F6000 X61.774 Y110.215
G1 F1200 X62.734 Y111.61 E33.56367
G1 X63.101 Y112.199 E33.58675
G1 X63.935 Y113.677 E33.6432
G1 X64.249 Y114.297 E33.66631
G1 X64.948 Y115.843 E33.72274
G1 X65.208 Y116.493 E33.74603
G1 X65.791 Y118.168 E33.80502
G1 X66.196 Y119.349 E33.84654
G1 X66.58 Y120.237 E33.87872
G1 X67.042 Y121.11 E33.91157
G1 X67.559 Y121.926 E33.9437
G1 X68.155 Y122.724 E33.97683
G1 X68.788 Y123.445 E34.00874
G1 X69.55 Y124.187 E34.04412
G1 X70.905 Y125.367 E34.10388
G1 X72.265 Y126.399 E34.16066
G1 X73.71 Y127.346 E34.21812
G1 X75.218 Y128.195 E34.27568
G1 X76.766 Y128.931 E34.33269
G1 X78.364 Y129.561 E34.38982
G1 X80 Y130.08 E34.44691
G1 X81.691 Y130.493 E34.5048
G1 X83.38 Y130.785 E34.56181
G1 X85.092 Y130.96 E34.61905
G1 X86.933 Y131.023 E34.68032
G1 X147.92 Y131.024 E36.70875
G1 X147.92 Y107.253 E37.49938
G1 X59.225 Y107.253 E40.44939
G1 X59.807 Y107.841 E40.47691
G1 X60.27 Y108.352 E40.49984
G1 X61.354 Y109.66 E40.55634
G1 X61.774 Y110.215 E40.57949
G0 F6000 X61.444 Y110.442
G1 F1200 X62.404 Y111.837 E40.63582
G1 X62.753 Y112.395 E40.65771
G1 X63.587 Y113.873 E40.71415
G1 X63.885 Y114.461 E40.73608
G1 X64.584 Y116.007 E40.79251
G1 X64.83 Y116.624 E40.8146
G1 X65.412 Y118.298 E40.87355
G1 X65.819 Y119.485 E40.91528
G1 X66.217 Y120.404 E40.94859
G1 X66.7 Y121.317 E40.98295
G1 X67.229 Y122.153 E41.01585
G1 X67.841 Y122.972 E41.04986
G1 X68.503 Y123.727 E41.08325
G1 X69.282 Y124.484 E41.11938
G1 X70.651 Y125.678 E41.1798
G1 X72.032 Y126.724 E41.23742
G1 X73.502 Y127.689 E41.29591
G1 X75.029 Y128.548 E41.35418
G1 X76.604 Y129.296 E41.41217
G1 X78.228 Y129.937 E41.47024
G1 X79.903 Y130.469 E41.52869
G1 X81.604 Y130.884 E41.58693
G1 X83.328 Y131.181 E41.64511
G1 X85.054 Y131.358 E41.70282
G1 X86.948 Y131.423 E41.76585
G1 X148.32 Y131.424 E43.80709
G1 X148.32 Y106.853 E44.62433
G1 X58.26 Y106.853 E47.61974
G1 X58.329 Y106.917 E47.62287
G1 X59.523 Y108.123 E47.67931
G1 X59.962 Y108.607 E47.70105
G1 X61.046 Y109.915 E47.75755
G1 X61.444 Y110.442 E47.77951
G0 F6000 X61.114 Y110.669
G1 F1200 X62.074 Y112.064 E47.83584
G1 X62.404 Y112.592 E47.85655
G1 X63.238 Y114.07 E47.91299
G1 X63.52 Y114.626 E47.93373
G1 X64.219 Y116.172 E47.99016
G1 X64.452 Y116.756 E48.01107
G1 X65.034 Y118.428 E48.06995
G1 X65.447 Y119.633 E48.11232
G1 X65.858 Y120.582 E48.14672
G1 X66.351 Y121.515 E48.18181
G1 X66.9 Y122.382 E48.21595
G1 X67.531 Y123.226 E48.251
G1 X68.206 Y123.995 E48.28503
G1 X69.023 Y124.789 E48.32292
G1 X70.382 Y125.974 E48.38289
G1 X71.812 Y127.059 E48.44259
G1 X73.293 Y128.03 E48.5015
G1 X74.839 Y128.9 E48.5605
G1 X76.451 Y129.666 E48.61986
G1 X78.09 Y130.313 E48.67847
G1 X79.805 Y130.857 E48.73831
G1 X81.514 Y131.274 E48.79682
G1 X83.263 Y131.576 E48.85585
G1 X85.043 Y131.758 E48.91536
G1 X86.934 Y131.823 E48.97829
G1 X148.72 Y131.824 E51.0333
G1 X148.72 Y106.805 E51.86544
G1 X148.739 Y106.453 E51.87716
G1 X57.205 Y106.453 E54.9216
G1 X57.583 Y106.772 E54.93805
G1 X58.044 Y107.198 E54.95893
G1 X59.238 Y108.404 E55.01537
G1 X59.654 Y108.862 E55.03595
G1 X60.738 Y110.17 E55.09245
G1 X61.114 Y110.669 E55.11323
G0 F6000 X60.785 Y110.895
G1 F1200 X61.745 Y112.29 E55.16956
G1 X62.056 Y112.789 E55.18911
G1 X62.89 Y114.267 E55.24556
G1 X63.156 Y114.791 E55.2651
G1 X63.855 Y116.337 E55.32153
G1 X64.074 Y116.887 E55.34122
G1 X64.656 Y118.558 E55.40008
G1 X65.075 Y119.78 E55.44304
G1 X65.499 Y120.76 E55.47856
G1 X66.003 Y121.712 E55.51439
G1 X66.57 Y122.608 E55.54965
G1 X67.217 Y123.474 E55.58561
G1 X67.921 Y124.276 E55.6211
G1 X68.744 Y125.077 E55.6593
G1 X70.138 Y126.291 E55.72078
G1 X71.579 Y127.385 E55.78095
G1 X73.086 Y128.373 E55.84089
G1 X74.65 Y129.253 E55.90058
G1 X76.293 Y130.034 E55.96108
G1 X77.966 Y130.694 E56.0209
G1 X79.679 Y131.237 E56.08067
G1 X81.437 Y131.666 E56.14086
G1 X83.213 Y131.973 E56.2008
G1 X85.018 Y132.158 E56.26115
G1 X86.921 Y132.223 E56.32448
G1 X149.121 Y132.224 E58.39326
G1 X149.12 Y106.805 E59.2387
G1 X149.16 Y106.08 E59.26285
G1 X149.164 Y106.053 E59.26376
G1 X56.11 Y106.053 E62.35875
G1 X57.325 Y107.078 E62.41162
G1 X57.76 Y107.479 E62.4313
G1 X58.954 Y108.685 E62.48774
G1 X59.346 Y109.118 E62.50717
G1 X60.43 Y110.426 E62.56367
G1 X60.785 Y110.895 E62.58324
G0 F6000 X60.455 Y111.122
G1 F1200 X61.415 Y112.517 E62.63956
G1 X61.708 Y112.985 E62.65792
G1 X62.542 Y114.463 E62.71437
G1 X62.791 Y114.956 E62.73274
G1 X63.49 Y116.502 E62.78917
G1 X63.697 Y117.019 E62.80769
G1 X64.277 Y118.688 E62.86646
G1 X64.697 Y119.911 E62.90947
G1 X65.138 Y120.932 E62.94646
G1 X65.66 Y121.919 E62.9836
G1 X66.236 Y122.828 E63.01939
G1 X66.909 Y123.729 E63.05679
G1 X67.636 Y124.557 E63.09344
G1 X68.476 Y125.374 E63.13241
G1 X69.884 Y126.602 E63.19455
G1 X71.336 Y127.703 E63.25516
G1 X72.889 Y128.721 E63.31692
G1 X74.472 Y129.612 E63.37734
G1 X76.123 Y130.397 E63.43814
G1 X77.829 Y131.07 E63.49914
G1 X79.581 Y131.625 E63.56027
G1 X81.347 Y132.057 E63.62074
G1 X83.162 Y132.37 E63.68199
G1 X84.992 Y132.558 E63.74318
G1 X86.907 Y132.623 E63.80691
G1 X149.539 Y132.624 E65.89006
G1 X149.52 Y132.205 E65.90401
G1 X149.52 Y106.805 E66.74882
G1 X149.56 Y106.102 E66.77224
G1 X149.637 Y105.653 E66.78739
G1 X54.906 Y105.653 E69.93815
G1 X55.334 Y105.953 E69.95554
G1 X55.77 Y106.29 E69.97387
G1 X57.067 Y107.384 E70.0303
G1 X57.476 Y107.761 E70.0488
G1 X58.67 Y108.967 E70.10525
G1 X59.038 Y109.373 E70.12347
G1 X60.122 Y110.681 E70.17997
G1 X60.455 Y111.122 E70.19835
G0 F6000 X60.126 Y111.349
G1 F1200 X61.086 Y112.744 E70.25468
G1 X61.359 Y113.182 E70.27184
G1 X62.193 Y114.66 E70.32829
G1 X62.427 Y115.121 E70.34548
G1 X63.126 Y116.667 E70.40192
G1 X63.319 Y117.15 E70.41921
G1 X63.899 Y118.817 E70.47792
G1 X64.326 Y120.062 E70.5217
G1 X64.779 Y121.109 E70.55964
G1 X65.309 Y122.111 E70.59734
G1 X65.915 Y123.069 E70.63504
G1 X66.594 Y123.977 E70.67275
G1 X67.345 Y124.832 E70.7106
G1 X68.197 Y125.662 E70.75017
G1 X69.633 Y126.913 E70.81351
G1 X71.117 Y128.039 E70.87547
G1 X72.664 Y129.053 E70.93699
G1 X74.294 Y129.97 E70.99919
G1 X75.965 Y130.764 E71.06073
G1 X77.691 Y131.446 E71.12245
G1 X79.469 Y132.009 E71.18448
G1 X81.285 Y132.453 E71.24666
G1 X83.098 Y132.766 E71.30785
G1 X84.952 Y132.956 E71.36984
G1 X86.922 Y133.023 E71.4354
G1 X149.986 Y133.024 E73.53292
G1 X149.92 Y132.205 E73.56025
G1 X149.92 Y106.805 E74.40505
G1 X149.96 Y106.125 E74.42771
G1 X150.079 Y105.455 E74.45034
G1 X150.14 Y105.253 E74.45736
G1 X53.631 Y105.253 E77.66726
G1 X53.717 Y105.308 E77.67066
G1 X55.104 Y106.281 E77.72701
G1 X55.513 Y106.596 E77.74418
G1 X56.81 Y107.69 E77.80062
G1 X57.192 Y108.042 E77.81789
G1 X58.386 Y109.248 E77.87434
G1 X58.73 Y109.628 E77.89139
G1 X59.814 Y110.936 E77.94789
G1 X60.126 Y111.349 E77.9651
G0 F6000 X59.796 Y111.576
G1 F1200 X60.756 Y112.971 E78.02143
G1 X61.011 Y113.378 E78.0374
G1 X61.845 Y114.856 E78.09385
G1 X62.062 Y115.285 E78.10984
G1 X62.761 Y116.831 E78.16627
G1 X62.941 Y117.282 E78.18242
G1 X63.521 Y118.947 E78.24106
G1 X63.958 Y120.221 E78.28586
G1 X64.41 Y121.266 E78.32373
G1 X64.966 Y122.318 E78.3633
G1 X65.585 Y123.296 E78.4018
G1 X66.28 Y124.225 E78.44039
G1 X67.054 Y125.107 E78.47942
G1 X67.939 Y125.967 E78.52046
G1 X69.37 Y127.215 E78.58361
G1 X70.884 Y128.363 E78.64681
G1 X72.467 Y129.401 E78.70977
G1 X74.1 Y130.32 E78.77209
G1 X75.813 Y131.134 E78.83517
G1 X77.567 Y131.827 E78.8979
G1 X79.357 Y132.394 E78.96035
G1 X81.195 Y132.843 E79.02328
G1 X83.046 Y133.162 E79.08575
G1 X84.928 Y133.355 E79.14868
G1 X86.909 Y133.423 E79.2146
G1 X150.46 Y133.424 E81.32832
G1 X150.353 Y132.798 E81.34944
G1 X150.32 Y132.205 E81.36919
G1 X150.32 Y106.805 E82.214
G1 X150.36 Y106.149 E82.23586
G1 X150.479 Y105.503 E82.25771
G1 X150.676 Y104.876 E82.27957
G1 X150.686 Y104.853 E82.2804
G1 X52.172 Y104.853 E85.55699
G1 X53.082 Y105.377 E85.59192
G1 X53.487 Y105.635 E85.60789
G1 X54.874 Y106.608 E85.66424
G1 X55.255 Y106.901 E85.68023
G1 X56.552 Y107.995 E85.73666
G1 X56.907 Y108.324 E85.75276
G1 X58.101 Y109.53 E85.8092
G1 X58.422 Y109.883 E85.82507
G1 X59.506 Y111.191 E85.88158
G1 X59.796 Y111.576 E85.89761
G0 F6000 X59.467 Y111.802
G1 F1200 X60.427 Y113.197 E85.95393
G1 X60.663 Y113.575 E85.96875
G1 X61.497 Y115.053 E86.0252
G1 X61.698 Y115.45 E86.04
G1 X62.397 Y116.996 E86.09643
G1 X62.563 Y117.413 E86.11136
G1 X63.142 Y119.077 E86.16996
G1 X63.581 Y120.357 E86.21496
G1 X64.051 Y121.444 E86.25435
G1 X64.613 Y122.506 E86.29431
G1 X65.258 Y123.524 E86.3344
G1 X65.977 Y124.487 E86.37437
G1 X66.763 Y125.382 E86.41399
G1 X67.652 Y126.246 E86.45522
G1 X69.133 Y127.538 E86.52059
G1 X70.651 Y128.689 E86.58395
G1 X72.248 Y129.737 E86.64748
G1 X73.922 Y130.678 E86.71135
G1 X75.65 Y131.5 E86.775
G1 X77.435 Y132.204 E86.83882
G1 X79.258 Y132.782 E86.90243
G1 X81.104 Y133.233 E86.96563
G1 X82.995 Y133.559 E87.02945
G1 X84.903 Y133.755 E87.09325
G1 X86.895 Y133.823 E87.15954
G1 X150.996 Y133.824 E89.29155
G1 X150.952 Y133.71 E89.29561
G1 X150.8 Y133.096 E89.31665
G1 X150.72 Y132.205 E89.3464
G1 X150.72 Y106.805 E90.19121
G1 X150.76 Y106.174 E90.21224
G1 X150.879 Y105.553 E90.23327
G1 X151.076 Y104.953 E90.25427
G1 X151.313 Y104.453 E90.27268
G1 X50.545 Y104.453 E93.62424
G1 X51.012 Y104.669 E93.64135
G1 X51.41 Y104.876 E93.65627
G1 X52.882 Y105.724 E93.71277
G1 X53.257 Y105.963 E93.72756
G1 X54.644 Y106.936 E93.78391
G1 X54.997 Y107.207 E93.79872
G1 X56.294 Y108.301 E93.85515
G1 X56.623 Y108.605 E93.87005
G1 X57.817 Y109.811 E93.92649
G1 X58.114 Y110.139 E93.94121
G1 X59.198 Y111.447 E93.99771
G1 X59.467 Y111.802 E94.01253
G0 F6000 X59.137 Y112.029
G1 F1200 X60.097 Y113.424 E94.06885
G1 X60.314 Y113.771 E94.08246
G1 X61.148 Y115.249 E94.13891
G1 X61.333 Y115.615 E94.15255
G1 X62.032 Y117.161 E94.20898
G1 X62.186 Y117.544 E94.22271
G1 X62.764 Y119.207 E94.28127
G1 X63.207 Y120.499 E94.32669
G1 X63.695 Y121.626 E94.36754
G1 X64.264 Y122.703 E94.40805
G1 X64.933 Y123.76 E94.44966
G1 X65.662 Y124.735 E94.49015
G1 X66.471 Y125.657 E94.53095
G1 X67.383 Y126.544 E94.57326
G1 X68.873 Y127.843 E94.63901
G1 X70.422 Y129.017 E94.70365
G1 X72.044 Y130.081 E94.76817
G1 X73.744 Y131.037 E94.83304
G1 X75.48 Y131.863 E94.89699
G1 X77.298 Y132.58 E94.96198
G1 X79.143 Y133.165 E95.02636
G1 X81.031 Y133.626 E95.091
G1 X82.945 Y133.956 E95.1556
G1 X84.878 Y134.154 E95.22023
G1 X86.881 Y134.223 E95.28689
G1 X151.597 Y134.224 E97.43935
G1 X151.454 Y133.927 E97.45031
G1 X151.265 Y133.351 E97.47048
G1 X151.153 Y132.755 E97.49065
G1 X151.12 Y132.205 E97.50897
G1 X151.12 Y106.805 E98.35378
G1 X151.16 Y106.2 E98.37395
G1 X151.279 Y105.606 E98.3941
G1 X151.475 Y105.032 E98.41427
G1 X151.746 Y104.489 E98.43445
G1 X152.04 Y104.053 E98.45194
G1 X48.611 Y104.053 E101.89201
G1 X48.929 Y104.167 E101.90324
G1 X49.306 Y104.322 E101.9168
