;FLAVOR:Marlin
;TIME:24732
;Filament used: 18.1489m
;Layer height: 0.2
;MINX:11.289
;MINY:58.277
;MINZ:0.2
;MAXX:208.711
;MAXY:161.723
;MAXZ:3.2
;Generated with Cura_SteamEngine 4.11.0
M140 S50
M105
M190 S50
M104 S200
M105
M109 S200
M82 ;absolute extrusion mode
; Ender 3 Custom Start G-code
G92 E0 ; Reset Extruder
G28 ; Home all axes
G29 ; Auto bed-level (BL-Touch)
G1 Z2.0 F3000 ; Move Z Axis up little to prevent scratching of Heat Bed
G1 X0.1 Y20 Z0.3 F5000.0 ; Move to start position
G1 X0.1 Y200.0 Z0.3 F1500.0 E15 ; Draw the first line
G1 X0.4 Y200.0 Z0.3 F5000.0 ; Move to side a little
G1 X0.4 Y20 Z0.3 F1500.0 E30 ; Draw the second line
G92 E0 ; Reset Extruder
G1 Z2.0 F3000 ; Move Z Axis up little to prevent scratching of Heat Bed
G1 X5 Y20 Z0.3 F5000.0 ; Move over to prevent blob squish
G92 E0
G92 E0
G1 F2700 E-5
;LAYER_COUNT:16
;LAYER:0
M107
G0 F6000 X18.161 Y58.732 Z0.2
;TYPE:SKIRT
G1 F2700 E0
G1 F1200 X19.016 Y58.504 E0.02943
G1 X19.889 Y58.354 E0.05889
G1 X21.111 Y58.277 E0.09962
G1 X198.911 Y58.277 E6.01327
G1 X199.795 Y58.317 E6.0427
G1 X200.672 Y58.437 E6.07214
G1 X201.535 Y58.635 E6.10159
G1 X202.376 Y58.91 E6.13102
G1 X203.189 Y59.26 E6.16046
G1 X203.968 Y59.682 E6.18993
G1 X204.704 Y60.173 E6.21935
G1 X205.394 Y60.728 E6.24881
G1 X206.031 Y61.343 E6.27826
G1 X206.609 Y62.013 E6.30769
G1 X207.125 Y62.732 E6.33712
G1 X207.574 Y63.495 E6.36657
G1 X207.952 Y64.296 E6.39603
G1 X208.256 Y65.127 E6.42546
G1 X208.484 Y65.982 E6.45489
G1 X208.634 Y66.855 E6.48435
G1 X208.711 Y68.077 E6.52507
G1 X208.711 Y98.113 E7.52408
G1 X208.671 Y98.997 E7.55351
G1 X208.551 Y99.874 E7.58295
G1 X208.353 Y100.737 E7.6124
G1 X208.078 Y101.578 E7.64183
G1 X207.728 Y102.391 E7.67127
G1 X207.421 Y102.958 E7.69271
G1 X207.528 Y103.137 E7.69965
G1 X207.91 Y103.936 E7.7291
G1 X208.219 Y104.766 E7.75856
G1 X208.452 Y105.62 E7.788
G1 X208.606 Y106.491 E7.81742
G1 X208.689 Y107.764 E7.85985
G1 X208.689 Y151.923 E9.32859
G1 X208.649 Y152.807 E9.35802
G1 X208.529 Y153.684 E9.38746
G1 X208.331 Y154.547 E9.41691
G1 X208.056 Y155.388 E9.44634
G1 X207.706 Y156.201 E9.47578
G1 X207.284 Y156.98 E9.50525
G1 X206.793 Y157.716 E9.53467
G1 X206.238 Y158.406 E9.56412
G1 X205.623 Y159.043 E9.59357
G1 X204.953 Y159.621 E9.623
G1 X204.234 Y160.137 E9.65244
G1 X203.471 Y160.586 E9.68189
G1 X202.67 Y160.964 E9.71134
G1 X201.839 Y161.268 E9.74077
G1 X200.984 Y161.496 E9.77021
G1 X200.111 Y161.646 E9.79967
G1 X198.889 Y161.723 E9.84039
G1 X21.089 Y161.723 E15.75404
G1 X20.205 Y161.683 E15.78348
G1 X19.328 Y161.563 E15.81292
G1 X18.465 Y161.365 E15.84237
G1 X17.624 Y161.09 E15.8718
G1 X16.811 Y160.74 E15.90124
G1 X16.032 Y160.318 E15.9307
G1 X15.296 Y159.827 E15.96013
G1 X14.606 Y159.272 E15.98958
G1 X13.969 Y158.657 E16.01903
G1 X13.391 Y157.987 E16.04846
G1 X12.875 Y157.268 E16.0779
G1 X12.426 Y156.505 E16.10734
G1 X12.048 Y155.704 E16.1368
G1 X11.744 Y154.873 E16.16623
G1 X11.516 Y154.018 E16.19566
G1 X11.366 Y153.145 E16.22512
G1 X11.289 Y151.923 E16.26585
G1 X11.289 Y106.377 E17.78071
G1 X11.329 Y105.493 E17.81015
G1 X11.449 Y104.616 E17.83959
G1 X11.647 Y103.753 E17.86904
G1 X11.922 Y102.912 E17.89847
G1 X12.272 Y102.099 E17.92791
G1 X12.372 Y101.915 E17.93487
G1 X12.07 Y101.276 E17.95838
G1 X11.766 Y100.445 E17.98781
G1 X11.538 Y99.59 E18.01724
G1 X11.388 Y98.717 E18.0467
G1 X11.311 Y97.495 E18.08743
G1 X11.311 Y68.077 E19.06587
G1 X11.351 Y67.193 E19.09531
G1 X11.471 Y66.316 E19.12475
G1 X11.669 Y65.453 E19.1542
G1 X11.944 Y64.612 E19.18362
G1 X12.294 Y63.799 E19.21306
G1 X12.716 Y63.02 E19.24253
G1 X13.207 Y62.284 E19.27196
G1 X13.762 Y61.594 E19.30141
G1 X14.377 Y60.957 E19.33086
G1 X15.047 Y60.379 E19.36029
G1 X15.766 Y59.863 E19.38973
G1 X16.529 Y59.414 E19.41917
G1 X17.33 Y59.036 E19.44863
G1 X18.161 Y58.732 E19.47806
G0 F6000 X18.521 Y59.041
G1 F1200 X19.365 Y58.841 E19.50691
G1 X20.223 Y58.719 E19.53573
G1 X21.111 Y58.677 E19.5653
G1 X198.911 Y58.677 E25.47895
G1 X199.777 Y58.717 E25.50779
G1 X200.636 Y58.837 E25.53664
G1 X201.48 Y59.035 E25.56547
G1 X202.302 Y59.31 E25.5943
G1 X203.095 Y59.66 E25.62313
G1 X203.853 Y60.081 E25.65197
G1 X204.568 Y60.57 E25.68078
G1 X205.236 Y61.123 E25.70962
G1 X205.85 Y61.736 E25.73848
G1 X206.405 Y62.402 E25.76731
G1 X206.895 Y63.116 E25.79612
G1 X207.319 Y63.873 E25.82497
G1 X207.67 Y64.666 E25.85382
G1 X207.947 Y65.487 E25.88264
G1 X208.147 Y66.331 E25.91148
G1 X208.269 Y67.189 E25.94031
G1 X208.311 Y68.077 E25.96988
G1 X208.311 Y98.113 E26.96888
G1 X208.271 Y98.979 E26.99771
G1 X208.151 Y99.838 E27.02656
G1 X207.953 Y100.682 E27.05539
G1 X207.678 Y101.504 E27.08422
G1 X207.328 Y102.297 E27.11305
G1 X206.96 Y102.959 E27.13824
G1 X207.299 Y103.565 E27.16134
G1 X207.65 Y104.357 E27.19015
G1 X207.927 Y105.179 E27.219
G1 X208.126 Y106.023 E27.24784
G1 X208.247 Y106.881 E27.27666
G1 X208.289 Y107.764 E27.30607
G1 X208.289 Y151.923 E28.7748
G1 X208.249 Y152.789 E28.80363
G1 X208.129 Y153.648 E28.83248
G1 X207.931 Y154.492 E28.86132
G1 X207.656 Y155.314 E28.89015
G1 X207.306 Y156.107 E28.91898
G1 X206.885 Y156.865 E28.94781
G1 X206.396 Y157.58 E28.97662
G1 X205.843 Y158.248 E29.00547
G1 X205.23 Y158.862 E29.03433
G1 X204.564 Y159.417 E29.06316
G1 X203.85 Y159.907 E29.09196
G1 X203.093 Y160.331 E29.12082
G1 X202.3 Y160.682 E29.14966
G1 X201.479 Y160.959 E29.17848
G1 X200.635 Y161.159 E29.20733
G1 X199.777 Y161.281 E29.23616
G1 X198.889 Y161.323 E29.26572
G1 X21.089 Y161.323 E35.17938
G1 X20.223 Y161.283 E35.20821
G1 X19.364 Y161.163 E35.23706
G1 X18.52 Y160.965 E35.26589
G1 X17.698 Y160.69 E35.29472
G1 X16.905 Y160.34 E35.32355
G1 X16.147 Y159.919 E35.35239
G1 X15.432 Y159.43 E35.3812
G1 X14.764 Y158.877 E35.41004
G1 X14.15 Y158.264 E35.4389
G1 X13.595 Y157.598 E35.46773
G1 X13.105 Y156.884 E35.49654
G1 X12.681 Y156.127 E35.5254
G1 X12.33 Y155.334 E35.55424
G1 X12.053 Y154.513 E35.58306
G1 X11.853 Y153.669 E35.61191
G1 X11.731 Y152.811 E35.64073
G1 X11.689 Y151.923 E35.6703
G1 X11.689 Y106.377 E37.18516
G1 X11.729 Y105.511 E37.214
G1 X11.849 Y104.652 E37.24285
G1 X12.047 Y103.808 E37.27168
G1 X12.322 Y102.986 E37.30051
G1 X12.672 Y102.193 E37.32934
G1 X12.825 Y101.917 E37.33984
G1 X12.703 Y101.699 E37.34814
G1 X12.352 Y100.906 E37.37699
G1 X12.075 Y100.085 E37.40581
G1 X11.875 Y99.241 E37.43466
G1 X11.753 Y98.383 E37.46348
G1 X11.711 Y97.495 E37.49305
G1 X11.711 Y68.077 E38.47149
G1 X11.751 Y67.211 E38.50033
G1 X11.871 Y66.352 E38.52918
G1 X12.069 Y65.508 E38.55801
G1 X12.344 Y64.686 E38.58684
G1 X12.694 Y63.893 E38.61567
G1 X13.115 Y63.135 E38.64451
G1 X13.604 Y62.42 E38.67332
G1 X14.157 Y61.752 E38.70216
G1 X14.77 Y61.138 E38.73102
G1 X15.436 Y60.583 E38.75985
G1 X16.15 Y60.093 E38.78866
G1 X16.907 Y59.669 E38.81751
G1 X17.7 Y59.318 E38.84636
G1 X18.521 Y59.041 E38.87518
G0 F6000 X18.067 Y59.607
G1 F1200 X18.878 Y59.358 E38.90339
G1 X19.709 Y59.187 E38.93161
G1 X20.552 Y59.094 E38.95982
G1 X21.111 Y59.077 E38.97842
G1 X198.911 Y59.077 E44.89207
G1 X199.758 Y59.117 E44.92028
G1 X200.598 Y59.237 E44.9485
G1 X201.423 Y59.435 E44.97672
G1 X202.226 Y59.71 E45.00495
G1 X202.999 Y60.059 E45.03316
G1 X203.735 Y60.479 E45.06134
G1 X204.429 Y60.967 E45.08956
G1 X205.074 Y61.518 E45.11777
G1 X205.664 Y62.128 E45.146
G1 X206.194 Y62.79 E45.17421
G1 X206.66 Y63.499 E45.20242
G1 X207.056 Y64.249 E45.23063
G1 X207.381 Y65.033 E45.25886
G1 X207.63 Y65.844 E45.28708
G1 X207.801 Y66.675 E45.3153
G1 X207.894 Y67.518 E45.3435
G1 X207.911 Y68.077 E45.36211
G1 X207.911 Y98.113 E46.36111
G1 X207.871 Y98.96 E46.38931
G1 X207.751 Y99.8 E46.41753
G1 X207.553 Y100.625 E46.44575
G1 X207.278 Y101.428 E46.47398
G1 X206.929 Y102.201 E46.50219
G1 X206.509 Y102.937 E46.53037
G1 X206.49 Y102.963 E46.53145
G1 X206.668 Y103.238 E46.54234
G1 X207.06 Y103.99 E46.57055
G1 X207.379 Y104.776 E46.59876
G1 X207.622 Y105.589 E46.62698
G1 X207.788 Y106.421 E46.6552
G1 X207.875 Y107.264 E46.68339
G1 X207.889 Y107.764 E46.70002
G1 X207.889 Y151.923 E48.16876
G1 X207.849 Y152.77 E48.19696
G1 X207.729 Y153.61 E48.22518
G1 X207.531 Y154.435 E48.2534
G1 X207.256 Y155.238 E48.28163
G1 X206.907 Y156.011 E48.30984
G1 X206.487 Y156.747 E48.33803
G1 X205.999 Y157.441 E48.36625
G1 X205.448 Y158.086 E48.39446
G1 X204.838 Y158.676 E48.42269
G1 X204.176 Y159.206 E48.45089
G1 X203.467 Y159.672 E48.47911
G1 X202.717 Y160.068 E48.50732
G1 X201.933 Y160.393 E48.53555
G1 X201.122 Y160.642 E48.56376
G1 X200.291 Y160.813 E48.59198
G1 X199.448 Y160.906 E48.62019
G1 X198.889 Y160.923 E48.63879
G1 X21.089 Y160.923 E54.55244
G1 X20.242 Y160.883 E54.58065
G1 X19.402 Y160.763 E54.60887
G1 X18.577 Y160.565 E54.63709
G1 X17.774 Y160.29 E54.66532
G1 X17.001 Y159.941 E54.69353
G1 X16.265 Y159.521 E54.72171
G1 X15.571 Y159.033 E54.74993
G1 X14.926 Y158.482 E54.77814
G1 X14.336 Y157.872 E54.80637
G1 X13.806 Y157.21 E54.83458
G1 X13.34 Y156.501 E54.86279
G1 X12.944 Y155.751 E54.891
G1 X12.619 Y154.967 E54.91923
G1 X12.37 Y154.156 E54.94745
G1 X12.199 Y153.325 E54.97567
G1 X12.106 Y152.482 E55.00387
G1 X12.089 Y151.923 E55.02248
G1 X12.089 Y106.377 E56.53734
G1 X12.129 Y105.53 E56.56554
G1 X12.249 Y104.69 E56.59377
G1 X12.447 Y103.865 E56.62199
G1 X12.722 Y103.062 E56.65022
G1 X13.071 Y102.289 E56.67842
G1 X13.281 Y101.92 E56.69255
G1 X12.966 Y101.323 E56.715
G1 X12.641 Y100.539 E56.74322
G1 X12.392 Y99.728 E56.77144
G1 X12.221 Y98.897 E56.79966
G1 X12.128 Y98.054 E56.82787
G1 X12.111 Y97.495 E56.84647
G1 X12.111 Y68.077 E57.82492
G1 X12.151 Y67.23 E57.85312
G1 X12.271 Y66.39 E57.88134
G1 X12.469 Y65.565 E57.90956
G1 X12.744 Y64.762 E57.93779
G1 X13.093 Y63.989 E57.966
G1 X13.513 Y63.253 E57.99418
G1 X14.001 Y62.559 E58.0224
G1 X14.552 Y61.914 E58.05062
G1 X15.162 Y61.324 E58.07884
G1 X15.824 Y60.794 E58.10705
G1 X16.533 Y60.328 E58.13527
G1 X17.283 Y59.932 E58.16348
G1 X18.067 Y59.607 E58.1917
G0 F6000 X18.432 Y59.905
G1 F1200 X19.231 Y59.685 E58.21927
G1 X20.048 Y59.543 E58.24685
G1 X21.111 Y59.477 E58.28227
G1 X198.911 Y59.477 E64.19592
G1 X199.739 Y59.517 E64.2235
G1 X200.56 Y59.637 E64.25109
G1 X201.365 Y59.835 E64.27866
G1 X202.147 Y60.109 E64.30622
G1 X202.9 Y60.458 E64.33383
G1 X203.615 Y60.878 E64.36141
G1 X204.286 Y61.364 E64.38897
G1 X204.908 Y61.913 E64.41656
G1 X205.474 Y62.519 E64.44414
G1 X205.979 Y63.177 E64.47173
G1 X206.418 Y63.88 E64.49929
G1 X206.787 Y64.623 E64.52688
G1 X207.083 Y65.398 E64.55448
G1 X207.303 Y66.197 E64.58204
G1 X207.445 Y67.014 E64.60962
G1 X207.511 Y68.077 E64.64505
G1 X207.511 Y98.113 E65.64405
G1 X207.471 Y98.941 E65.67162
G1 X207.351 Y99.762 E65.69922
G1 X207.153 Y100.567 E65.72679
G1 X206.879 Y101.349 E65.75435
G1 X206.53 Y102.102 E65.78195
G1 X206.11 Y102.817 E65.80953
G1 X206.02 Y102.957 E65.81507
G1 X206.45 Y103.666 E65.84265
G1 X206.81 Y104.414 E65.87026
G1 X207.095 Y105.192 E65.89781
G1 X207.305 Y105.994 E65.92539
G1 X207.436 Y106.813 E65.95298
G1 X207.489 Y107.764 E65.98465
G1 X207.489 Y151.923 E67.45339
G1 X207.449 Y152.751 E67.48096
G1 X207.329 Y153.572 E67.50856
G1 X207.131 Y154.377 E67.53613
G1 X206.857 Y155.159 E67.56369
G1 X206.508 Y155.912 E67.59129
G1 X206.088 Y156.627 E67.61887
G1 X205.602 Y157.298 E67.64643
G1 X205.053 Y157.92 E67.67402
G1 X204.447 Y158.486 E67.7016
G1 X203.789 Y158.991 E67.72919
G1 X203.086 Y159.43 E67.75676
G1 X202.343 Y159.799 E67.78435
G1 X201.568 Y160.095 E67.81194
G1 X200.769 Y160.315 E67.83951
G1 X199.952 Y160.457 E67.86709
G1 X198.889 Y160.523 E67.90251
G1 X21.089 Y160.523 E73.81616
G1 X20.261 Y160.483 E73.84373
G1 X19.44 Y160.363 E73.87133
G1 X18.635 Y160.165 E73.8989
G1 X17.853 Y159.891 E73.92646
G1 X17.1 Y159.542 E73.95407
G1 X16.385 Y159.122 E73.98165
G1 X15.714 Y158.636 E74.0092
G1 X15.092 Y158.087 E74.0368
G1 X14.526 Y157.481 E74.06438
G1 X14.021 Y156.823 E74.09197
G1 X13.582 Y156.12 E74.11953
G1 X13.213 Y155.377 E74.14712
G1 X12.917 Y154.602 E74.17472
G1 X12.697 Y153.803 E74.20228
G1 X12.555 Y152.986 E74.22986
G1 X12.489 Y151.923 E74.26528
G1 X12.489 Y106.377 E75.78015
G1 X12.529 Y105.549 E75.80772
G1 X12.649 Y104.728 E75.83532
G1 X12.847 Y103.923 E75.86289
G1 X13.121 Y103.141 E75.89045
G1 X13.47 Y102.388 E75.91806
G1 X13.746 Y101.919 E75.93616
G1 X13.604 Y101.692 E75.94506
G1 X13.235 Y100.949 E75.97265
G1 X12.939 Y100.174 E76.00025
G1 X12.719 Y99.375 E76.02781
G1 X12.577 Y98.558 E76.05539
G1 X12.511 Y97.495 E76.09081
G1 X12.511 Y68.077 E77.06926
G1 X12.551 Y67.249 E77.09683
G1 X12.671 Y66.428 E77.12443
G1 X12.869 Y65.623 E77.152
G1 X13.143 Y64.841 E77.17956
G1 X13.492 Y64.088 E77.20716
G1 X13.912 Y63.373 E77.23475
G1 X14.398 Y62.702 E77.2623
G1 X14.947 Y62.08 E77.2899
G1 X15.553 Y61.514 E77.31748
G1 X16.211 Y61.009 E77.34506
G1 X16.914 Y60.57 E77.37263
G1 X17.657 Y60.201 E77.40022
G1 X18.432 Y59.905 E77.42781
G0 F6000 X18.793 Y60.212
G1 F1200 X19.58 Y60.021 E77.45475
G1 X20.382 Y59.909 E77.48168
G1 X21.111 Y59.877 E77.50595
G1 X198.911 Y59.877 E83.4196
G1 X199.72 Y59.917 E83.44655
G1 X200.521 Y60.037 E83.47348
G1 X201.306 Y60.234 E83.5004
G1 X202.067 Y60.509 E83.52732
G1 X202.798 Y60.857 E83.55424
G1 X203.492 Y61.276 E83.58121
G1 X204.14 Y61.761 E83.60813
G1 X204.737 Y62.307 E83.63504
G1 X205.278 Y62.91 E83.66198
G1 X205.757 Y63.563 E83.68892
G1 X206.168 Y64.26 E83.71583
G1 X206.51 Y64.994 E83.74276
G1 X206.776 Y65.759 E83.7697
G1 X206.967 Y66.546 E83.79664
G1 X207.079 Y67.348 E83.82357
G1 X207.111 Y68.077 E83.84784
G1 X207.111 Y98.113 E84.84684
G1 X207.071 Y98.922 E84.87378
G1 X206.951 Y99.723 E84.90072
G1 X206.754 Y100.508 E84.92764
G1 X206.479 Y101.269 E84.95455
G1 X206.131 Y102 E84.98148
G1 X205.712 Y102.694 E85.00844
G1 X205.518 Y102.953 E85.0192
G1 X205.824 Y103.388 E85.03689
G1 X206.222 Y104.094 E85.06385
G1 X206.548 Y104.835 E85.09078
G1 X206.799 Y105.604 E85.11768
G1 X206.974 Y106.395 E85.14463
G1 X207.07 Y107.199 E85.17156
G1 X207.089 Y107.764 E85.19036
G1 X207.089 Y151.923 E86.65909
G1 X207.049 Y152.732 E86.68603
G1 X206.929 Y153.533 E86.71297
G1 X206.732 Y154.318 E86.73989
G1 X206.457 Y155.079 E86.7668
G1 X206.109 Y155.81 E86.79373
G1 X205.69 Y156.504 E86.82069
G1 X205.205 Y157.152 E86.84762
G1 X204.659 Y157.749 E86.87452
G1 X204.056 Y158.29 E86.90147
G1 X203.403 Y158.769 E86.9284
G1 X202.706 Y159.18 E86.95532
G1 X201.972 Y159.522 E86.98225
G1 X201.207 Y159.788 E87.00919
G1 X200.42 Y159.979 E87.03612
G1 X199.618 Y160.091 E87.06306
G1 X198.889 Y160.123 E87.08733
G1 X21.089 Y160.123 E93.00098
G1 X20.28 Y160.083 E93.02792
G1 X19.479 Y159.963 E93.05486
G1 X18.694 Y159.766 E93.08178
G1 X17.933 Y159.491 E93.10869
G1 X17.202 Y159.143 E93.13562
G1 X16.508 Y158.724 E93.16258
G1 X15.86 Y158.239 E93.1895
G1 X15.263 Y157.693 E93.21641
G1 X14.722 Y157.09 E93.24335
G1 X14.243 Y156.437 E93.27029
G1 X13.832 Y155.74 E93.2972
G1 X13.49 Y155.006 E93.32414
G1 X13.224 Y154.241 E93.35107
G1 X13.033 Y153.454 E93.37801
G1 X12.921 Y152.652 E93.40494
G1 X12.889 Y151.923 E93.42921
G1 X12.889 Y106.377 E94.94408
G1 X12.929 Y105.568 E94.97102
G1 X13.049 Y104.767 E94.99796
G1 X13.246 Y103.982 E95.02488
G1 X13.521 Y103.221 E95.05179
G1 X13.869 Y102.49 E95.07872
G1 X14.213 Y101.921 E95.10083
G1 X13.854 Y101.312 E95.12434
G1 X13.512 Y100.578 E95.15128
G1 X13.246 Y99.813 E95.17822
G1 X13.055 Y99.026 E95.20515
G1 X12.943 Y98.224 E95.23209
G1 X12.911 Y97.495 E95.25635
G1 X12.911 Y68.077 E96.2348
G1 X12.951 Y67.268 E96.26174
G1 X13.071 Y66.467 E96.28868
G1 X13.268 Y65.682 E96.3156
G1 X13.543 Y64.921 E96.34251
G1 X13.891 Y64.19 E96.36944
G1 X14.31 Y63.496 E96.3964
G1 X14.795 Y62.848 E96.42332
G1 X15.341 Y62.251 E96.45023
G1 X15.944 Y61.71 E96.47718
G1 X16.597 Y61.231 E96.50411
G1 X17.294 Y60.82 E96.53103
G1 X18.028 Y60.478 E96.55796
G1 X18.793 Y60.212 E96.5849
G0 F6000 X18.397 Y60.764
G1 F1200 X19.15 Y60.527 E96.61115
G1 X19.924 Y60.368 E96.63743
G1 X20.709 Y60.287 E96.66368
G1 X21.111 Y60.277 E96.67706
G1 X198.911 Y60.277 E102.59071
G1 X199.7 Y60.317 E102.61698
G1 X200.48 Y60.436 E102.64323
G1 X201.245 Y60.634 E102.66951
G1 X201.985 Y60.908 E102.69575
G1 X202.694 Y61.256 E102.72202
G1 X203.365 Y61.674 E102.74832
G1 X203.989 Y62.157 E102.77456
G1 X204.562 Y62.7 E102.80082
G1 X205.077 Y63.299 E102.82709
G1 X205.528 Y63.947 E102.85335
G1 X205.912 Y64.638 E102.87964
G1 X206.224 Y65.363 E102.9059
