;FLAVOR:Marlin
;TIME:15678
;Filament used: 11.0299m
;Layer height: 0.2
;MINX:67.815
;MINY:85.976
;MINZ:0.2
;MAXX:152.185
;MAXY:134.024
;MAXZ:25.4
;Generated with Cura_SteamEngine 4.11.0
M140 S50
M105
M190 S50
M104 S200
M105
M109 S200
M82 ;absolute extrusion mode
; Ender 3 Custom Start G-code
G92 E0 ; Reset Extruder
G28 ; Home all axes
G29 ; Auto bed-level (BL-Touch)
G1 Z2.0 F3000 ; Move Z Axis up little to prevent scratching of Heat Bed
G1 X0.1 Y20 Z0.3 F5000.0 ; Move to start position
G1 X0.1 Y200.0 Z0.3 F1500.0 E15 ; Draw the first line
G1 X0.4 Y200.0 Z0.3 F5000.0 ; Move to side a little
G1 X0.4 Y20 Z0.3 F1500.0 E30 ; Draw the second line
G92 E0 ; Reset Extruder
G1 Z2.0 F3000 ; Move Z Axis up little to prevent scratching of Heat Bed
G1 X5 Y20 Z0.3 F5000.0 ; Move over to prevent blob squish
G92 E0
G92 E0
G1 F2700 E-5
;LAYER_COUNT:127
;LAYER:0
M107
G0 F6000 X72.27 Y100.865 Z0.2
;TYPE:SKIRT
G1 F2700 E0
G1 F1200 X73.033 Y100.416 E0.02945
G1 X73.834 Y100.038 E0.0589
G1 X74.665 Y99.734 E0.08833
G1 X75.52 Y99.506 E0.11777
G1 X76.393 Y99.356 E0.14723
G1 X77.615 Y99.279 E0.18795
G1 X115.805 Y99.279 E1.45816
G1 X116.689 Y99.319 E1.48759
G1 X117.566 Y99.439 E1.51703
G1 X118.429 Y99.637 E1.54648
G1 X119.27 Y99.912 E1.57591
G1 X120.083 Y100.262 E1.60535
G1 X120.862 Y100.684 E1.63482
G1 X121.598 Y101.175 E1.66424
G1 X122.288 Y101.73 E1.69369
G1 X122.425 Y101.862 E1.70002
G1 X122.425 Y95.776 E1.90244
G1 X122.465 Y94.892 E1.93187
G1 X122.585 Y94.015 E1.96132
G1 X122.783 Y93.152 E1.99077
G1 X123.058 Y92.311 E2.02019
G1 X123.408 Y91.498 E2.04963
G1 X123.83 Y90.719 E2.0791
G1 X124.321 Y89.983 E2.10853
G1 X124.876 Y89.293 E2.13798
G1 X125.491 Y88.656 E2.16743
G1 X126.161 Y88.078 E2.19686
G1 X126.88 Y87.562 E2.2263
G1 X127.643 Y87.113 E2.25574
G1 X128.444 Y86.735 E2.2852
G1 X129.275 Y86.431 E2.31463
G1 X130.13 Y86.203 E2.34406
G1 X131.003 Y86.053 E2.37352
G1 X132.225 Y85.976 E2.41425
G1 X142.385 Y85.976 E2.75217
G1 X143.269 Y86.016 E2.7816
G1 X144.146 Y86.136 E2.81104
G1 X145.009 Y86.334 E2.84049
G1 X145.85 Y86.609 E2.86992
G1 X146.663 Y86.959 E2.89936
G1 X147.442 Y87.381 E2.92883
G1 X148.178 Y87.872 E2.95826
G1 X148.868 Y88.427 E2.98771
G1 X149.505 Y89.042 E3.01716
G1 X150.083 Y89.712 E3.04659
G1 X150.599 Y90.431 E3.07602
G1 X151.048 Y91.194 E3.10547
G1 X151.426 Y91.995 E3.13493
G1 X151.73 Y92.826 E3.16436
G1 X151.958 Y93.681 E3.19379
G1 X152.108 Y94.554 E3.22325
G1 X152.185 Y95.776 E3.26398
G1 X152.185 Y124.224 E4.21016
G1 X152.145 Y125.108 E4.23959
G1 X152.025 Y125.985 E4.26903
G1 X151.827 Y126.848 E4.29848
G1 X151.552 Y127.689 E4.32791
G1 X151.202 Y128.502 E4.35735
G1 X150.78 Y129.281 E4.38682
G1 X150.289 Y130.017 E4.41625
G1 X149.734 Y130.707 E4.4457
G1 X149.119 Y131.344 E4.47515
G1 X148.449 Y131.922 E4.50458
G1 X147.73 Y132.438 E4.53401
G1 X146.967 Y132.887 E4.56346
G1 X146.166 Y133.265 E4.59292
G1 X145.335 Y133.569 E4.62235
G1 X144.48 Y133.797 E4.65178
G1 X143.607 Y133.947 E4.68124
G1 X142.385 Y134.024 E4.72196
G1 X77.615 Y134.024 E6.87622
G1 X76.731 Y133.984 E6.90566
G1 X75.854 Y133.864 E6.9351
G1 X74.991 Y133.666 E6.96455
G1 X74.15 Y133.391 E6.99398
G1 X73.337 Y133.041 E7.02342
G1 X72.558 Y132.619 E7.05288
G1 X71.822 Y132.128 E7.08231
G1 X71.132 Y131.573 E7.11176
G1 X70.495 Y130.958 E7.14121
G1 X69.917 Y130.288 E7.17064
G1 X69.401 Y129.569 E7.20008
G1 X68.952 Y128.806 E7.22952
G1 X68.574 Y128.005 E7.25898
G1 X68.27 Y127.174 E7.28841
G1 X68.042 Y126.319 E7.31784
G1 X67.892 Y125.446 E7.3473
G1 X67.815 Y124.224 E7.38803
G1 X67.815 Y109.079 E7.89175
G1 X67.855 Y108.195 E7.92119
G1 X67.975 Y107.318 E7.95063
G1 X68.173 Y106.455 E7.98008
G1 X68.448 Y105.614 E8.0095
G1 X68.798 Y104.801 E8.03894
G1 X69.22 Y104.022 E8.06841
G1 X69.711 Y103.286 E8.09784
G1 X70.266 Y102.596 E8.12729
G1 X70.881 Y101.959 E8.15674
G1 X71.551 Y101.381 E8.18617
G1 X72.27 Y100.865 E8.21561
G0 F6000 X72.654 Y101.095
G1 F1200 X73.411 Y100.671 E8.24446
G1 X74.204 Y100.32 E8.27331
G1 X75.025 Y100.043 E8.30213
G1 X75.869 Y99.843 E8.33098
G1 X76.727 Y99.721 E8.3598
G1 X77.615 Y99.679 E8.38937
G1 X115.805 Y99.679 E9.65957
G1 X116.671 Y99.719 E9.68841
G1 X117.53 Y99.839 E9.71725
G1 X118.374 Y100.037 E9.74609
G1 X119.196 Y100.312 E9.77492
G1 X119.989 Y100.662 E9.80375
G1 X120.747 Y101.083 E9.83259
G1 X121.462 Y101.572 E9.8614
G1 X122.13 Y102.125 E9.89024
G1 X122.744 Y102.738 E9.9191
G1 X122.825 Y102.835 E9.9233
G1 X122.825 Y95.776 E10.15808
G1 X122.865 Y94.91 E10.18692
G1 X122.985 Y94.051 E10.21577
G1 X123.183 Y93.207 E10.2446
G1 X123.458 Y92.385 E10.27343
G1 X123.808 Y91.592 E10.30226
G1 X124.229 Y90.834 E10.3311
G1 X124.718 Y90.119 E10.35991
G1 X125.271 Y89.451 E10.38875
G1 X125.884 Y88.837 E10.41761
G1 X126.55 Y88.282 E10.44644
G1 X127.264 Y87.792 E10.47525
G1 X128.021 Y87.368 E10.5041
G1 X128.814 Y87.017 E10.53295
G1 X129.635 Y86.74 E10.56177
G1 X130.479 Y86.54 E10.59061
G1 X131.337 Y86.418 E10.61944
G1 X132.225 Y86.376 E10.64901
G1 X142.385 Y86.376 E10.98693
G1 X143.251 Y86.416 E11.01576
G1 X144.11 Y86.536 E11.04461
G1 X144.954 Y86.734 E11.07345
G1 X145.776 Y87.009 E11.10227
G1 X146.569 Y87.359 E11.1311
G1 X147.327 Y87.78 E11.15994
G1 X148.042 Y88.269 E11.18875
G1 X148.71 Y88.822 E11.2176
G1 X149.324 Y89.435 E11.24645
G1 X149.879 Y90.101 E11.27529
G1 X150.369 Y90.815 E11.30409
G1 X150.793 Y91.572 E11.33295
G1 X151.144 Y92.365 E11.36179
G1 X151.421 Y93.186 E11.39061
G1 X151.621 Y94.03 E11.41946
G1 X151.743 Y94.888 E11.44828
G1 X151.785 Y95.776 E11.47785
G1 X151.785 Y124.224 E12.42404
G1 X151.745 Y125.09 E12.45287
G1 X151.625 Y125.949 E12.48172
G1 X151.427 Y126.793 E12.51055
G1 X151.152 Y127.615 E12.53938
G1 X150.802 Y128.408 E12.56821
G1 X150.381 Y129.166 E12.59705
G1 X149.892 Y129.881 E12.62586
G1 X149.339 Y130.549 E12.6547
G1 X148.726 Y131.163 E12.68356
G1 X148.06 Y131.718 E12.7124
G1 X147.346 Y132.208 E12.7412
G1 X146.589 Y132.632 E12.77006
G1 X145.796 Y132.983 E12.7989
G1 X144.975 Y133.26 E12.82772
G1 X144.131 Y133.46 E12.85657
G1 X143.273 Y133.582 E12.88539
G1 X142.385 Y133.624 E12.91496
G1 X77.615 Y133.624 E15.06922
G1 X76.749 Y133.584 E15.09805
G1 X75.89 Y133.464 E15.1269
G1 X75.046 Y133.266 E15.15573
G1 X74.224 Y132.991 E15.18456
G1 X73.431 Y132.641 E15.21339
G1 X72.673 Y132.22 E15.24223
G1 X71.958 Y131.731 E15.27104
G1 X71.29 Y131.178 E15.29989
G1 X70.676 Y130.565 E15.32874
G1 X70.121 Y129.899 E15.35758
G1 X69.631 Y129.185 E15.38638
G1 X69.207 Y128.428 E15.41524
G1 X68.856 Y127.635 E15.44408
G1 X68.579 Y126.814 E15.4729
G1 X68.379 Y125.97 E15.50175
G1 X68.257 Y125.112 E15.53057
G1 X68.215 Y124.224 E15.56014
G1 X68.215 Y109.079 E16.06387
G1 X68.255 Y108.213 E16.0927
G1 X68.375 Y107.354 E16.12155
G1 X68.573 Y106.51 E16.15038
G1 X68.848 Y105.688 E16.17921
G1 X69.198 Y104.895 E16.20804
G1 X69.619 Y104.137 E16.23688
G1 X70.108 Y103.422 E16.26569
G1 X70.661 Y102.754 E16.29453
G1 X71.274 Y102.14 E16.32339
G1 X71.94 Y101.585 E16.35223
G1 X72.654 Y101.095 E16.38103
G0 F6000 X73.037 Y101.33
G1 F1200 X73.787 Y100.934 E16.40924
G1 X74.571 Y100.609 E16.43746
G1 X75.382 Y100.36 E16.46568
G1 X76.213 Y100.189 E16.4939
G1 X77.056 Y100.096 E16.52211
G1 X77.615 Y100.079 E16.54071
G1 X115.805 Y100.079 E17.81091
G1 X116.652 Y100.119 E17.83912
G1 X117.492 Y100.239 E17.86734
G1 X118.317 Y100.437 E17.89556
G1 X119.12 Y100.712 E17.92379
G1 X119.893 Y101.061 E17.952
G1 X120.629 Y101.481 E17.98018
G1 X121.323 Y101.969 E18.0084
G1 X121.968 Y102.52 E18.03661
G1 X122.558 Y103.13 E18.06484
G1 X123.088 Y103.792 E18.09305
G1 X123.225 Y104 E18.10133
G1 X123.225 Y95.776 E18.37486
G1 X123.265 Y94.929 E18.40306
G1 X123.385 Y94.089 E18.43129
G1 X123.583 Y93.264 E18.45951
G1 X123.858 Y92.461 E18.48774
G1 X124.207 Y91.688 E18.51594
G1 X124.627 Y90.952 E18.54413
G1 X125.115 Y90.258 E18.57235
G1 X125.666 Y89.613 E18.60056
G1 X126.276 Y89.023 E18.62879
G1 X126.938 Y88.493 E18.65699
G1 X127.647 Y88.027 E18.68521
G1 X128.397 Y87.631 E18.71342
G1 X129.181 Y87.306 E18.74165
G1 X129.992 Y87.057 E18.76987
G1 X130.823 Y86.886 E18.79808
G1 X131.666 Y86.793 E18.82629
G1 X132.225 Y86.776 E18.84489
G1 X142.385 Y86.776 E19.18282
G1 X143.232 Y86.816 E19.21102
G1 X144.072 Y86.936 E19.23924
G1 X144.897 Y87.134 E19.26746
G1 X145.7 Y87.409 E19.29569
G1 X146.473 Y87.758 E19.3239
G1 X147.209 Y88.178 E19.35208
G1 X147.903 Y88.666 E19.3803
G1 X148.548 Y89.217 E19.40852
G1 X149.138 Y89.827 E19.43674
G1 X149.668 Y90.489 E19.46495
G1 X150.134 Y91.198 E19.49317
G1 X150.53 Y91.948 E19.52138
G1 X150.855 Y92.732 E19.5496
G1 X151.104 Y93.543 E19.57782
G1 X151.275 Y94.374 E19.60604
G1 X151.368 Y95.217 E19.63425
G1 X151.385 Y95.776 E19.65285
G1 X151.385 Y124.224 E20.59903
G1 X151.345 Y125.071 E20.62724
G1 X151.225 Y125.911 E20.65546
G1 X151.027 Y126.736 E20.68368
G1 X150.752 Y127.539 E20.71191
G1 X150.403 Y128.312 E20.74012
G1 X149.983 Y129.048 E20.7683
G1 X149.495 Y129.742 E20.79652
G1 X148.944 Y130.387 E20.82473
G1 X148.334 Y130.977 E20.85296
G1 X147.672 Y131.507 E20.88117
G1 X146.963 Y131.973 E20.90938
G1 X146.213 Y132.369 E20.93759
G1 X145.429 Y132.694 E20.96582
G1 X144.618 Y132.943 E20.99404
G1 X143.787 Y133.114 E21.02226
G1 X142.944 Y133.207 E21.05046
G1 X142.385 Y133.224 E21.06907
G1 X77.615 Y133.224 E23.22332
G1 X76.768 Y133.184 E23.25153
G1 X75.928 Y133.064 E23.27975
G1 X75.103 Y132.866 E23.30797
G1 X74.3 Y132.591 E23.3362
G1 X73.527 Y132.242 E23.36441
G1 X72.791 Y131.822 E23.39259
G1 X72.097 Y131.334 E23.42081
G1 X71.452 Y130.783 E23.44903
G1 X70.862 Y130.173 E23.47725
G1 X70.332 Y129.511 E23.50546
G1 X69.866 Y128.802 E23.53368
G1 X69.47 Y128.052 E23.56188
G1 X69.145 Y127.268 E23.59011
G1 X68.896 Y126.457 E23.61833
G1 X68.725 Y125.626 E23.64655
G1 X68.632 Y124.783 E23.67476
G1 X68.615 Y124.224 E23.69336
G1 X68.615 Y109.079 E24.19708
G1 X68.655 Y108.232 E24.22528
G1 X68.775 Y107.392 E24.25351
G1 X68.973 Y106.567 E24.28172
G1 X69.248 Y105.764 E24.30996
G1 X69.597 Y104.991 E24.33816
G1 X70.017 Y104.255 E24.36635
G1 X70.505 Y103.561 E24.39457
G1 X71.056 Y102.916 E24.42278
G1 X71.666 Y102.326 E24.45101
G1 X72.328 Y101.796 E24.47921
G1 X73.037 Y101.33 E24.50743
G0 F6000 X72.715 Y102.011
G1 F1200 X73.418 Y101.572 E24.535
G1 X74.161 Y101.203 E24.56259
G1 X74.936 Y100.907 E24.59018
G1 X75.735 Y100.687 E24.61775
G1 X76.552 Y100.545 E24.64533
G1 X77.615 Y100.479 E24.68075
G1 X115.805 Y100.479 E25.95096
G1 X116.633 Y100.519 E25.97853
G1 X117.454 Y100.639 E26.00612
G1 X118.259 Y100.837 E26.0337
G1 X119.041 Y101.111 E26.06126
G1 X119.794 Y101.46 E26.08886
G1 X120.509 Y101.88 E26.11644
G1 X121.18 Y102.366 E26.144
G1 X121.802 Y102.915 E26.17159
G1 X122.368 Y103.521 E26.19917
G1 X122.873 Y104.179 E26.22676
G1 X123.312 Y104.882 E26.25433
G1 X123.625 Y105.512 E26.27772
G1 X123.625 Y95.776 E26.60154
G1 X123.665 Y94.948 E26.62911
G1 X123.785 Y94.127 E26.65671
G1 X123.983 Y93.322 E26.68428
G1 X124.257 Y92.54 E26.71184
G1 X124.606 Y91.787 E26.73945
G1 X125.026 Y91.072 E26.76703
G1 X125.512 Y90.401 E26.79458
G1 X126.061 Y89.779 E26.82218
G1 X126.667 Y89.213 E26.84976
G1 X127.325 Y88.708 E26.87735
G1 X128.028 Y88.269 E26.90491
G1 X128.771 Y87.9 E26.9325
G1 X129.546 Y87.604 E26.9601
G1 X130.345 Y87.384 E26.98766
G1 X131.162 Y87.242 E27.01524
G1 X132.225 Y87.176 E27.05067
G1 X142.385 Y87.176 E27.38859
G1 X143.213 Y87.216 E27.41616
G1 X144.034 Y87.336 E27.44376
G1 X144.839 Y87.534 E27.47133
G1 X145.621 Y87.808 E27.49889
G1 X146.374 Y88.157 E27.52649
G1 X147.089 Y88.577 E27.55407
G1 X147.76 Y89.063 E27.58163
G1 X148.382 Y89.612 E27.60922
G1 X148.948 Y90.218 E27.6368
G1 X149.453 Y90.876 E27.66439
G1 X149.892 Y91.579 E27.69196
G1 X150.261 Y92.322 E27.71955
G1 X150.557 Y93.097 E27.74714
G1 X150.777 Y93.896 E27.77471
G1 X150.919 Y94.713 E27.80229
G1 X150.985 Y95.776 E27.83771
G1 X150.985 Y124.224 E28.78389
G1 X150.945 Y125.052 E28.81147
G1 X150.825 Y125.873 E28.83906
G1 X150.627 Y126.678 E28.86664
G1 X150.353 Y127.46 E28.89419
G1 X150.004 Y128.213 E28.9218
G1 X149.584 Y128.928 E28.94938
G1 X149.098 Y129.599 E28.97694
G1 X148.549 Y130.221 E29.00453
G1 X147.943 Y130.787 E29.03211
G1 X147.285 Y131.292 E29.0597
G1 X146.582 Y131.731 E29.08726
G1 X145.839 Y132.1 E29.11486
G1 X145.064 Y132.396 E29.14245
G1 X144.265 Y132.616 E29.17001
G1 X143.448 Y132.758 E29.19759
G1 X142.385 Y132.824 E29.23302
G1 X77.615 Y132.824 E31.38728
G1 X76.787 Y132.784 E31.41485
G1 X75.966 Y132.664 E31.44244
G1 X75.161 Y132.466 E31.47002
G1 X74.379 Y132.192 E31.49758
G1 X73.626 Y131.843 E31.52518
G1 X72.911 Y131.423 E31.55276
G1 X72.24 Y130.937 E31.58032
G1 X71.618 Y130.388 E31.60791
G1 X71.052 Y129.782 E31.63549
G1 X70.547 Y129.124 E31.66308
G1 X70.108 Y128.421 E31.69064
G1 X69.739 Y127.678 E31.71824
G1 X69.443 Y126.903 E31.74583
G1 X69.223 Y126.104 E31.77339
G1 X69.081 Y125.287 E31.80097
G1 X69.015 Y124.224 E31.8364
G1 X69.015 Y109.079 E32.34012
G1 X69.055 Y108.251 E32.36769
G1 X69.175 Y107.43 E32.39529
G1 X69.373 Y106.625 E32.42286
G1 X69.647 Y105.843 E32.45042
G1 X69.996 Y105.09 E32.47803
G1 X70.416 Y104.375 E32.50561
G1 X70.902 Y103.704 E32.53316
G1 X71.451 Y103.082 E32.56076
G1 X72.057 Y102.516 E32.58834
G1 X72.715 Y102.011 E32.61592
G0 F6000 X73.101 Y102.233
G1 F1200 X73.798 Y101.822 E32.64284
G1 X74.532 Y101.48 E32.66977
G1 X75.297 Y101.214 E32.69671
G1 X76.084 Y101.023 E32.72364
G1 X76.886 Y100.911 E32.75058
G1 X77.615 Y100.879 E32.77485
G1 X115.805 Y100.879 E34.04505
G1 X116.614 Y100.919 E34.07199
G1 X117.415 Y101.039 E34.09893
G1 X118.2 Y101.236 E34.12585
G1 X118.961 Y101.511 E34.15276
G1 X119.692 Y101.859 E34.17969
G1 X120.386 Y102.278 E34.20665
G1 X121.034 Y102.763 E34.23357
G1 X121.631 Y103.309 E34.26048
G1 X122.172 Y103.912 E34.28743
G1 X122.651 Y104.565 E34.31436
G1 X123.062 Y105.262 E34.34128
G1 X123.387 Y105.959 E34.36685
G1 X124.025 Y105.959 E34.38807
G1 X124.025 Y95.776 E34.72676
G1 X124.065 Y94.967 E34.7537
G1 X124.185 Y94.166 E34.78064
G1 X124.382 Y93.381 E34.80756
G1 X124.657 Y92.62 E34.83447
G1 X125.005 Y91.889 E34.8614
G1 X125.424 Y91.195 E34.88836
G1 X125.909 Y90.547 E34.91528
G1 X126.455 Y89.95 E34.94219
G1 X127.058 Y89.409 E34.96914
G1 X127.711 Y88.93 E34.99607
G1 X128.408 Y88.519 E35.02299
G1 X129.142 Y88.177 E35.04992
G1 X129.907 Y87.911 E35.07686
G1 X130.694 Y87.72 E35.10379
G1 X131.496 Y87.608 E35.13073
G1 X132.225 Y87.576 E35.155
G1 X142.385 Y87.576 E35.49292
G1 X143.194 Y87.616 E35.51986
G1 X143.995 Y87.736 E35.5468
G1 X144.78 Y87.933 E35.57372
G1 X145.541 Y88.208 E35.60063
G1 X146.272 Y88.556 E35.62756
G1 X146.966 Y88.975 E35.65452
G1 X147.614 Y89.46 E35.68144
G1 X148.211 Y90.006 E35.70835
G1 X148.752 Y90.609 E35.73529
G1 X149.231 Y91.262 E35.76223
G1 X149.642 Y91.959 E35.78914
G1 X149.984 Y92.693 E35.81607
G1 X150.25 Y93.458 E35.84301
G1 X150.441 Y94.245 E35.86995
G1 X150.553 Y95.047 E35.89688
G1 X150.585 Y95.776 E35.92115
G1 X150.585 Y124.224 E36.86734
G1 X150.545 Y125.033 E36.89428
G1 X150.425 Y125.834 E36.92122
G1 X150.228 Y126.619 E36.94813
G1 X149.953 Y127.38 E36.97505
G1 X149.605 Y128.111 E37.00197
G1 X149.186 Y128.805 E37.02894
G1 X148.701 Y129.453 E37.05586
G1 X148.155 Y130.05 E37.08277
G1 X147.552 Y130.591 E37.10971
G1 X146.899 Y131.07 E37.13665
G1 X146.202 Y131.481 E37.16356
G1 X145.468 Y131.823 E37.19049
G1 X144.703 Y132.089 E37.21743
G1 X143.916 Y132.28 E37.24437
G1 X143.114 Y132.392 E37.2713
G1 X142.385 Y132.424 E37.29557
G1 X77.615 Y132.424 E39.44983
G1 X76.806 Y132.384 E39.47677
G1 X76.005 Y132.264 E39.50371
G1 X75.22 Y132.067 E39.53063
G1 X74.459 Y131.792 E39.55754
G1 X73.728 Y131.444 E39.58447
G1 X73.034 Y131.025 E39.61143
G1 X72.386 Y130.54 E39.63835
G1 X71.789 Y129.994 E39.66526
G1 X71.248 Y129.391 E39.6922
G1 X70.769 Y128.738 E39.71914
G1 X70.358 Y128.041 E39.74605
G1 X70.016 Y127.307 E39.77299
G1 X69.75 Y126.542 E39.79992
G1 X69.559 Y125.755 E39.82686
G1 X69.447 Y124.953 E39.85379
G1 X69.415 Y124.224 E39.87806
G1 X69.415 Y109.079 E40.38179
G1 X69.455 Y108.27 E40.40873
G1 X69.575 Y107.469 E40.43567
G1 X69.772 Y106.684 E40.46259
G1 X70.047 Y105.923 E40.4895
G1 X70.395 Y105.192 E40.51643
G1 X70.814 Y104.498 E40.54339
G1 X71.299 Y103.85 E40.57031
G1 X71.845 Y103.253 E40.59722
G1 X72.448 Y102.712 E40.62416
G1 X73.101 Y102.233 E40.6511
G0 F6000 X73.485 Y102.462
G1 F1200 X74.176 Y102.078 E40.67739
