;FLAVOR:Marlin
;TIME:17570
;Filament used: 11.9124m
;Layer height: 0.2
;MINX:75.435
;MINY:72.752
;MINZ:0.2
;MAXX:144.565
;MAXY:147.248
;MAXZ:32.4
;Generated with Cura_SteamEngine 4.11.0
M140 S50
M105
M190 S50
M104 S200
M105
M109 S200
M82 ;absolute extrusion mode
; Ender 3 Custom Start G-code
G92 E0 ; Reset Extruder
G28 ; Home all axes
G29 ; Auto bed-level (BL-Touch)
G1 Z2.0 F3000 ; Move Z Axis up little to prevent scratching of Heat Bed
G1 X0.1 Y20 Z0.3 F5000.0 ; Move to start position
G1 X0.1 Y200.0 Z0.3 F1500.0 E15 ; Draw the first line
G1 X0.4 Y200.0 Z0.3 F5000.0 ; Move to side a little
G1 X0.4 Y20 Z0.3 F1500.0 E30 ; Draw the second line
G92 E0 ; Reset Extruder
G1 Z2.0 F3000 ; Move Z Axis up little to prevent scratching of Heat Bed
G1 X5 Y20 Z0.3 F5000.0 ; Move over to prevent blob squish
G92 E0
G92 E0
G1 F2700 E-5
;LAYER_COUNT:162
;LAYER:0
M107
G0 F6000 X78.501 Y75.432 Z0.2
;TYPE:SKIRT
G1 F2700 E0
G1 F1200 X79.171 Y74.854 E0.02943
G1 X79.89 Y74.338 E0.05887
G1 X80.653 Y73.889 E0.08831
G1 X81.454 Y73.511 E0.11777
G1 X82.285 Y73.207 E0.1472
G1 X83.14 Y72.979 E0.17663
G1 X84.013 Y72.829 E0.20609
G1 X85.235 Y72.752 E0.24682
G1 X104.285 Y72.752 E0.88042
G1 X105.169 Y72.792 E0.90986
G1 X106.046 Y72.912 E0.9393
G1 X106.909 Y73.11 E0.96875
G1 X107.75 Y73.385 E0.99817
G1 X108.563 Y73.735 E1.02761
G1 X109.342 Y74.157 E1.05708
G1 X110.078 Y74.648 E1.08651
G1 X110.768 Y75.203 E1.11596
G1 X111.405 Y75.818 E1.14541
G1 X111.983 Y76.488 E1.17484
G1 X112.499 Y77.207 E1.20428
G1 X112.948 Y77.97 E1.23372
G1 X113.326 Y78.771 E1.26318
G1 X113.63 Y79.602 E1.29261
G1 X113.858 Y80.457 E1.32204
G1 X114.008 Y81.33 E1.3515
G1 X114.085 Y82.552 E1.39223
G1 X114.085 Y109.353 E2.28363
G1 X134.765 Y109.353 E2.97145
G1 X135.649 Y109.393 E3.00088
G1 X136.526 Y109.513 E3.03033
G1 X137.389 Y109.711 E3.05978
G1 X138.23 Y109.986 E3.0892
G1 X139.043 Y110.336 E3.11864
G1 X139.822 Y110.758 E3.14811
G1 X140.558 Y111.249 E3.17754
G1 X141.248 Y111.804 E3.20699
G1 X141.885 Y112.419 E3.23644
G1 X142.463 Y113.089 E3.26587
G1 X142.979 Y113.808 E3.29531
G1 X143.428 Y114.571 E3.32475
G1 X143.806 Y115.372 E3.35421
G1 X144.11 Y116.203 E3.38364
G1 X144.338 Y117.058 E3.41307
G1 X144.488 Y117.931 E3.44253
G1 X144.565 Y119.153 E3.48326
G1 X144.565 Y137.448 E4.09175
G1 X144.525 Y138.332 E4.12118
G1 X144.405 Y139.209 E4.15062
G1 X144.207 Y140.072 E4.18007
G1 X143.932 Y140.913 E4.2095
G1 X143.582 Y141.726 E4.23894
G1 X143.16 Y142.505 E4.26841
G1 X142.669 Y143.241 E4.29784
G1 X142.114 Y143.931 E4.32729
G1 X141.499 Y144.568 E4.35674
G1 X140.829 Y145.146 E4.38617
G1 X140.11 Y145.662 E4.4156
G1 X139.347 Y146.111 E4.44505
G1 X138.546 Y146.489 E4.47451
G1 X137.715 Y146.793 E4.50394
G1 X136.86 Y147.021 E4.53337
G1 X135.987 Y147.171 E4.56283
G1 X134.765 Y147.248 E4.60356
G1 X85.235 Y147.248 E6.25093
G1 X84.351 Y147.208 E6.28036
G1 X83.474 Y147.088 E6.3098
G1 X82.611 Y146.89 E6.33925
G1 X81.77 Y146.615 E6.36868
G1 X80.957 Y146.265 E6.39812
G1 X80.178 Y145.843 E6.42759
G1 X79.442 Y145.352 E6.45702
G1 X78.752 Y144.797 E6.48647
G1 X78.115 Y144.182 E6.51592
G1 X77.537 Y143.512 E6.54535
G1 X77.021 Y142.793 E6.57478
G1 X76.572 Y142.03 E6.60423
G1 X76.194 Y141.229 E6.63369
G1 X75.89 Y140.398 E6.66312
G1 X75.662 Y139.543 E6.69255
G1 X75.512 Y138.67 E6.72201
G1 X75.435 Y137.448 E6.76274
G1 X75.435 Y82.552 E8.58858
G1 X75.475 Y81.668 E8.61802
G1 X75.595 Y80.791 E8.64746
G1 X75.793 Y79.928 E8.67691
G1 X76.068 Y79.087 E8.70634
G1 X76.418 Y78.274 E8.73578
G1 X76.84 Y77.495 E8.76524
G1 X77.331 Y76.759 E8.79467
G1 X77.886 Y76.069 E8.82412
G1 X78.501 Y75.432 E8.85357
G0 F6000 X78.894 Y75.613
G1 F1200 X79.56 Y75.058 E8.88241
G1 X80.274 Y74.568 E8.91121
G1 X81.031 Y74.144 E8.94007
G1 X81.824 Y73.793 E8.96891
G1 X82.645 Y73.516 E8.99773
G1 X83.489 Y73.316 E9.02658
G1 X84.347 Y73.194 E9.0554
G1 X85.235 Y73.152 E9.08497
G1 X104.285 Y73.152 E9.71858
G1 X105.151 Y73.192 E9.74741
G1 X106.01 Y73.312 E9.77626
G1 X106.854 Y73.51 E9.80509
G1 X107.676 Y73.785 E9.83392
G1 X108.469 Y74.135 E9.86275
G1 X109.227 Y74.556 E9.89159
G1 X109.942 Y75.045 E9.9204
G1 X110.61 Y75.598 E9.94924
G1 X111.224 Y76.211 E9.9781
G1 X111.779 Y76.877 E10.00693
G1 X112.269 Y77.591 E10.03574
G1 X112.693 Y78.348 E10.0646
G1 X113.044 Y79.141 E10.09344
G1 X113.321 Y79.962 E10.12226
G1 X113.521 Y80.806 E10.15111
G1 X113.643 Y81.664 E10.17993
G1 X113.685 Y82.552 E10.2095
G1 X113.685 Y109.753 E11.11421
G1 X134.765 Y109.753 E11.81533
G1 X135.631 Y109.793 E11.84417
G1 X136.49 Y109.913 E11.87301
G1 X137.334 Y110.111 E11.90185
G1 X138.156 Y110.386 E11.93068
G1 X138.949 Y110.736 E11.95951
G1 X139.707 Y111.157 E11.98835
G1 X140.422 Y111.646 E12.01716
G1 X141.09 Y112.199 E12.046
G1 X141.704 Y112.812 E12.07486
G1 X142.259 Y113.478 E12.10369
G1 X142.749 Y114.192 E12.13249
G1 X143.173 Y114.949 E12.16135
G1 X143.524 Y115.742 E12.19019
G1 X143.801 Y116.563 E12.21901
G1 X144.001 Y117.407 E12.24786
G1 X144.123 Y118.265 E12.27669
G1 X144.165 Y119.153 E12.30625
G1 X144.165 Y137.448 E12.91475
G1 X144.125 Y138.314 E12.94358
G1 X144.005 Y139.173 E12.97243
G1 X143.807 Y140.017 E13.00126
G1 X143.532 Y140.839 E13.03009
G1 X143.182 Y141.632 E13.05892
G1 X142.761 Y142.39 E13.08776
G1 X142.272 Y143.105 E13.11657
G1 X141.719 Y143.773 E13.14542
G1 X141.106 Y144.387 E13.17427
G1 X140.44 Y144.942 E13.20311
G1 X139.726 Y145.432 E13.23191
G1 X138.969 Y145.856 E13.26077
G1 X138.176 Y146.207 E13.28961
G1 X137.355 Y146.484 E13.31843
G1 X136.511 Y146.684 E13.34728
G1 X135.653 Y146.806 E13.3761
G1 X134.765 Y146.848 E13.40567
G1 X85.235 Y146.848 E15.05305
G1 X84.369 Y146.808 E15.08188
G1 X83.51 Y146.688 E15.11073
G1 X82.666 Y146.49 E15.13956
G1 X81.844 Y146.215 E15.16839
G1 X81.051 Y145.865 E15.19722
G1 X80.293 Y145.444 E15.22606
G1 X79.578 Y144.955 E15.25487
G1 X78.91 Y144.402 E15.28371
G1 X78.296 Y143.789 E15.31257
G1 X77.741 Y143.123 E15.34141
G1 X77.251 Y142.409 E15.37021
G1 X76.827 Y141.652 E15.39907
G1 X76.476 Y140.859 E15.42791
G1 X76.199 Y140.038 E15.45673
G1 X75.999 Y139.194 E15.48558
G1 X75.877 Y138.336 E15.5144
G1 X75.835 Y137.448 E15.54397
G1 X75.835 Y82.552 E17.36982
G1 X75.875 Y81.686 E17.39865
G1 X75.995 Y80.827 E17.4275
G1 X76.193 Y79.983 E17.45633
G1 X76.468 Y79.161 E17.48516
G1 X76.818 Y78.368 E17.51399
G1 X77.239 Y77.61 E17.54283
G1 X77.728 Y76.895 E17.57164
G1 X78.281 Y76.227 E17.60049
G1 X78.894 Y75.613 E17.62934
G0 F6000 X79.286 Y75.799
G1 F1200 X79.948 Y75.269 E17.65755
G1 X80.657 Y74.803 E17.68577
G1 X81.407 Y74.407 E17.71398
G1 X82.191 Y74.082 E17.7422
G1 X83.002 Y73.833 E17.77042
G1 X83.833 Y73.662 E17.79864
G1 X84.676 Y73.569 E17.82685
G1 X85.235 Y73.552 E17.84545
G1 X104.285 Y73.552 E18.47905
G1 X105.132 Y73.592 E18.50726
G1 X105.972 Y73.712 E18.53548
G1 X106.797 Y73.91 E18.5637
G1 X107.6 Y74.185 E18.59193
G1 X108.373 Y74.534 E18.62014
G1 X109.109 Y74.954 E18.64832
G1 X109.803 Y75.442 E18.67654
G1 X110.448 Y75.993 E18.70475
G1 X111.038 Y76.603 E18.73298
G1 X111.568 Y77.265 E18.76119
G1 X112.034 Y77.974 E18.7894
G1 X112.43 Y78.724 E18.81761
G1 X112.755 Y79.508 E18.84584
G1 X113.004 Y80.319 E18.87406
G1 X113.175 Y81.15 E18.90228
G1 X113.268 Y81.993 E18.93048
G1 X113.285 Y82.552 E18.94909
G1 X113.285 Y110.153 E19.8671
G1 X134.765 Y110.153 E20.58153
G1 X135.612 Y110.193 E20.60973
G1 X136.452 Y110.313 E20.63795
G1 X137.277 Y110.511 E20.66617
G1 X138.08 Y110.786 E20.6944
G1 X138.853 Y111.135 E20.72261
G1 X139.589 Y111.555 E20.75079
G1 X140.283 Y112.043 E20.77901
G1 X140.928 Y112.594 E20.80723
G1 X141.518 Y113.204 E20.83545
G1 X142.048 Y113.866 E20.86366
G1 X142.514 Y114.575 E20.89188
G1 X142.91 Y115.325 E20.92009
G1 X143.235 Y116.109 E20.94831
G1 X143.484 Y116.92 E20.97653
G1 X143.655 Y117.751 E21.00475
G1 X143.748 Y118.594 E21.03296
G1 X143.765 Y119.153 E21.05156
G1 X143.765 Y137.448 E21.66005
G1 X143.725 Y138.295 E21.68826
G1 X143.605 Y139.135 E21.71648
G1 X143.407 Y139.96 E21.7447
G1 X143.132 Y140.763 E21.77293
G1 X142.783 Y141.536 E21.80114
G1 X142.363 Y142.272 E21.82932
G1 X141.875 Y142.966 E21.85754
G1 X141.324 Y143.611 E21.88575
G1 X140.714 Y144.201 E21.91398
G1 X140.052 Y144.731 E21.94218
G1 X139.343 Y145.197 E21.9704
G1 X138.593 Y145.593 E21.99861
G1 X137.809 Y145.918 E22.02684
G1 X136.998 Y146.167 E22.05506
G1 X136.167 Y146.338 E22.08328
G1 X135.324 Y146.431 E22.11148
G1 X134.765 Y146.448 E22.13008
G1 X85.235 Y146.448 E23.77746
G1 X84.388 Y146.408 E23.80566
G1 X83.548 Y146.288 E23.83388
G1 X82.723 Y146.09 E23.8621
G1 X81.92 Y145.815 E23.89033
G1 X81.147 Y145.466 E23.91854
G1 X80.411 Y145.046 E23.94673
G1 X79.717 Y144.558 E23.97495
G1 X79.072 Y144.007 E24.00316
G1 X78.482 Y143.397 E24.03139
G1 X77.952 Y142.735 E24.05959
G1 X77.486 Y142.026 E24.08781
G1 X77.09 Y141.276 E24.11602
G1 X76.765 Y140.492 E24.14425
G1 X76.516 Y139.681 E24.17246
G1 X76.345 Y138.85 E24.20068
G1 X76.252 Y138.007 E24.22889
G1 X76.235 Y137.448 E24.24749
G1 X76.235 Y82.552 E26.07334
G1 X76.275 Y81.705 E26.10154
G1 X76.395 Y80.865 E26.12976
G1 X76.593 Y80.04 E26.15798
G1 X76.868 Y79.237 E26.18621
G1 X77.217 Y78.464 E26.21442
G1 X77.637 Y77.728 E26.24261
G1 X78.125 Y77.034 E26.27083
G1 X78.676 Y76.389 E26.29904
G1 X79.286 Y75.799 E26.32727
G0 F6000 X79.071 Y76.555
G1 F1200 X79.677 Y75.989 E26.35485
G1 X80.335 Y75.484 E26.38243
G1 X81.038 Y75.045 E26.41
G1 X81.781 Y74.676 E26.43759
G1 X82.556 Y74.38 E26.46518
G1 X83.355 Y74.16 E26.49275
G1 X84.172 Y74.018 E26.52033
G1 X85.235 Y73.952 E26.55575
G1 X104.285 Y73.952 E27.18936
G1 X105.113 Y73.992 E27.21693
G1 X105.934 Y74.112 E27.24453
G1 X106.739 Y74.31 E27.2721
G1 X107.521 Y74.584 E27.29966
G1 X108.274 Y74.933 E27.32726
G1 X108.989 Y75.353 E27.35484
G1 X109.66 Y75.839 E27.3824
G1 X110.282 Y76.388 E27.40999
G1 X110.848 Y76.994 E27.43757
G1 X111.353 Y77.652 E27.46516
G1 X111.792 Y78.355 E27.49273
G1 X112.161 Y79.098 E27.52032
G1 X112.457 Y79.873 E27.54791
G1 X112.677 Y80.672 E27.57548
G1 X112.819 Y81.489 E27.60306
G1 X112.885 Y82.552 E27.63848
G1 X112.885 Y110.553 E28.5698
G1 X134.765 Y110.553 E29.29753
G1 X135.593 Y110.593 E29.3251
G1 X136.414 Y110.713 E29.3527
G1 X137.219 Y110.911 E29.38027
G1 X138.001 Y111.185 E29.40783
G1 X138.754 Y111.534 E29.43543
G1 X139.469 Y111.954 E29.46301
G1 X140.14 Y112.44 E29.49057
G1 X140.762 Y112.989 E29.51816
G1 X141.328 Y113.595 E29.54574
G1 X141.833 Y114.253 E29.57333
G1 X142.272 Y114.956 E29.6009
G1 X142.641 Y115.699 E29.62849
G1 X142.937 Y116.474 E29.65608
G1 X143.157 Y117.273 E29.68365
G1 X143.299 Y118.09 E29.71123
G1 X143.365 Y119.153 E29.74665
G1 X143.365 Y137.448 E30.35515
G1 X143.325 Y138.276 E30.38272
G1 X143.205 Y139.097 E30.41031
G1 X143.007 Y139.902 E30.43789
G1 X142.733 Y140.684 E30.46545
G1 X142.384 Y141.437 E30.49305
G1 X141.964 Y142.152 E30.52063
G1 X141.478 Y142.823 E30.54819
G1 X140.929 Y143.445 E30.57578
G1 X140.323 Y144.011 E30.60336
G1 X139.665 Y144.516 E30.63095
G1 X138.962 Y144.955 E30.65851
G1 X138.219 Y145.324 E30.68611
G1 X137.444 Y145.62 E30.7137
G1 X136.645 Y145.84 E30.74126
G1 X135.828 Y145.982 E30.76884
G1 X134.765 Y146.048 E30.80427
G1 X85.235 Y146.048 E32.45164
G1 X84.407 Y146.008 E32.47921
G1 X83.586 Y145.888 E32.50681
G1 X82.781 Y145.69 E32.53438
G1 X81.999 Y145.416 E32.56194
G1 X81.246 Y145.067 E32.58955
G1 X80.531 Y144.647 E32.61713
G1 X79.86 Y144.161 E32.64468
G1 X79.238 Y143.612 E32.67228
G1 X78.672 Y143.006 E32.69986
G1 X78.167 Y142.348 E32.72744
G1 X77.728 Y141.645 E32.75501
G1 X77.359 Y140.902 E32.7826
G1 X77.063 Y140.127 E32.8102
G1 X76.843 Y139.328 E32.83776
G1 X76.701 Y138.511 E32.86534
G1 X76.635 Y137.448 E32.90076
G1 X76.635 Y82.552 E34.72661
G1 X76.675 Y81.724 E34.75418
G1 X76.795 Y80.903 E34.78178
G1 X76.993 Y80.098 E34.80935
G1 X77.267 Y79.316 E34.83691
G1 X77.616 Y78.563 E34.86452
G1 X78.036 Y77.848 E34.8921
G1 X78.522 Y77.177 E34.91965
G1 X79.071 Y76.555 E34.94725
G0 F6000 X79.465 Y76.726
G1 F1200 X80.068 Y76.185 E34.97419
G1 X80.721 Y75.706 E35.00113
G1 X81.418 Y75.295 E35.02804
G1 X82.152 Y74.953 E35.05497
G1 X82.917 Y74.687 E35.08191
G1 X83.704 Y74.496 E35.10885
G1 X84.506 Y74.384 E35.13578
G1 X85.235 Y74.352 E35.16005
G1 X104.285 Y74.352 E35.79366
G1 X105.094 Y74.392 E35.8206
G1 X105.895 Y74.512 E35.84753
G1 X106.68 Y74.709 E35.87445
G1 X107.441 Y74.984 E35.90137
G1 X108.172 Y75.332 E35.92829
G1 X108.866 Y75.751 E35.95526
G1 X109.514 Y76.236 E35.98218
G1 X110.111 Y76.782 E36.00909
G1 X110.652 Y77.385 E36.03603
G1 X111.131 Y78.038 E36.06297
G1 X111.542 Y78.735 E36.08988
G1 X111.884 Y79.469 E36.11681
G1 X112.15 Y80.234 E36.14375
G1 X112.341 Y81.021 E36.17069
G1 X112.453 Y81.823 E36.19762
G1 X112.485 Y82.552 E36.22189
G1 X112.485 Y110.953 E37.16651
G1 X134.765 Y110.953 E37.90755
G1 X135.574 Y110.993 E37.93449
G1 X136.375 Y111.113 E37.96143
G1 X137.16 Y111.31 E37.98834
G1 X137.921 Y111.585 E38.01526
G1 X138.652 Y111.933 E38.04218
G1 X139.346 Y112.352 E38.06915
G1 X139.994 Y112.837 E38.09607
G1 X140.591 Y113.383 E38.12298
G1 X141.132 Y113.986 E38.14992
G1 X141.611 Y114.639 E38.17686
G1 X142.022 Y115.336 E38.20377
G1 X142.364 Y116.07 E38.2307
G1 X142.63 Y116.835 E38.25764
G1 X142.821 Y117.622 E38.28458
G1 X142.933 Y118.424 E38.31151
G1 X142.965 Y119.153 E38.33578
G1 X142.965 Y137.448 E38.94427
G1 X142.925 Y138.257 E38.97121
G1 X142.805 Y139.058 E38.99815
G1 X142.608 Y139.843 E39.02507
G1 X142.333 Y140.604 E39.05198
G1 X141.985 Y141.335 E39.07891
G1 X141.566 Y142.029 E39.10588
G1 X141.081 Y142.677 E39.1328
G1 X140.535 Y143.274 E39.1597
G1 X139.932 Y143.815 E39.18665
G1 X139.279 Y144.294 E39.21359
G1 X138.582 Y144.705 E39.2405
G1 X137.848 Y145.047 E39.26743
G1 X137.083 Y145.313 E39.29437
G1 X136.296 Y145.504 E39.3213
G1 X135.494 Y145.616 E39.34824
G1 X134.765 Y145.648 E39.37251
G1 X85.235 Y145.648 E41.01988
G1 X84.426 Y145.608 E41.04682
G1 X83.625 Y145.488 E41.07376
G1 X82.84 Y145.291 E41.10068
G1 X82.079 Y145.016 E41.12759
G1 X81.348 Y144.668 E41.15452
G1 X80.654 Y144.249 E41.18148
G1 X80.006 Y143.764 E41.2084
G1 X79.409 Y143.218 E41.23531
G1 X78.868 Y142.615 E41.26226
G1 X78.389 Y141.962 E41.28919
G1 X77.978 Y141.265 E41.31611
G1 X77.636 Y140.531 E41.34304
G1 X77.37 Y139.766 E41.36998
G1 X77.179 Y138.979 E41.39691
G1 X77.067 Y138.177 E41.42385
G1 X77.035 Y137.448 E41.44812
G1 X77.035 Y82.552 E43.27396
G1 X77.075 Y81.743 E43.3009
G1 X77.195 Y80.942 E43.32784
G1 X77.392 Y80.157 E43.35476
G1 X77.667 Y79.396 E43.38168
G1 X78.015 Y78.665 E43.4086
G1 X78.434 Y77.971 E43.43557
G1 X78.919 Y77.323 E43.46249
G1 X79.465 Y76.726 E43.4894
G0 F6000 X79.858 Y76.901
G1 F1200 X80.457 Y76.386 E43.51567
G1 X81.105 Y75.935 E43.54193
G1 X81.796 Y75.551 E43.56822
G1 X82.521 Y75.239 E43.59447
G1 X83.274 Y75.002 E43.62073
G1 X84.048 Y74.843 E43.64701
G1 X84.833 Y74.762 E43.67326
G1 X85.235 Y74.752 E43.68663
G1 X104.285 Y74.752 E44.32024
G1 X105.074 Y74.792 E44.34651
G1 X105.854 Y74.911 E44.37276
G1 X106.619 Y75.109 E44.39904
G1 X107.359 Y75.383 E44.42528
G1 X108.068 Y75.731 E44.45155
G1 X108.739 Y76.149 E44.47785
G1 X109.363 Y76.632 E44.50409
G1 X109.936 Y77.175 E44.53035
G1 X110.451 Y77.774 E44.55662
G1 X110.902 Y78.422 E44.58288
G1 X111.286 Y79.113 E44.60917
G1 X111.598 Y79.838 E44.63543
G1 X111.835 Y80.591 E44.66168
G1 X111.994 Y81.365 E44.68796
G1 X112.075 Y82.15 E44.71421
G1 X112.085 Y82.552 E44.72759
G1 X112.085 Y111.353 E45.68551
G1 X134.765 Y111.353 E46.43985
G1 X135.554 Y111.393 E46.46613
G1 X136.334 Y111.512 E46.49237
G1 X137.099 Y111.71 E46.51865
G1 X137.839 Y111.984 E46.5449
G1 X138.548 Y112.332 E46.57117
G1 X139.219 Y112.75 E46.59746
G1 X139.843 Y113.233 E46.62371
G1 X140.416 Y113.776 E46.64996
G1 X140.931 Y114.375 E46.67624
G1 X141.382 Y115.023 E46.70249
G1 X141.766 Y115.714 E46.72879
G1 X142.078 Y116.439 E46.75504
G1 X142.315 Y117.192 E46.7813
G1 X142.474 Y117.966 E46.80758
G1 X142.555 Y118.751 E46.83382
G1 X142.565 Y119.153 E46.8472
G1 X142.565 Y137.448 E47.45569
G1 X142.525 Y138.237 E47.48197
G1 X142.406 Y139.017 E47.50821
G1 X142.208 Y139.782 E47.53449
G1 X141.934 Y140.522 E47.56074
G1 X141.586 Y141.231 E47.58701
G1 X141.168 Y141.902 E47.6133
G1 X140.685 Y142.526 E47.63955
G1 X140.142 Y143.099 E47.6658
G1 X139.543 Y143.614 E47.69208
G1 X138.895 Y144.065 E47.71834
G1 X138.204 Y144.449 E47.74463
G1 X137.479 Y144.761 E47.77088
