;FLAVOR:Marlin
;TIME:32558
;Filament used: 24.3268m
;Layer height: 0.2
;MINX:11.286
;MINY:44.317
;MINZ:0.2
;MAXX:208.714
;MAXY:175.683
;MAXZ:3.2
;Generated with Cura_SteamEngine 4.11.0
M140 S50
M105
M190 S50
M104 S200
M105
M109 S200
M82 ;absolute extrusion mode
; Ender 3 Custom Start G-code
G92 E0 ; Reset Extruder
G28 ; Home all axes
G29 ; Auto bed-level (BL-Touch)
G1 Z2.0 F3000 ; Move Z Axis up little to prevent scratching of Heat Bed
G1 X0.1 Y20 Z0.3 F5000.0 ; Move to start position
G1 X0.1 Y200.0 Z0.3 F1500.0 E15 ; Draw the first line
G1 X0.4 Y200.0 Z0.3 F5000.0 ; Move to side a little
G1 X0.4 Y20 Z0.3 F1500.0 E30 ; Draw the second line
G92 E0 ; Reset Extruder
G1 Z2.0 F3000 ; Move Z Axis up little to prevent scratching of Heat Bed
G1 X5 Y20 Z0.3 F5000.0 ; Move over to prevent blob squish
G92 E0
G92 E0
G1 F2700 E-5
;LAYER_COUNT:16
;LAYER:0
M107
G0 F6000 X17.333 Y45.076 Z0.2
;TYPE:SKIRT
G1 F2700 E0
G1 F1200 X18.164 Y44.772 E0.02943
G1 X19.019 Y44.544 E0.05886
G1 X19.892 Y44.394 E0.08832
G1 X21.114 Y44.317 E0.12905
G1 X198.914 Y44.317 E6.0427
G1 X199.798 Y44.357 E6.07213
G1 X200.675 Y44.477 E6.10157
G1 X201.538 Y44.675 E6.13102
G1 X202.379 Y44.95 E6.16045
G1 X203.192 Y45.3 E6.18989
G1 X203.971 Y45.722 E6.21936
G1 X204.707 Y46.213 E6.24879
G1 X205.397 Y46.768 E6.27824
G1 X206.034 Y47.383 E6.30769
G1 X206.612 Y48.053 E6.33712
G1 X207.128 Y48.772 E6.36655
G1 X207.577 Y49.535 E6.396
G1 X207.955 Y50.336 E6.42546
G1 X208.259 Y51.167 E6.45489
G1 X208.487 Y52.022 E6.48432
G1 X208.637 Y52.895 E6.51378
G1 X208.714 Y54.117 E6.5545
G1 X208.714 Y78.941 E7.38015
G1 X208.674 Y79.825 E7.40959
G1 X208.554 Y80.702 E7.43903
G1 X208.356 Y81.565 E7.46848
G1 X208.081 Y82.406 E7.49791
G1 X207.731 Y83.219 E7.52735
G1 X207.309 Y83.998 E7.55681
G1 X207.091 Y84.325 E7.56988
G1 X207.549 Y85.101 E7.59985
G1 X207.927 Y85.902 E7.62931
G1 X208.231 Y86.733 E7.65874
G1 X208.459 Y87.588 E7.68817
G1 X208.609 Y88.461 E7.71764
G1 X208.686 Y89.683 E7.75836
G1 X208.686 Y165.883 E10.29278
G1 X208.646 Y166.767 E10.32222
G1 X208.526 Y167.644 E10.35166
G1 X208.328 Y168.507 E10.38111
G1 X208.053 Y169.348 E10.41053
G1 X207.703 Y170.161 E10.43997
G1 X207.281 Y170.94 E10.46944
G1 X206.79 Y171.676 E10.49887
G1 X206.235 Y172.366 E10.52832
G1 X205.62 Y173.003 E10.55777
G1 X204.95 Y173.581 E10.5872
G1 X204.231 Y174.097 E10.61664
G1 X203.468 Y174.546 E10.64608
G1 X202.667 Y174.924 E10.67554
G1 X201.836 Y175.228 E10.70497
G1 X200.981 Y175.456 E10.7344
G1 X200.108 Y175.606 E10.76386
G1 X198.886 Y175.683 E10.80459
G1 X21.086 Y175.683 E16.71824
G1 X20.202 Y175.643 E16.74767
G1 X19.325 Y175.523 E16.77711
G1 X18.462 Y175.325 E16.80656
G1 X17.621 Y175.05 E16.83599
G1 X16.808 Y174.7 E16.86543
G1 X16.029 Y174.278 E16.8949
G1 X15.293 Y173.787 E16.92433
G1 X14.603 Y173.232 E16.95378
G1 X13.966 Y172.617 E16.98323
G1 X13.388 Y171.947 E17.01266
G1 X12.872 Y171.228 E17.04209
G1 X12.423 Y170.465 E17.07154
G1 X12.045 Y169.664 E17.101
G1 X11.741 Y168.833 E17.13043
G1 X11.513 Y167.978 E17.15986
G1 X11.363 Y167.105 E17.18932
G1 X11.286 Y165.883 E17.23004
G1 X11.286 Y89.683 E19.76447
G1 X11.326 Y88.799 E19.7939
G1 X11.446 Y87.922 E19.82334
G1 X11.644 Y87.059 E19.85279
G1 X11.919 Y86.218 E19.88222
G1 X12.269 Y85.405 E19.91166
G1 X12.691 Y84.626 E19.94113
G1 X12.909 Y84.299 E19.9542
G1 X12.451 Y83.523 E19.98417
G1 X12.073 Y82.722 E20.01363
G1 X11.769 Y81.891 E20.04306
G1 X11.541 Y81.036 E20.07249
G1 X11.391 Y80.163 E20.10195
G1 X11.314 Y78.941 E20.14267
G1 X11.314 Y54.117 E20.96832
G1 X11.354 Y53.233 E20.99776
G1 X11.474 Y52.356 E21.0272
G1 X11.672 Y51.493 E21.05665
G1 X11.947 Y50.652 E21.08607
G1 X12.297 Y49.839 E21.11551
G1 X12.719 Y49.06 E21.14498
G1 X13.21 Y48.324 E21.17441
G1 X13.765 Y47.634 E21.20386
G1 X14.38 Y46.997 E21.23331
G1 X15.05 Y46.419 E21.26274
G1 X15.769 Y45.903 E21.29218
G1 X16.532 Y45.454 E21.32162
G1 X17.333 Y45.076 E21.35108
G0 F6000 X17.703 Y45.358
G1 F1200 X18.524 Y45.081 E21.3799
G1 X19.368 Y44.881 E21.40875
G1 X20.226 Y44.759 E21.43757
G1 X21.114 Y44.717 E21.46714
G1 X198.914 Y44.717 E27.38079
G1 X199.78 Y44.757 E27.40963
G1 X200.639 Y44.877 E27.43847
G1 X201.483 Y45.075 E27.46731
G1 X202.305 Y45.35 E27.49614
G1 X203.098 Y45.7 E27.52497
G1 X203.856 Y46.121 E27.55381
G1 X204.571 Y46.61 E27.58262
G1 X205.239 Y47.163 E27.61146
G1 X205.853 Y47.776 E27.64032
G1 X206.408 Y48.442 E27.66915
G1 X206.898 Y49.156 E27.69795
G1 X207.322 Y49.913 E27.72681
G1 X207.673 Y50.706 E27.75566
G1 X207.95 Y51.527 E27.78447
G1 X208.15 Y52.371 E27.81332
G1 X208.272 Y53.229 E27.84215
G1 X208.314 Y54.117 E27.87172
G1 X208.314 Y78.941 E28.69737
G1 X208.274 Y79.807 E28.7262
G1 X208.154 Y80.666 E28.75505
G1 X207.956 Y81.51 E28.78388
G1 X207.681 Y82.332 E28.81271
G1 X207.331 Y83.125 E28.84154
G1 X206.91 Y83.883 E28.87038
G1 X206.603 Y84.332 E28.88847
G1 X206.87 Y84.722 E28.90419
G1 X207.294 Y85.479 E28.93305
G1 X207.645 Y86.272 E28.96189
G1 X207.922 Y87.093 E28.99071
G1 X208.122 Y87.937 E29.01956
G1 X208.244 Y88.795 E29.04838
G1 X208.286 Y89.683 E29.07795
G1 X208.286 Y165.883 E31.61237
G1 X208.246 Y166.749 E31.64121
G1 X208.126 Y167.608 E31.67006
G1 X207.928 Y168.452 E31.69889
G1 X207.653 Y169.274 E31.72772
G1 X207.303 Y170.067 E31.75655
G1 X206.882 Y170.825 E31.78539
G1 X206.393 Y171.54 E31.8142
G1 X205.84 Y172.208 E31.84304
G1 X205.227 Y172.822 E31.8719
G1 X204.561 Y173.377 E31.90073
G1 X203.847 Y173.867 E31.92954
G1 X203.09 Y174.291 E31.95839
G1 X202.297 Y174.642 E31.98724
G1 X201.476 Y174.919 E32.01606
G1 X200.632 Y175.119 E32.0449
G1 X199.774 Y175.241 E32.07373
G1 X198.886 Y175.283 E32.1033
G1 X21.086 Y175.283 E38.01695
G1 X20.22 Y175.243 E38.04578
G1 X19.361 Y175.123 E38.07463
G1 X18.517 Y174.925 E38.10346
G1 X17.695 Y174.65 E38.13229
G1 X16.902 Y174.3 E38.16112
G1 X16.144 Y173.879 E38.18996
G1 X15.429 Y173.39 E38.21877
G1 X14.761 Y172.837 E38.24762
G1 X14.147 Y172.224 E38.27647
G1 X13.592 Y171.558 E38.30531
G1 X13.102 Y170.844 E38.33411
G1 X12.678 Y170.087 E38.36297
G1 X12.327 Y169.294 E38.39181
G1 X12.05 Y168.473 E38.42063
G1 X11.85 Y167.629 E38.44948
G1 X11.728 Y166.771 E38.4783
G1 X11.686 Y165.883 E38.50787
G1 X11.686 Y89.683 E41.04229
G1 X11.726 Y88.817 E41.07113
G1 X11.846 Y87.958 E41.09998
G1 X12.044 Y87.114 E41.12881
G1 X12.319 Y86.292 E41.15764
G1 X12.669 Y85.499 E41.18647
G1 X13.09 Y84.741 E41.21531
G1 X13.397 Y84.292 E41.2334
G1 X13.13 Y83.902 E41.24912
G1 X12.706 Y83.145 E41.27798
G1 X12.355 Y82.352 E41.30682
G1 X12.078 Y81.531 E41.33564
G1 X11.878 Y80.687 E41.36449
G1 X11.756 Y79.829 E41.39331
G1 X11.714 Y78.941 E41.42288
G1 X11.714 Y54.117 E42.24853
G1 X11.754 Y53.251 E42.27736
G1 X11.874 Y52.392 E42.30621
G1 X12.072 Y51.548 E42.33505
G1 X12.347 Y50.726 E42.36388
G1 X12.697 Y49.933 E42.39271
G1 X13.118 Y49.175 E42.42154
G1 X13.607 Y48.46 E42.45035
G1 X14.16 Y47.792 E42.4792
G1 X14.773 Y47.178 E42.50806
G1 X15.439 Y46.623 E42.53689
G1 X16.153 Y46.133 E42.56569
G1 X16.91 Y45.709 E42.59455
G1 X17.703 Y45.358 E42.62339
G0 F6000 X17.286 Y45.972
G1 F1200 X18.07 Y45.647 E42.65162
G1 X18.881 Y45.398 E42.67984
G1 X19.712 Y45.227 E42.70806
G1 X20.555 Y45.134 E42.73626
G1 X21.114 Y45.117 E42.75487
G1 X198.914 Y45.117 E48.66852
G1 X199.761 Y45.157 E48.69672
G1 X200.601 Y45.277 E48.72494
G1 X201.426 Y45.475 E48.75316
G1 X202.229 Y45.75 E48.78139
G1 X203.002 Y46.099 E48.8096
G1 X203.738 Y46.519 E48.83779
G1 X204.432 Y47.007 E48.866
G1 X205.077 Y47.558 E48.89422
G1 X205.667 Y48.168 E48.92244
G1 X206.197 Y48.83 E48.95065
G1 X206.663 Y49.539 E48.97887
G1 X207.059 Y50.289 E49.00708
G1 X207.384 Y51.073 E49.03531
G1 X207.633 Y51.884 E49.06352
G1 X207.804 Y52.715 E49.09174
G1 X207.897 Y53.558 E49.11995
G1 X207.914 Y54.117 E49.13855
G1 X207.914 Y78.941 E49.9642
G1 X207.874 Y79.788 E49.9924
G1 X207.754 Y80.628 E50.02062
G1 X207.556 Y81.453 E50.04884
G1 X207.281 Y82.256 E50.07707
G1 X206.932 Y83.029 E50.10528
G1 X206.512 Y83.765 E50.13347
G1 X206.115 Y84.329 E50.15641
G1 X206.169 Y84.396 E50.15927
G1 X206.635 Y85.105 E50.18749
G1 X207.031 Y85.855 E50.2157
G1 X207.356 Y86.639 E50.24393
G1 X207.605 Y87.45 E50.27214
G1 X207.776 Y88.281 E50.30036
G1 X207.869 Y89.124 E50.32857
G1 X207.886 Y89.683 E50.34717
G1 X207.886 Y165.883 E52.88159
G1 X207.846 Y166.73 E52.90979
G1 X207.726 Y167.57 E52.93802
G1 X207.528 Y168.395 E52.96624
G1 X207.253 Y169.198 E52.99447
G1 X206.904 Y169.971 E53.02268
G1 X206.484 Y170.707 E53.05086
G1 X205.996 Y171.401 E53.07908
G1 X205.445 Y172.046 E53.10729
G1 X204.835 Y172.636 E53.13552
G1 X204.173 Y173.166 E53.16372
G1 X203.464 Y173.632 E53.19194
G1 X202.714 Y174.028 E53.22015
G1 X201.93 Y174.353 E53.24838
G1 X201.119 Y174.602 E53.2766
G1 X200.288 Y174.773 E53.30481
G1 X199.445 Y174.866 E53.33302
G1 X198.886 Y174.883 E53.35162
G1 X21.086 Y174.883 E59.26528
G1 X20.239 Y174.843 E59.29348
G1 X19.399 Y174.723 E59.3217
G1 X18.574 Y174.525 E59.34992
G1 X17.771 Y174.25 E59.37815
G1 X16.998 Y173.901 E59.40636
G1 X16.262 Y173.481 E59.43454
G1 X15.568 Y172.993 E59.46276
G1 X14.923 Y172.442 E59.49098
G1 X14.333 Y171.832 E59.5192
G1 X13.803 Y171.17 E59.54741
G1 X13.337 Y170.461 E59.57563
G1 X12.941 Y169.711 E59.60384
G1 X12.616 Y168.927 E59.63206
G1 X12.367 Y168.116 E59.66028
G1 X12.196 Y167.285 E59.6885
G1 X12.103 Y166.442 E59.71671
G1 X12.086 Y165.883 E59.73531
G1 X12.086 Y89.683 E62.26973
G1 X12.126 Y88.836 E62.29793
G1 X12.246 Y87.996 E62.32616
G1 X12.444 Y87.171 E62.35437
G1 X12.719 Y86.368 E62.3826
G1 X13.068 Y85.595 E62.41081
G1 X13.488 Y84.859 E62.439
G1 X13.885 Y84.295 E62.46194
G1 X13.831 Y84.228 E62.4648
G1 X13.365 Y83.519 E62.49302
G1 X12.969 Y82.769 E62.52123
G1 X12.644 Y81.985 E62.54946
G1 X12.395 Y81.174 E62.57767
G1 X12.224 Y80.343 E62.60589
G1 X12.131 Y79.5 E62.6341
G1 X12.114 Y78.941 E62.6527
G1 X12.114 Y54.117 E63.47835
G1 X12.154 Y53.27 E63.50655
G1 X12.274 Y52.43 E63.53477
G1 X12.472 Y51.605 E63.56299
G1 X12.747 Y50.802 E63.59122
G1 X13.096 Y50.029 E63.61943
G1 X13.516 Y49.293 E63.64762
G1 X14.004 Y48.599 E63.67584
G1 X14.555 Y47.954 E63.70405
G1 X15.165 Y47.364 E63.73228
G1 X15.827 Y46.834 E63.76048
G1 X16.536 Y46.368 E63.7887
G1 X17.286 Y45.972 E63.81691
G0 F6000 X17.66 Y46.241
G1 F1200 X18.435 Y45.945 E63.8445
G1 X19.234 Y45.725 E63.87207
G1 X20.051 Y45.583 E63.89965
G1 X21.114 Y45.517 E63.93507
G1 X198.914 Y45.517 E69.84872
G1 X199.742 Y45.557 E69.87629
G1 X200.563 Y45.677 E69.90389
G1 X201.368 Y45.875 E69.93146
G1 X202.15 Y46.149 E69.95902
G1 X202.903 Y46.498 E69.98663
G1 X203.618 Y46.918 E70.01421
G1 X204.289 Y47.404 E70.04176
G1 X204.911 Y47.953 E70.06936
G1 X205.477 Y48.559 E70.09694
G1 X205.982 Y49.217 E70.12453
G1 X206.421 Y49.92 E70.15209
G1 X206.79 Y50.663 E70.17968
G1 X207.086 Y51.438 E70.20728
G1 X207.306 Y52.237 E70.23484
G1 X207.448 Y53.054 E70.26242
G1 X207.514 Y54.117 E70.29784
G1 X207.514 Y78.941 E71.12349
G1 X207.474 Y79.769 E71.15107
G1 X207.354 Y80.59 E71.17866
G1 X207.156 Y81.395 E71.20624
G1 X206.882 Y82.177 E71.23379
G1 X206.533 Y82.93 E71.2614
G1 X206.113 Y83.645 E71.28898
G1 X205.627 Y84.316 E71.31654
G1 X205.61 Y84.335 E71.31738
G1 X205.954 Y84.783 E71.33617
G1 X206.393 Y85.486 E71.36374
G1 X206.762 Y86.229 E71.39133
G1 X207.058 Y87.004 E71.41892
G1 X207.278 Y87.803 E71.44649
G1 X207.42 Y88.62 E71.47407
G1 X207.486 Y89.683 E71.50949
G1 X207.486 Y165.883 E74.04391
G1 X207.446 Y166.711 E74.07148
G1 X207.326 Y167.532 E74.09908
G1 X207.128 Y168.337 E74.12665
G1 X206.854 Y169.119 E74.15421
G1 X206.505 Y169.872 E74.18182
G1 X206.085 Y170.587 E74.2094
G1 X205.599 Y171.258 E74.23695
G1 X205.05 Y171.88 E74.26455
G1 X204.444 Y172.446 E74.29213
G1 X203.786 Y172.951 E74.31971
G1 X203.083 Y173.39 E74.34728
G1 X202.34 Y173.759 E74.37487
G1 X201.565 Y174.055 E74.40247
G1 X200.766 Y174.275 E74.43003
G1 X199.949 Y174.417 E74.45761
G1 X198.886 Y174.483 E74.49303
G1 X21.086 Y174.483 E80.40669
G1 X20.258 Y174.443 E80.43426
G1 X19.437 Y174.323 E80.46185
G1 X18.632 Y174.125 E80.48943
G1 X17.85 Y173.851 E80.51699
G1 X17.097 Y173.502 E80.54459
G1 X16.382 Y173.082 E80.57217
G1 X15.711 Y172.596 E80.59973
G1 X15.089 Y172.047 E80.62732
G1 X14.523 Y171.441 E80.6549
G1 X14.018 Y170.783 E80.68249
G1 X13.579 Y170.08 E80.71005
G1 X13.21 Y169.337 E80.73765
G1 X12.914 Y168.562 E80.76524
G1 X12.694 Y167.763 E80.7928
G1 X12.552 Y166.946 E80.82038
G1 X12.486 Y165.883 E80.85581
G1 X12.486 Y89.683 E83.39023
G1 X12.526 Y88.855 E83.4178
G1 X12.646 Y88.034 E83.4454
G1 X12.844 Y87.229 E83.47297
G1 X13.118 Y86.447 E83.50053
G1 X13.467 Y85.694 E83.52813
G1 X13.887 Y84.979 E83.55572
G1 X14.373 Y84.308 E83.58327
G1 X14.39 Y84.289 E83.58412
G1 X14.046 Y83.841 E83.60291
G1 X13.607 Y83.138 E83.63047
G1 X13.238 Y82.395 E83.65806
G1 X12.942 Y81.62 E83.68566
G1 X12.722 Y80.821 E83.71322
G1 X12.58 Y80.004 E83.7408
G1 X12.514 Y78.941 E83.77623
G1 X12.514 Y54.117 E84.60188
G1 X12.554 Y53.289 E84.62945
G1 X12.674 Y52.468 E84.65704
G1 X12.872 Y51.663 E84.68462
G1 X13.146 Y50.881 E84.71218
G1 X13.495 Y50.128 E84.73978
G1 X13.915 Y49.413 E84.76736
G1 X14.401 Y48.742 E84.79492
G1 X14.95 Y48.12 E84.82251
G1 X15.556 Y47.554 E84.85009
G1 X16.214 Y47.049 E84.87768
G1 X16.917 Y46.61 E84.90524
G1 X17.66 Y46.241 E84.93284
G0 F6000 X18.031 Y46.518
G1 F1200 X18.796 Y46.252 E84.95977
G1 X19.583 Y46.061 E84.98671
G1 X20.385 Y45.949 E85.01364
G1 X21.114 Y45.917 E85.03791
G1 X198.914 Y45.917 E90.95157
G1 X199.723 Y45.957 E90.97851
G1 X200.524 Y46.077 E91.00544
G1 X201.309 Y46.274 E91.03236
G1 X202.07 Y46.549 E91.05928
G1 X202.801 Y46.897 E91.0862
G1 X203.495 Y47.316 E91.11317
G1 X204.143 Y47.801 E91.14009
G1 X204.74 Y48.347 E91.167
G1 X205.281 Y48.95 E91.19394
G1 X205.76 Y49.603 E91.22088
G1 X206.171 Y50.3 E91.24779
G1 X206.513 Y51.034 E91.27472
G1 X206.779 Y51.799 E91.30166
G1 X206.97 Y52.586 E91.3286
G1 X207.082 Y53.388 E91.35553
G1 X207.114 Y54.117 E91.3798
G1 X207.114 Y78.941 E92.20545
G1 X207.074 Y79.75 E92.23239
G1 X206.954 Y80.551 E92.25933
G1 X206.757 Y81.336 E92.28625
G1 X206.482 Y82.097 E92.31316
G1 X206.134 Y82.828 E92.34009
G1 X205.715 Y83.522 E92.36705
G1 X205.23 Y84.17 E92.39397
G1 X205.085 Y84.329 E92.40113
G1 X205.253 Y84.516 E92.40949
G1 X205.732 Y85.169 E92.43642
G1 X206.143 Y85.866 E92.46334
G1 X206.485 Y86.6 E92.49027
G1 X206.751 Y87.365 E92.51721
G1 X206.942 Y88.152 E92.54414
G1 X207.054 Y88.954 E92.57108
G1 X207.086 Y89.683 E92.59535
G1 X207.086 Y165.883 E95.12977
G1 X207.046 Y166.692 E95.15671
G1 X206.926 Y167.493 E95.18365
G1 X206.729 Y168.278 E95.21057
G1 X206.454 Y169.039 E95.23748
G1 X206.106 Y169.77 E95.26441
G1 X205.687 Y170.464 E95.29137
G1 X205.202 Y171.112 E95.31829
G1 X204.656 Y171.709 E95.3452
G1 X204.053 Y172.25 E95.37215
G1 X203.4 Y172.729 E95.39908
G1 X202.703 Y173.14 E95.42599
G1 X201.969 Y173.482 E95.45293
G1 X201.204 Y173.748 E95.47986
G1 X200.417 Y173.939 E95.5068
G1 X199.615 Y174.051 E95.53373
G1 X198.886 Y174.083 E95.558
G1 X21.086 Y174.083 E101.47166
G1 X20.277 Y174.043 E101.4986
G1 X19.476 Y173.923 E101.52553
G1 X18.691 Y173.726 E101.55245
G1 X17.93 Y173.451 E101.57937
G1 X17.199 Y173.103 E101.60629
G1 X16.505 Y172.684 E101.63326
G1 X15.857 Y172.199 E101.66018
G1 X15.26 Y171.653 E101.68709
G1 X14.719 Y171.05 E101.71403
G1 X14.24 Y170.397 E101.74097
G1 X13.829 Y169.7 E101.76788
G1 X13.487 Y168.966 E101.79481
G1 X13.221 Y168.201 E101.82175
G1 X13.03 Y167.414 E101.84869
G1 X12.918 Y166.612 E101.87562
G1 X12.886 Y165.883 E101.89989
G1 X12.886 Y89.683 E104.43431
G1 X12.926 Y88.874 E104.46125
G1 X13.046 Y88.073 E104.48819
G1 X13.243 Y87.288 E104.51511
G1 X13.518 Y86.527 E104.54202
G1 X13.866 Y85.796 E104.56895
G1 X14.285 Y85.102 E104.59591
G1 X14.77 Y84.454 E104.62283
G1 X14.915 Y84.295 E104.62999
G1 X14.747 Y84.108 E104.63835
G1 X14.268 Y83.455 E104.66529
G1 X13.857 Y82.758 E104.6922
G1 X13.515 Y82.024 E104.71913
G1 X13.249 Y81.259 E104.74607
G1 X13.058 Y80.472 E104.77301
G1 X12.946 Y79.67 E104.79994
G1 X12.914 Y78.941 E104.82421
G1 X12.914 Y54.117 E105.64986
G1 X12.954 Y53.308 E105.6768
G1 X13.074 Y52.507 E105.70374
G1 X13.271 Y51.722 E105.73066
G1 X13.546 Y50.961 E105.75757
G1 X13.894 Y50.23 E105.7845
G1 X14.313 Y49.536 E105.81146
G1 X14.798 Y48.888 E105.83838
G1 X15.344 Y48.291 E105.86529
G1 X15.947 Y47.75 E105.89224
G1 X16.6 Y47.271 E105.91917
