;FLAVOR:Marlin
;TIME:27656
;Filament used: 20.407m
;Layer height: 0.2
;MINX:11.227
;MINY:52.383
;MINZ:0.2
;MAXX:208.773
;MAXY:167.617
;MAXZ:3.2
;Generated with Cura_SteamEngine 4.11.0
M140 S50
M105
M190 S50
M104 S200
M105
M109 S200
M82 ;absolute extrusion mode
; Ender 3 Custom Start G-code
G92 E0 ; Reset Extruder
G28 ; Home all axes
G29 ; Auto bed-level (BL-Touch)
G1 Z2.0 F3000 ; Move Z Axis up little to prevent scratching of Heat Bed
G1 X0.1 Y20 Z0.3 F5000.0 ; Move to start position
G1 X0.1 Y200.0 Z0.3 F1500.0 E15 ; Draw the first line
G1 X0.4 Y200.0 Z0.3 F5000.0 ; Move to side a little
G1 X0.4 Y20 Z0.3 F1500.0 E30 ; Draw the second line
G92 E0 ; Reset Extruder
G1 Z2.0 F3000 ; Move Z Axis up little to prevent scratching of Heat Bed
G1 X5 Y20 Z0.3 F5000.0 ; Move over to prevent blob squish
G92 E0
G92 E0
G1 F2700 E-5
;LAYER_COUNT:16
;LAYER:0
M107
G0 F6000 X18.077 Y52.838 Z0.2
;TYPE:SKIRT
G1 F2700 E0
G1 F1200 X18.932 Y52.61 E0.02943
G1 X19.805 Y52.46 E0.05889
G1 X21.027 Y52.383 E0.09962
G1 X198.827 Y52.383 E6.01327
G1 X199.711 Y52.423 E6.0427
G1 X200.588 Y52.543 E6.07214
G1 X201.451 Y52.741 E6.10159
G1 X202.292 Y53.016 E6.13102
G1 X203.105 Y53.366 E6.16046
G1 X203.884 Y53.788 E6.18993
G1 X204.62 Y54.279 E6.21935
G1 X205.31 Y54.834 E6.24881
G1 X205.947 Y55.449 E6.27826
G1 X206.525 Y56.119 E6.30769
G1 X207.041 Y56.838 E6.33712
G1 X207.49 Y57.601 E6.36657
G1 X207.868 Y58.402 E6.39603
G1 X208.172 Y59.233 E6.42546
G1 X208.4 Y60.088 E6.45489
G1 X208.55 Y60.961 E6.48435
G1 X208.627 Y62.183 E6.52507
G1 X208.627 Y90.708 E7.47382
G1 X208.587 Y91.592 E7.50325
G1 X208.467 Y92.469 E7.53269
G1 X208.269 Y93.332 E7.56214
G1 X207.994 Y94.173 E7.59157
G1 X207.644 Y94.986 E7.62101
G1 X207.222 Y95.765 E7.65048
G1 X206.731 Y96.501 E7.6799
G1 X206.488 Y96.804 E7.69282
G1 X206.994 Y97.461 E7.7204
G1 X207.47 Y98.208 E7.74987
G1 X207.876 Y98.994 E7.77929
G1 X208.209 Y99.814 E7.80873
G1 X208.467 Y100.661 E7.83818
G1 X208.648 Y101.528 E7.86763
G1 X208.749 Y102.407 E7.89706
G1 X208.773 Y103.091 E7.91983
G1 X208.773 Y157.817 E9.74002
G1 X208.733 Y158.701 E9.76945
G1 X208.613 Y159.578 E9.79889
G1 X208.415 Y160.441 E9.82834
G1 X208.14 Y161.282 E9.85777
G1 X207.79 Y162.095 E9.88721
G1 X207.368 Y162.874 E9.91668
G1 X206.877 Y163.61 E9.9461
G1 X206.322 Y164.3 E9.97556
G1 X205.707 Y164.937 E10.00501
G1 X205.037 Y165.515 E10.03444
G1 X204.318 Y166.031 E10.06387
G1 X203.555 Y166.48 E10.09332
G1 X202.754 Y166.858 E10.12278
G1 X201.923 Y167.162 E10.15221
G1 X201.068 Y167.39 E10.18164
G1 X200.195 Y167.54 E10.2111
G1 X198.973 Y167.617 E10.25182
G1 X21.173 Y167.617 E16.16548
G1 X20.289 Y167.577 E16.19491
G1 X19.412 Y167.457 E16.22435
G1 X18.549 Y167.259 E16.2538
G1 X17.708 Y166.984 E16.28323
G1 X16.895 Y166.634 E16.31267
G1 X16.116 Y166.212 E16.34213
G1 X15.38 Y165.721 E16.37156
G1 X14.69 Y165.166 E16.40101
G1 X14.053 Y164.551 E16.43046
G1 X13.475 Y163.881 E16.45989
G1 X12.959 Y163.162 E16.48933
G1 X12.51 Y162.399 E16.51877
G1 X12.132 Y161.598 E16.54823
G1 X11.828 Y160.767 E16.57766
G1 X11.6 Y159.912 E16.6071
G1 X11.45 Y159.039 E16.63656
G1 X11.373 Y157.817 E16.67728
G1 X11.373 Y98.317 E18.65626
G1 X11.413 Y97.433 E18.68569
G1 X11.533 Y96.556 E18.71513
G1 X11.731 Y95.693 E18.74458
G1 X12.006 Y94.852 E18.77401
G1 X12.356 Y94.039 E18.80345
G1 X12.778 Y93.26 E18.83292
G1 X13.269 Y92.524 E18.86234
G1 X13.55 Y92.175 E18.87725
G1 X13.325 Y91.914 E18.88871
G1 X12.809 Y91.195 E18.91814
G1 X12.361 Y90.431 E18.9476
G1 X11.984 Y89.631 E18.97702
G1 X11.68 Y88.799 E19.00648
G1 X11.452 Y87.944 E19.03591
G1 X11.303 Y87.071 E19.06536
G1 X11.227 Y85.855 E19.10589
G1 X11.227 Y62.183 E19.89322
G1 X11.267 Y61.299 E19.92265
G1 X11.387 Y60.422 E19.95209
G1 X11.585 Y59.559 E19.98154
G1 X11.86 Y58.718 E20.01097
G1 X12.21 Y57.905 E20.04041
G1 X12.632 Y57.126 E20.06988
G1 X13.123 Y56.39 E20.09931
G1 X13.678 Y55.7 E20.12876
G1 X14.293 Y55.063 E20.15821
G1 X14.963 Y54.485 E20.18764
G1 X15.682 Y53.969 E20.21707
G1 X16.445 Y53.52 E20.24652
G1 X17.246 Y53.142 E20.27598
G1 X18.077 Y52.838 E20.30541
G0 F6000 X18.437 Y53.147
G1 F1200 X19.281 Y52.947 E20.33426
G1 X20.139 Y52.825 E20.36308
G1 X21.027 Y52.783 E20.39265
G1 X198.827 Y52.783 E26.3063
G1 X199.693 Y52.823 E26.33514
G1 X200.552 Y52.943 E26.36398
G1 X201.396 Y53.141 E26.39282
G1 X202.218 Y53.416 E26.42165
G1 X203.011 Y53.766 E26.45048
G1 X203.769 Y54.187 E26.47932
G1 X204.484 Y54.676 E26.50813
G1 X205.152 Y55.229 E26.53697
G1 X205.766 Y55.842 E26.56583
G1 X206.321 Y56.508 E26.59466
G1 X206.811 Y57.222 E26.62346
G1 X207.235 Y57.979 E26.65232
G1 X207.586 Y58.772 E26.68117
G1 X207.863 Y59.593 E26.70998
G1 X208.063 Y60.437 E26.73883
G1 X208.185 Y61.295 E26.76766
G1 X208.227 Y62.183 E26.79723
G1 X208.227 Y90.708 E27.74597
G1 X208.187 Y91.574 E27.77481
G1 X208.067 Y92.433 E27.80365
G1 X207.869 Y93.277 E27.83249
G1 X207.594 Y94.099 E27.86132
G1 X207.244 Y94.892 E27.89015
G1 X206.823 Y95.65 E27.91898
G1 X206.334 Y96.365 E27.9478
G1 X205.96 Y96.817 E27.96731
G1 X206.33 Y97.24 E27.986
G1 X206.838 Y97.942 E28.01482
G1 X207.278 Y98.689 E28.04366
G1 X207.649 Y99.473 E28.0725
G1 X207.945 Y100.287 E28.10131
G1 X208.165 Y101.126 E28.13016
G1 X208.307 Y101.981 E28.15899
G1 X208.373 Y103.091 E28.19597
G1 X208.373 Y157.817 E30.01617
G1 X208.333 Y158.683 E30.045
G1 X208.213 Y159.542 E30.07385
G1 X208.015 Y160.386 E30.10268
G1 X207.74 Y161.208 E30.13151
G1 X207.39 Y162.001 E30.16034
G1 X206.969 Y162.759 E30.18918
G1 X206.48 Y163.474 E30.21799
G1 X205.927 Y164.142 E30.24683
G1 X205.314 Y164.756 E30.27569
G1 X204.648 Y165.311 E30.30452
G1 X203.934 Y165.801 E30.33333
G1 X203.177 Y166.225 E30.36219
G1 X202.384 Y166.576 E30.39103
G1 X201.563 Y166.853 E30.41985
G1 X200.719 Y167.053 E30.4487
G1 X199.861 Y167.175 E30.47752
G1 X198.973 Y167.217 E30.50709
G1 X21.173 Y167.217 E36.42074
G1 X20.307 Y167.177 E36.44957
G1 X19.448 Y167.057 E36.47842
G1 X18.604 Y166.859 E36.50726
G1 X17.782 Y166.584 E36.53609
G1 X16.989 Y166.234 E36.56492
G1 X16.231 Y165.813 E36.59375
G1 X15.516 Y165.324 E36.62257
G1 X14.848 Y164.771 E36.65141
G1 X14.234 Y164.158 E36.68027
G1 X13.679 Y163.492 E36.7091
G1 X13.189 Y162.778 E36.7379
G1 X12.765 Y162.021 E36.76676
G1 X12.414 Y161.228 E36.7956
G1 X12.137 Y160.407 E36.82442
G1 X11.937 Y159.563 E36.85327
G1 X11.815 Y158.705 E36.8821
G1 X11.773 Y157.817 E36.91166
G1 X11.773 Y98.317 E38.89064
G1 X11.813 Y97.451 E38.91948
G1 X11.933 Y96.592 E38.94832
G1 X12.131 Y95.748 E38.97716
G1 X12.406 Y94.926 E39.00599
G1 X12.756 Y94.133 E39.03482
G1 X13.177 Y93.375 E39.06366
G1 X13.666 Y92.66 E39.09247
G1 X14.072 Y92.17 E39.11363
G1 X13.606 Y91.625 E39.13748
G1 X13.106 Y90.917 E39.16631
G1 X12.673 Y90.165 E39.19517
G1 X12.312 Y89.377 E39.224
G1 X12.024 Y88.559 E39.25284
G1 X11.814 Y87.719 E39.28164
G1 X11.681 Y86.862 E39.31049
G1 X11.627 Y85.855 E39.34403
G1 X11.627 Y62.183 E40.13136
G1 X11.667 Y61.317 E40.1602
G1 X11.787 Y60.458 E40.18904
G1 X11.985 Y59.614 E40.21788
G1 X12.26 Y58.792 E40.24671
G1 X12.61 Y57.999 E40.27554
G1 X13.031 Y57.241 E40.30438
G1 X13.52 Y56.526 E40.33319
G1 X14.073 Y55.858 E40.36203
G1 X14.686 Y55.244 E40.39089
G1 X15.352 Y54.689 E40.41972
G1 X16.066 Y54.199 E40.44852
G1 X16.823 Y53.775 E40.47738
G1 X17.616 Y53.424 E40.50622
G1 X18.437 Y53.147 E40.53504
G0 F6000 X17.983 Y53.713
G1 F1200 X18.794 Y53.464 E40.56326
G1 X19.625 Y53.293 E40.59148
G1 X20.468 Y53.2 E40.61969
G1 X21.027 Y53.183 E40.63829
G1 X198.827 Y53.183 E46.55194
G1 X199.674 Y53.223 E46.58014
G1 X200.514 Y53.343 E46.60836
G1 X201.339 Y53.541 E46.63658
G1 X202.142 Y53.816 E46.66481
G1 X202.915 Y54.165 E46.69302
G1 X203.651 Y54.585 E46.72121
G1 X204.345 Y55.073 E46.74943
G1 X204.99 Y55.624 E46.77764
G1 X205.58 Y56.234 E46.80587
G1 X206.11 Y56.896 E46.83407
G1 X206.576 Y57.605 E46.86229
G1 X206.972 Y58.355 E46.8905
G1 X207.297 Y59.139 E46.91873
G1 X207.546 Y59.95 E46.94694
G1 X207.717 Y60.781 E46.97516
G1 X207.81 Y61.624 E47.00337
G1 X207.827 Y62.183 E47.02197
G1 X207.827 Y90.708 E47.97072
G1 X207.787 Y91.555 E47.99892
G1 X207.667 Y92.395 E48.02714
G1 X207.469 Y93.22 E48.05536
G1 X207.194 Y94.023 E48.08359
G1 X206.845 Y94.796 E48.1118
G1 X206.425 Y95.532 E48.13999
G1 X205.937 Y96.226 E48.1682
G1 X205.423 Y96.828 E48.19453
G1 X205.657 Y97.064 E48.20559
G1 X206.195 Y97.72 E48.2338
G1 X206.668 Y98.424 E48.26201
G1 X207.074 Y99.169 E48.29023
G1 X207.407 Y99.949 E48.31844
G1 X207.665 Y100.757 E48.34665
G1 X207.846 Y101.586 E48.37487
G1 X207.949 Y102.428 E48.40309
G1 X207.973 Y103.091 E48.42515
G1 X207.973 Y157.817 E50.24535
G1 X207.933 Y158.664 E50.27355
G1 X207.813 Y159.504 E50.30177
G1 X207.615 Y160.329 E50.32999
G1 X207.34 Y161.132 E50.35822
G1 X206.991 Y161.905 E50.38643
G1 X206.571 Y162.641 E50.41462
G1 X206.083 Y163.335 E50.44283
G1 X205.532 Y163.98 E50.47105
G1 X204.922 Y164.57 E50.49927
G1 X204.26 Y165.1 E50.52748
G1 X203.551 Y165.566 E50.5557
G1 X202.801 Y165.962 E50.58391
G1 X202.017 Y166.287 E50.61213
G1 X201.206 Y166.536 E50.64035
G1 X200.375 Y166.707 E50.66857
G1 X199.532 Y166.8 E50.69678
G1 X198.973 Y166.817 E50.71538
G1 X21.173 Y166.817 E56.62903
G1 X20.326 Y166.777 E56.65723
G1 X19.486 Y166.657 E56.68546
G1 X18.661 Y166.459 E56.71368
G1 X17.858 Y166.184 E56.74191
G1 X17.085 Y165.835 E56.77011
G1 X16.349 Y165.415 E56.7983
G1 X15.655 Y164.927 E56.82652
G1 X15.01 Y164.376 E56.85473
G1 X14.42 Y163.766 E56.88296
G1 X13.89 Y163.104 E56.91116
G1 X13.424 Y162.395 E56.93938
G1 X13.028 Y161.645 E56.96759
G1 X12.703 Y160.861 E56.99582
G1 X12.454 Y160.05 E57.02404
G1 X12.283 Y159.219 E57.05225
G1 X12.19 Y158.376 E57.08046
G1 X12.173 Y157.817 E57.09906
G1 X12.173 Y98.317 E59.07804
G1 X12.213 Y97.47 E59.10624
G1 X12.333 Y96.63 E59.13447
G1 X12.531 Y95.805 E59.16269
G1 X12.806 Y95.002 E59.19092
G1 X13.155 Y94.229 E59.21912
G1 X13.575 Y93.493 E59.24731
G1 X14.063 Y92.799 E59.27553
G1 X14.612 Y92.156 E59.30365
G1 X14.436 Y91.984 E59.31183
G1 X13.888 Y91.336 E59.34006
G1 X13.404 Y90.64 E59.36826
G1 X12.988 Y89.901 E59.39646
G1 X12.642 Y89.126 E59.42469
G1 X12.372 Y88.322 E59.4529
G1 X12.178 Y87.496 E59.48112
G1 X12.063 Y86.655 E59.50935
G1 X12.027 Y85.855 E59.53599
G1 X12.027 Y62.183 E60.32332
G1 X12.067 Y61.336 E60.35152
G1 X12.187 Y60.496 E60.37975
G1 X12.385 Y59.671 E60.40796
G1 X12.66 Y58.868 E60.4362
G1 X13.009 Y58.095 E60.4644
G1 X13.429 Y57.359 E60.49259
G1 X13.917 Y56.665 E60.52081
G1 X14.468 Y56.02 E60.54902
G1 X15.078 Y55.43 E60.57725
G1 X15.74 Y54.9 E60.60545
G1 X16.449 Y54.434 E60.63367
G1 X17.199 Y54.038 E60.66188
G1 X17.983 Y53.713 E60.69011
G0 F6000 X18.348 Y54.011
G1 F1200 X19.147 Y53.791 E60.71767
G1 X19.964 Y53.649 E60.74525
G1 X21.027 Y53.583 E60.78068
G1 X198.827 Y53.583 E66.69433
G1 X199.655 Y53.623 E66.7219
G1 X200.476 Y53.743 E66.7495
G1 X201.281 Y53.941 E66.77707
G1 X202.063 Y54.215 E66.80463
G1 X202.816 Y54.564 E66.83223
G1 X203.531 Y54.984 E66.85981
G1 X204.202 Y55.47 E66.88737
G1 X204.824 Y56.019 E66.91496
G1 X205.39 Y56.625 E66.94254
G1 X205.895 Y57.283 E66.97013
G1 X206.334 Y57.986 E66.9977
G1 X206.703 Y58.729 E67.02529
G1 X206.999 Y59.504 E67.05288
G1 X207.219 Y60.303 E67.08045
G1 X207.361 Y61.12 E67.10803
G1 X207.427 Y62.183 E67.14345
G1 X207.427 Y90.708 E68.0922
G1 X207.387 Y91.536 E68.11977
G1 X207.267 Y92.357 E68.14736
G1 X207.069 Y93.162 E68.17494
G1 X206.795 Y93.944 E68.2025
G1 X206.446 Y94.697 E68.2301
G1 X206.026 Y95.412 E68.25768
G1 X205.54 Y96.083 E68.28524
G1 X204.991 Y96.705 E68.31283
G1 X204.858 Y96.829 E68.31888
G1 X204.979 Y96.936 E68.32425
G1 X205.544 Y97.543 E68.35183
G1 X206.048 Y98.201 E68.3794
G1 X206.486 Y98.905 E68.40698
G1 X206.854 Y99.648 E68.43455
G1 X207.149 Y100.423 E68.46214
G1 X207.368 Y101.223 E68.48972
G1 X207.509 Y102.04 E68.5173
G1 X207.573 Y103.091 E68.55232
G1 X207.573 Y157.817 E70.37251
G1 X207.533 Y158.645 E70.40008
G1 X207.413 Y159.466 E70.42768
G1 X207.215 Y160.271 E70.45525
G1 X206.941 Y161.053 E70.48281
G1 X206.592 Y161.806 E70.51042
G1 X206.172 Y162.521 E70.538
G1 X205.686 Y163.192 E70.56555
G1 X205.137 Y163.814 E70.59315
G1 X204.531 Y164.38 E70.62073
G1 X203.873 Y164.885 E70.64832
G1 X203.17 Y165.324 E70.67588
G1 X202.427 Y165.693 E70.70347
G1 X201.652 Y165.989 E70.73107
G1 X200.853 Y166.209 E70.75863
G1 X200.036 Y166.351 E70.78621
G1 X198.973 Y166.417 E70.82164
G1 X21.173 Y166.417 E76.73529
G1 X20.345 Y166.377 E76.76286
G1 X19.524 Y166.257 E76.79046
G1 X18.719 Y166.059 E76.81803
G1 X17.937 Y165.785 E76.84559
G1 X17.184 Y165.436 E76.87319
G1 X16.469 Y165.016 E76.90077
G1 X15.798 Y164.53 E76.92833
G1 X15.176 Y163.981 E76.95592
G1 X14.61 Y163.375 E76.9835
G1 X14.105 Y162.717 E77.01109
G1 X13.666 Y162.014 E77.03866
G1 X13.297 Y161.271 E77.06625
G1 X13.001 Y160.496 E77.09384
G1 X12.781 Y159.697 E77.1214
G1 X12.639 Y158.88 E77.14899
G1 X12.573 Y157.817 E77.18441
G1 X12.573 Y98.317 E79.16339
G1 X12.613 Y97.489 E79.19096
G1 X12.733 Y96.668 E79.21856
G1 X12.931 Y95.863 E79.24613
G1 X13.205 Y95.081 E79.27369
G1 X13.554 Y94.328 E79.30129
G1 X13.974 Y93.613 E79.32887
G1 X14.46 Y92.942 E79.35643
G1 X15.009 Y92.32 E79.38402
G1 X15.184 Y92.157 E79.39198
G1 X14.704 Y91.684 E79.41439
G1 X14.172 Y91.048 E79.44197
G1 X13.704 Y90.364 E79.46953
G1 X13.303 Y89.637 E79.49715
G1 X12.975 Y88.876 E79.52471
G1 X12.722 Y88.086 E79.5523
G1 X12.545 Y87.276 E79.57988
G1 X12.448 Y86.453 E79.60744
G1 X12.427 Y85.855 E79.62734
G1 X12.427 Y62.183 E80.41467
G1 X12.467 Y61.355 E80.44225
G1 X12.587 Y60.534 E80.46984
G1 X12.785 Y59.729 E80.49742
G1 X13.059 Y58.947 E80.52498
G1 X13.408 Y58.194 E80.55258
G1 X13.828 Y57.479 E80.58016
G1 X14.314 Y56.808 E80.60772
G1 X14.863 Y56.186 E80.63531
G1 X15.469 Y55.62 E80.66289
G1 X16.127 Y55.115 E80.69048
G1 X16.83 Y54.676 E80.71804
G1 X17.573 Y54.307 E80.74564
G1 X18.348 Y54.011 E80.77323
G0 F6000 X18.709 Y54.318
G1 F1200 X19.496 Y54.127 E80.80016
G1 X20.298 Y54.015 E80.8271
G1 X21.027 Y53.983 E80.85137
G1 X198.827 Y53.983 E86.76502
G1 X199.636 Y54.023 E86.79196
G1 X200.437 Y54.143 E86.8189
G1 X201.222 Y54.34 E86.84582
G1 X201.983 Y54.615 E86.87273
G1 X202.714 Y54.963 E86.89966
G1 X203.408 Y55.382 E86.92662
G1 X204.056 Y55.867 E86.95354
G1 X204.653 Y56.413 E86.98045
G1 X205.194 Y57.016 E87.00739
G1 X205.673 Y57.669 E87.03433
G1 X206.084 Y58.366 E87.06124
G1 X206.426 Y59.1 E87.08818
G1 X206.692 Y59.865 E87.11511
G1 X206.883 Y60.652 E87.14205
G1 X206.995 Y61.454 E87.16898
G1 X207.027 Y62.183 E87.19325
G1 X207.027 Y90.708 E88.142
G1 X206.987 Y91.517 E88.16894
G1 X206.867 Y92.318 E88.19588
G1 X206.67 Y93.103 E88.2228
G1 X206.395 Y93.864 E88.24971
G1 X206.047 Y94.595 E88.27664
G1 X205.628 Y95.289 E88.3036
G1 X205.143 Y95.937 E88.33052
G1 X204.597 Y96.534 E88.35743
G1 X204.266 Y96.831 E88.37222
G1 X204.299 Y96.856 E88.3736
G1 X204.888 Y97.411 E88.40051
G1 X205.419 Y98.022 E88.42744
G1 X205.887 Y98.683 E88.45438
G1 X206.288 Y99.386 E88.48129
G1 X206.618 Y100.126 E88.50824
G1 X206.873 Y100.894 E88.53516
G1 X207.051 Y101.684 E88.56209
G1 X207.151 Y102.488 E88.58904
G1 X207.173 Y103.091 E88.60911
G1 X207.173 Y157.817 E90.4293
G1 X207.133 Y158.626 E90.45624
G1 X207.013 Y159.427 E90.48318
G1 X206.816 Y160.212 E90.5101
G1 X206.541 Y160.973 E90.53701
G1 X206.193 Y161.704 E90.56394
G1 X205.774 Y162.398 E90.5909
G1 X205.289 Y163.046 E90.61783
G1 X204.743 Y163.643 E90.64473
G1 X204.14 Y164.184 E90.67168
G1 X203.487 Y164.663 E90.69861
G1 X202.79 Y165.074 E90.72553
G1 X202.056 Y165.416 E90.75246
G1 X201.291 Y165.682 E90.7794
G1 X200.504 Y165.873 E90.80633
G1 X199.702 Y165.985 E90.83327
G1 X198.973 Y166.017 E90.85754
G1 X21.173 Y166.017 E96.77119
G1 X20.364 Y165.977 E96.79813
G1 X19.563 Y165.857 E96.82507
G1 X18.778 Y165.66 E96.85199
G1 X18.017 Y165.385 E96.8789
G1 X17.286 Y165.037 E96.90583
G1 X16.592 Y164.618 E96.93279
G1 X15.944 Y164.133 E96.95971
G1 X15.347 Y163.587 E96.98662
G1 X14.806 Y162.984 E97.01356
G1 X14.327 Y162.331 E97.0405
G1 X13.916 Y161.634 E97.06741
G1 X13.574 Y160.9 E97.09434
G1 X13.308 Y160.135 E97.12128
G1 X13.117 Y159.348 E97.14822
G1 X13.005 Y158.546 E97.17515
G1 X12.973 Y157.817 E97.19942
G1 X12.973 Y98.317 E99.1784
G1 X13.013 Y97.508 E99.20534
G1 X13.133 Y96.707 E99.23228
G1 X13.33 Y95.922 E99.2592
G1 X13.605 Y95.161 E99.28611
G1 X13.953 Y94.43 E99.31304
G1 X14.372 Y93.736 E99.34
