;FLAVOR:Marlin
;TIME:13047
;Filament used: 9.62035m
;Layer height: 0.2
;MINX:11.3
;MINY:74.571
;MINZ:0.2
;MAXX:207.897
;MAXY:146.234
;MAXZ:3.2
;Generated with Cura_SteamEngine 4.11.0
M140 S50
M105
M190 S50
M104 S200
M105
M109 S200
M82 ;absolute extrusion mode
; Ender 3 Custom Start G-code
G92 E0 ; Reset Extruder
G28 ; Home all axes
G29 ; Auto bed-level (BL-Touch)
G1 Z2.0 F3000 ; Move Z Axis up little to prevent scratching of Heat Bed
G1 X0.1 Y20 Z0.3 F5000.0 ; Move to start position
G1 X0.1 Y200.0 Z0.3 F1500.0 E15 ; Draw the first line
G1 X0.4 Y200.0 Z0.3 F5000.0 ; Move to side a little
G1 X0.4 Y20 Z0.3 F1500.0 E30 ; Draw the second line
G92 E0 ; Reset Extruder
G1 Z2.0 F3000 ; Move Z Axis up little to prevent scratching of Heat Bed
G1 X5 Y20 Z0.3 F5000.0 ; Move over to prevent blob squish
G92 E0
G92 E0
G1 F2700 E-5
;LAYER_COUNT:16
;LAYER:0
M107
G0 F6000 X19.005 Y87.29 Z0.2
;TYPE:SKIRT
G1 F2700 E0
G1 F1200 X19.878 Y87.14 E0.02946
G1 X20.76 Y87.069 E0.05889
G1 X21.645 Y87.078 E0.08833
G1 X22.526 Y87.167 E0.11778
G1 X23.395 Y87.336 E0.14722
G1 X24.163 Y87.554 E0.17378
G1 X24.471 Y87.645 E0.18446
G1 X24.705 Y87.718 E0.19261
G1 X27.375 Y88.581 E0.28594
G1 X30.182 Y89.417 E0.38335
G1 X36.577 Y91.062 E0.60298
G1 X43.039 Y92.412 E0.82254
G1 X49.519 Y93.454 E1.04084
G1 X56.031 Y94.2 E1.25885
G1 X62.58 Y94.648 E1.47717
G1 X69.18 Y94.796 E1.69675
G1 X75.737 Y94.642 E1.91489
G1 X82.275 Y94.188 E2.13287
G1 X85.2 Y93.852 E2.2308
G1 X88.826 Y93.432 E2.35221
G1 X95.318 Y92.377 E2.57096
G1 X101.725 Y91.034 E2.78869
G1 X108.106 Y89.386 E3.00789
G1 X114.382 Y87.456 E3.22628
G1 X120.569 Y85.238 E3.44488
G1 X126.658 Y82.734 E3.66386
G1 X132.81 Y79.868 E3.88959
G1 X133.311 Y79.651 E3.90775
G1 X139.44 Y77.197 E4.12733
G1 X140.276 Y76.905 E4.15678
G1 X140.903 Y76.739 E4.17836
G1 X147.343 Y75.267 E4.39808
G1 X148.214 Y75.109 E4.42752
G1 X148.857 Y75.044 E4.44901
G1 X155.453 Y74.592 E4.66891
G1 X156.338 Y74.571 E4.69836
G1 X156.98 Y74.607 E4.71974
G1 X163.566 Y75.185 E4.93964
G1 X164.443 Y75.302 E4.96906
G1 X165.075 Y75.437 E4.99056
G1 X171.487 Y77.032 E5.21032
G1 X172.335 Y77.284 E5.23974
G1 X172.935 Y77.515 E5.26113
G1 X179.022 Y80.087 E5.48091
G1 X179.821 Y80.468 E5.51036
G1 X180.38 Y80.79 E5.53181
G1 X185.997 Y84.28 E5.75176
G1 X186.727 Y84.781 E5.78121
G1 X187.228 Y85.185 E5.80261
G1 X192.23 Y89.502 E6.02237
G1 X192.873 Y90.11 E6.05181
G1 X193.306 Y90.589 E6.07328
G1 X197.578 Y95.635 E6.29318
G1 X198.119 Y96.336 E6.32263
G1 X198.472 Y96.874 E6.34404
G1 X201.906 Y102.519 E6.5638
G1 X202.331 Y103.295 E6.59323
G1 X202.596 Y103.883 E6.61468
G1 X205.111 Y109.995 E6.8345
G1 X205.41 Y110.828 E6.86394
G1 X205.58 Y111.45 E6.88538
G1 X207.114 Y117.879 E7.10522
G1 X207.281 Y118.748 E7.13465
G1 X207.352 Y119.389 E7.1561
G1 X207.867 Y125.979 E7.37595
G1 X207.897 Y126.744 E7.40142
G1 X207.896 Y136.435 E7.72374
G1 X207.856 Y137.319 E7.75317
G1 X207.736 Y138.196 E7.78261
G1 X207.538 Y139.059 E7.81206
G1 X207.262 Y139.9 E7.8415
G1 X206.912 Y140.713 E7.87094
G1 X206.49 Y141.491 E7.90038
G1 X206 Y142.228 E7.92981
G1 X205.444 Y142.918 E7.95929
G1 X204.829 Y143.554 E7.98871
G1 X204.159 Y144.133 E8.01817
G1 X203.44 Y144.649 E8.0476
G1 X202.677 Y145.097 E8.07703
G1 X201.876 Y145.475 E8.10649
G1 X201.045 Y145.78 E8.13593
G1 X200.19 Y146.008 E8.16536
G1 X199.317 Y146.158 E8.19482
G1 X198.096 Y146.234 E8.23551
G1 X21.1 Y146.234 E14.12242
G1 X20.216 Y146.194 E14.15186
G1 X19.339 Y146.074 E14.1813
G1 X18.476 Y145.876 E14.21075
G1 X17.635 Y145.601 E14.24017
G1 X16.822 Y145.251 E14.26961
G1 X16.043 Y144.829 E14.29908
G1 X15.307 Y144.338 E14.32851
G1 X14.617 Y143.783 E14.35796
G1 X13.98 Y143.168 E14.38741
G1 X13.402 Y142.498 E14.41684
G1 X12.886 Y141.779 E14.44628
G1 X12.437 Y141.016 E14.47572
G1 X12.059 Y140.215 E14.50518
G1 X11.755 Y139.384 E14.53461
G1 X11.527 Y138.529 E14.56404
G1 X11.377 Y137.656 E14.5935
G1 X11.3 Y136.434 E14.63423
G1 X11.3 Y96.863 E15.95037
G1 X11.34 Y95.979 E15.9798
G1 X11.46 Y95.102 E16.00924
G1 X11.658 Y94.239 E16.03869
G1 X11.933 Y93.398 E16.06812
G1 X12.283 Y92.585 E16.09756
G1 X12.705 Y91.806 E16.12702
G1 X13.196 Y91.07 E16.15645
G1 X13.751 Y90.38 E16.1859
G1 X14.366 Y89.743 E16.21535
G1 X15.036 Y89.165 E16.24478
G1 X15.755 Y88.649 E16.27422
G1 X16.518 Y88.2 E16.30366
G1 X17.319 Y87.822 E16.33312
G1 X18.15 Y87.518 E16.36255
G1 X19.005 Y87.29 E16.39198
G0 F6000 X19.354 Y87.627
G1 F1200 X20.212 Y87.505 E16.42081
G1 X21.078 Y87.463 E16.44965
G1 X21.944 Y87.501 E16.47848
G1 X22.803 Y87.619 E16.50732
G1 X23.93 Y87.905 E16.54599
G1 X24.072 Y87.945 E16.55089
G1 X24.357 Y88.029 E16.56078
G1 X24.582 Y88.099 E16.56861
G1 X27.225 Y88.953 E16.661
G1 X30.078 Y89.803 E16.76001
G1 X36.503 Y91.455 E16.98066
G1 X42.959 Y92.805 E17.20003
G1 X49.451 Y93.848 E17.41872
G1 X56.005 Y94.599 E17.63813
G1 X62.565 Y95.048 E17.85683
G1 X69.181 Y95.197 E18.07694
G1 X75.752 Y95.042 E18.29555
G1 X82.328 Y94.586 E18.51479
G1 X88.87 Y93.83 E18.73383
G1 X95.377 Y92.773 E18.95309
G1 X101.841 Y91.418 E19.17276
G1 X108.197 Y89.777 E19.39109
G1 X114.522 Y87.831 E19.61119
G1 X120.711 Y85.612 E19.82987
G1 X126.801 Y83.108 E20.04888
G1 X132.979 Y80.23 E20.27556
G1 X133.459 Y80.023 E20.29295
G1 X136.217 Y78.92 E20.39174
G1 X139.589 Y77.568 E20.51257
G1 X140.407 Y77.283 E20.54138
G1 X140.992 Y77.129 E20.5615
G1 X147.432 Y75.657 E20.78122
G1 X148.286 Y75.503 E20.81009
G1 X148.884 Y75.443 E20.83008
G1 X155.48 Y74.991 E21.04997
G1 X156.347 Y74.972 E21.07882
G1 X156.945 Y75.005 E21.09874
G1 X163.531 Y75.583 E21.31863
G1 X164.39 Y75.699 E21.34746
G1 X164.978 Y75.825 E21.36746
G1 X171.39 Y77.42 E21.58722
G1 X172.221 Y77.668 E21.61607
G1 X172.78 Y77.883 E21.63599
G1 X178.867 Y80.455 E21.85577
G1 X179.649 Y80.829 E21.88461
G1 X180.169 Y81.13 E21.90459
G1 X185.786 Y84.62 E22.12454
G1 X186.5 Y85.111 E22.15336
G1 X186.967 Y85.488 E22.17332
G1 X191.969 Y89.805 E22.39308
G1 X192.598 Y90.401 E22.4219
G1 X193.001 Y90.847 E22.44189
G1 X197.273 Y95.893 E22.66179
G1 X197.802 Y96.58 E22.69063
G1 X198.13 Y97.082 E22.71058
G1 X201.564 Y102.727 E22.93034
G1 X201.98 Y103.487 E22.95916
G1 X202.226 Y104.035 E22.97914
G1 X204.741 Y110.147 E23.19896
G1 X205.033 Y110.963 E23.22778
G1 X205.191 Y111.542 E23.24775
G1 X206.725 Y117.971 E23.46758
G1 X206.887 Y118.823 E23.49642
G1 X206.953 Y119.421 E23.51643
G1 X207.468 Y126.011 E23.73629
G1 X207.497 Y126.744 E23.76069
G1 X207.496 Y136.435 E24.08301
G1 X207.456 Y137.301 E24.11184
G1 X207.336 Y138.16 E24.14069
G1 X207.138 Y139.004 E24.16953
G1 X206.863 Y139.826 E24.19835
G1 X206.513 Y140.619 E24.22718
G1 X206.092 Y141.377 E24.25602
G1 X205.602 Y142.092 E24.28485
G1 X205.049 Y142.76 E24.3137
G1 X204.437 Y143.373 E24.34251
G1 X203.77 Y143.928 E24.37137
G1 X203.056 Y144.419 E24.40019
G1 X202.299 Y144.842 E24.42903
G1 X201.507 Y145.193 E24.45784
G1 X200.685 Y145.47 E24.48669
G1 X199.841 Y145.671 E24.51555
G1 X198.983 Y145.792 E24.54437
G1 X198.096 Y145.834 E24.5739
G1 X21.1 Y145.834 E30.46081
G1 X20.234 Y145.794 E30.48965
G1 X19.375 Y145.674 E30.5185
G1 X18.531 Y145.476 E30.54733
G1 X17.709 Y145.201 E30.57616
G1 X16.916 Y144.851 E30.60499
G1 X16.158 Y144.43 E30.63383
G1 X15.443 Y143.941 E30.66264
G1 X14.775 Y143.388 E30.69148
G1 X14.161 Y142.775 E30.72034
G1 X13.606 Y142.109 E30.74917
G1 X13.116 Y141.395 E30.77798
G1 X12.692 Y140.638 E30.80683
G1 X12.341 Y139.845 E30.83568
G1 X12.064 Y139.024 E30.8645
G1 X11.864 Y138.18 E30.89335
G1 X11.742 Y137.322 E30.92217
G1 X11.7 Y136.434 E30.95174
G1 X11.7 Y96.863 E32.26787
G1 X11.74 Y95.997 E32.29671
G1 X11.86 Y95.138 E32.32556
G1 X12.058 Y94.294 E32.35439
G1 X12.333 Y93.472 E32.38322
G1 X12.683 Y92.679 E32.41205
G1 X13.104 Y91.921 E32.44089
G1 X13.593 Y91.206 E32.4697
G1 X14.146 Y90.538 E32.49854
G1 X14.759 Y89.924 E32.5274
G1 X15.425 Y89.369 E32.55623
G1 X16.139 Y88.879 E32.58504
G1 X16.896 Y88.455 E32.61389
G1 X17.689 Y88.104 E32.64274
G1 X18.51 Y87.827 E32.67156
G1 X19.354 Y87.627 E32.70041
G0 F6000 X18.867 Y88.144
G1 F1200 X19.698 Y87.973 E32.72862
G1 X20.541 Y87.88 E32.75683
G1 X21.389 Y87.868 E32.78504
G1 X22.235 Y87.935 E32.81327
G1 X23.07 Y88.081 E32.84146
G1 X23.899 Y88.309 E32.87006
G1 X24.459 Y88.479 E32.88952
G1 X27.154 Y89.35 E32.98372
G1 X29.968 Y90.188 E33.08138
G1 X36.392 Y91.841 E33.302
G1 X42.896 Y93.2 E33.523
G1 X49.389 Y94.244 E33.74173
G1 X55.974 Y94.998 E33.96218
G1 X62.55 Y95.447 E34.18141
G1 X69.159 Y95.596 E34.40128
G1 X75.789 Y95.44 E34.62185
G1 X82.355 Y94.985 E34.84076
G1 X88.934 Y94.225 E35.06104
G1 X95.458 Y93.165 E35.28087
G1 X101.916 Y91.811 E35.50034
G1 X108.321 Y90.157 E35.72035
G1 X114.628 Y88.218 E35.93982
G1 X120.865 Y85.981 E36.1602
G1 X126.97 Y83.471 E36.37974
G1 X133.148 Y80.593 E36.60643
G1 X133.608 Y80.394 E36.6231
G1 X136.366 Y79.291 E36.72189
G1 X139.738 Y77.939 E36.84272
G1 X140.539 Y77.661 E36.87093
G1 X141.082 Y77.519 E36.88959
G1 X147.522 Y76.047 E37.10931
G1 X148.357 Y75.897 E37.13753
G1 X148.912 Y75.842 E37.15608
G1 X155.508 Y75.39 E37.37598
G1 X156.356 Y75.372 E37.40419
G1 X156.91 Y75.403 E37.42264
G1 X163.496 Y75.981 E37.64254
G1 X164.336 Y76.095 E37.67073
G1 X164.882 Y76.213 E37.68931
G1 X171.294 Y77.808 E37.90907
G1 X172.106 Y78.052 E37.93727
G1 X172.624 Y78.252 E37.95574
G1 X178.711 Y80.824 E38.17553
G1 X179.476 Y81.19 E38.20373
G1 X179.958 Y81.469 E38.22226
G1 X185.575 Y84.959 E38.4422
G1 X186.273 Y85.441 E38.47042
G1 X186.705 Y85.791 E38.48891
G1 X191.707 Y90.108 E38.70867
G1 X192.323 Y90.692 E38.7369
G1 X192.696 Y91.106 E38.75544
G1 X196.968 Y96.152 E38.97533
G1 X197.485 Y96.824 E39.00353
G1 X197.788 Y97.29 E39.02202
G1 X201.222 Y102.935 E39.24179
G1 X201.628 Y103.679 E39.26998
G1 X201.856 Y104.187 E39.2885
G1 X204.371 Y110.299 E39.50832
G1 X204.656 Y111.098 E39.53654
G1 X204.802 Y111.635 E39.55504
G1 X206.336 Y118.064 E39.77488
G1 X206.494 Y118.898 E39.80311
G1 X206.555 Y119.452 E39.82165
G1 X207.07 Y126.042 E40.0415
G1 X207.097 Y126.744 E40.06487
G1 X207.096 Y136.435 E40.38719
G1 X207.056 Y137.282 E40.41539
G1 X206.936 Y138.122 E40.44361
G1 X206.738 Y138.947 E40.47183
G1 X206.463 Y139.749 E40.50003
G1 X206.114 Y140.522 E40.52824
G1 X205.693 Y141.259 E40.55647
G1 X205.205 Y141.953 E40.58469
G1 X204.654 Y142.598 E40.6129
G1 X204.045 Y143.188 E40.64111
G1 X203.382 Y143.718 E40.66934
G1 X202.673 Y144.183 E40.69754
G1 X201.923 Y144.58 E40.72576
G1 X201.139 Y144.904 E40.75398
G1 X200.328 Y145.153 E40.78219
G1 X199.497 Y145.324 E40.81041
G1 X198.654 Y145.417 E40.83862
G1 X198.096 Y145.434 E40.85719
G1 X21.1 Y145.434 E46.7441
G1 X20.253 Y145.394 E46.7723
G1 X19.413 Y145.274 E46.80052
G1 X18.588 Y145.076 E46.82874
G1 X17.785 Y144.801 E46.85697
G1 X17.012 Y144.452 E46.88518
G1 X16.276 Y144.032 E46.91337
G1 X15.582 Y143.544 E46.94159
G1 X14.937 Y142.993 E46.9698
G1 X14.347 Y142.383 E46.99803
G1 X13.817 Y141.721 E47.02623
G1 X13.351 Y141.012 E47.05445
G1 X12.955 Y140.262 E47.08266
G1 X12.63 Y139.478 E47.11089
G1 X12.381 Y138.667 E47.1391
G1 X12.21 Y137.836 E47.16732
G1 X12.117 Y136.993 E47.19553
G1 X12.1 Y136.434 E47.21413
G1 X12.1 Y96.863 E48.53027
G1 X12.14 Y96.016 E48.55847
G1 X12.26 Y95.176 E48.58669
G1 X12.458 Y94.351 E48.61491
G1 X12.733 Y93.548 E48.64314
G1 X13.082 Y92.775 E48.67135
G1 X13.502 Y92.039 E48.69954
G1 X13.99 Y91.345 E48.72775
G1 X14.541 Y90.7 E48.75597
G1 X15.151 Y90.11 E48.7842
G1 X15.813 Y89.58 E48.8124
G1 X16.522 Y89.114 E48.84062
G1 X17.272 Y88.718 E48.86883
G1 X18.056 Y88.393 E48.89706
G1 X18.867 Y88.144 E48.92527
G0 F6000 X19.22 Y88.471
G1 F1200 X20.037 Y88.329 E48.95285
G1 X20.864 Y88.266 E48.98044
G1 X21.693 Y88.283 E49.00802
G1 X22.516 Y88.38 E49.03558
G1 X23.327 Y88.556 E49.06318
G1 X24.13 Y88.796 E49.09106
G1 X24.336 Y88.86 E49.09823
G1 X27.016 Y89.726 E49.19191
G1 X29.856 Y90.572 E49.29047
G1 X36.318 Y92.234 E49.51239
G1 X42.817 Y93.592 E49.73322
G1 X49.343 Y94.641 E49.95306
G1 X55.924 Y95.395 E50.17338
G1 X62.536 Y95.847 E50.3938
G1 X69.16 Y95.996 E50.61418
G1 X75.805 Y95.84 E50.83525
G1 X82.385 Y95.384 E51.05463
G1 X88.978 Y94.622 E51.27537
G1 X91.901 Y94.15 E51.37385
G1 X95.513 Y93.562 E51.49557
G1 X102.011 Y92.2 E51.71639
G1 X108.432 Y90.541 E51.93696
G1 X114.768 Y88.593 E52.15743
G1 X121 Y86.358 E52.37764
G1 X127.139 Y83.835 E52.59839
G1 X133.317 Y80.956 E52.82509
G1 X133.756 Y80.766 E52.841
G1 X136.522 Y79.66 E52.94008
G1 X139.887 Y78.311 E53.06066
G1 X140.67 Y78.04 E53.08822
G1 X141.171 Y77.909 E53.10544
G1 X147.611 Y76.437 E53.32516
G1 X148.427 Y76.292 E53.35273
G1 X148.939 Y76.241 E53.36984
G1 X155.535 Y75.789 E53.58974
G1 X156.364 Y75.772 E53.61732
G1 X156.875 Y75.802 E53.63434
G1 X163.461 Y76.38 E53.85423
G1 X164.282 Y76.492 E53.88179
G1 X164.785 Y76.601 E53.89891
G1 X171.197 Y78.196 E54.11868
G1 X171.991 Y78.435 E54.14625
G1 X172.468 Y78.62 E54.16327
G1 X178.555 Y81.192 E54.38306
G1 X179.303 Y81.551 E54.41065
G1 X179.747 Y81.809 E54.42773
G1 X185.364 Y85.299 E54.64768
G1 X186.046 Y85.77 E54.67525
G1 X186.444 Y86.093 E54.69229
G1 X191.446 Y90.41 E54.91205
G1 X192.047 Y90.982 E54.93965
G1 X192.391 Y91.364 E54.95675
G1 X196.663 Y96.41 E55.17665
G1 X197.167 Y97.068 E55.20421
G1 X197.446 Y97.497 E55.22124
G1 X200.88 Y103.142 E55.441
G1 X201.277 Y103.871 E55.46861
G1 X201.486 Y104.339 E55.48566
G1 X204.001 Y110.451 E55.70548
G1 X204.279 Y111.233 E55.73308
G1 X204.413 Y111.728 E55.75014
G1 X205.947 Y118.157 E55.96997
G1 X206.101 Y118.972 E55.99756
G1 X206.156 Y119.483 E56.01465
G1 X206.671 Y126.073 E56.23451
G1 X206.697 Y126.744 E56.25684
G1 X206.696 Y136.435 E56.57916
G1 X206.656 Y137.263 E56.60674
G1 X206.536 Y138.084 E56.63433
G1 X206.338 Y138.889 E56.6619
G1 X206.063 Y139.671 E56.68948
G1 X205.715 Y140.424 E56.71707
G1 X205.295 Y141.139 E56.74465
G1 X204.808 Y141.81 E56.77222
G1 X204.259 Y142.432 E56.79982
G1 X203.653 Y142.997 E56.82737
G1 X202.995 Y143.502 E56.85496
G1 X202.292 Y143.941 E56.88253
G1 X201.549 Y144.31 E56.91012
G1 X200.775 Y144.606 E56.93768
G1 X199.975 Y144.826 E56.96528
G1 X199.158 Y144.968 E56.99286
G1 X198.096 Y145.034 E57.02825
G1 X21.1 Y145.034 E62.91516
G1 X20.272 Y144.994 E62.94273
G1 X19.451 Y144.874 E62.97033
G1 X18.646 Y144.676 E62.9979
G1 X17.864 Y144.402 E63.02546
G1 X17.111 Y144.053 E63.05306
G1 X16.396 Y143.633 E63.08064
G1 X15.725 Y143.147 E63.1082
G1 X15.103 Y142.598 E63.13579
G1 X14.537 Y141.992 E63.16337
G1 X14.032 Y141.334 E63.19096
G1 X13.593 Y140.631 E63.21853
G1 X13.224 Y139.888 E63.24612
G1 X12.928 Y139.113 E63.27371
G1 X12.708 Y138.314 E63.30128
G1 X12.566 Y137.497 E63.32886
G1 X12.5 Y136.434 E63.36428
G1 X12.5 Y96.863 E64.68042
G1 X12.54 Y96.035 E64.70799
G1 X12.66 Y95.214 E64.73559
G1 X12.858 Y94.409 E64.76316
G1 X13.132 Y93.627 E64.79072
G1 X13.481 Y92.874 E64.81832
G1 X13.901 Y92.159 E64.8459
G1 X14.387 Y91.488 E64.87346
G1 X14.936 Y90.866 E64.90105
G1 X15.542 Y90.3 E64.92863
G1 X16.2 Y89.795 E64.95622
G1 X16.903 Y89.356 E64.98379
G1 X17.646 Y88.987 E65.01138
G1 X18.421 Y88.691 E65.03897
G1 X19.22 Y88.471 E65.06653
G0 F6000 X19.569 Y88.807
G1 F1200 X20.371 Y88.695 E65.09347
G1 X21.18 Y88.663 E65.1204
G1 X21.988 Y88.711 E65.14732
G1 X22.788 Y88.839 E65.17426
G1 X23.651 Y89.07 E65.20398
G1 X24.213 Y89.241 E65.22352
G1 X26.866 Y90.099 E65.31626
G1 X29.752 Y90.958 E65.41641
G1 X36.223 Y92.622 E65.63863
G1 X42.754 Y93.987 E65.86055
G1 X49.281 Y95.037 E66.08043
G1 X55.894 Y95.794 E66.30182
G1 X62.521 Y96.247 E66.52275
G1 X69.16 Y96.397 E66.74362
G1 X75.819 Y96.24 E66.96516
G1 X82.438 Y95.781 E67.18583
G1 X89.022 Y95.02 E67.40628
G1 X91.958 Y94.545 E67.5052
G1 X95.594 Y93.953 E67.62772
G1 X102.106 Y92.588 E67.84902
G1 X108.537 Y90.927 E68.06994
G1 X114.893 Y88.972 E68.29111
G1 X121.154 Y86.728 E68.51232
G1 X127.289 Y84.205 E68.73296
G1 X133.486 Y81.318 E68.96034
G1 X133.905 Y81.137 E68.97552
G1 X136.663 Y80.034 E69.07432
G1 X140.035 Y78.682 E69.19515
G1 X140.801 Y78.418 E69.2221
G1 X141.26 Y78.299 E69.23787
G1 X147.7 Y76.827 E69.45759
G1 X148.497 Y76.686 E69.48451
G1 X148.966 Y76.64 E69.50018
G1 X155.562 Y76.188 E69.72008
G1 X156.372 Y76.173 E69.74702
G1 X156.84 Y76.2 E69.76262
G1 X163.426 Y76.778 E69.98251
G1 X164.228 Y76.889 E70.00944
G1 X164.688 Y76.99 E70.0251
G1 X171.1 Y78.585 E70.24486
G1 X171.876 Y78.819 E70.27182
G1 X172.313 Y78.989 E70.28742
G1 X178.4 Y81.561 E70.5072
