;FLAVOR:Marlin
;TIME:34241
;Filament used: 25.5694m
;Layer height: 0.2
;MINX:11.29
;MINY:44.015
;MINZ:0.2
;MAXX:208.709
;MAXY:175.985
;MAXZ:3.2
;Generated with Cura_SteamEngine 4.11.0
M140 S50
M105
M190 S50
M104 S200
M105
M109 S200
M82 ;absolute extrusion mode
; Ender 3 Custom Start G-code
G92 E0 ; Reset Extruder
G28 ; Home all axes
G29 ; Auto bed-level (BL-Touch)
G1 Z2.0 F3000 ; Move Z Axis up little to prevent scratching of Heat Bed
G1 X0.1 Y20 Z0.3 F5000.0 ; Move to start position
G1 X0.1 Y200.0 Z0.3 F1500.0 E15 ; Draw the first line
G1 X0.4 Y200.0 Z0.3 F5000.0 ; Move to side a little
G1 X0.4 Y20 Z0.3 F1500.0 E30 ; Draw the second line
G92 E0 ; Reset Extruder
G1 Z2.0 F3000 ; Move Z Axis up little to prevent scratching of Heat Bed
G1 X5 Y20 Z0.3 F5000.0 ; Move over to prevent blob squish
G92 E0
G92 E0
G1 F2700 E-5
;LAYER_COUNT:16
;LAYER:0
M107
G0 F6000 X17.328 Y44.774 Z0.2
;TYPE:SKIRT
G1 F2700 E0
G1 F1200 X18.159 Y44.47 E0.02943
G1 X19.014 Y44.242 E0.05886
G1 X19.887 Y44.092 E0.08832
G1 X21.109 Y44.015 E0.12905
G1 X198.909 Y44.015 E6.0427
G1 X199.793 Y44.055 E6.07213
G1 X200.67 Y44.175 E6.10157
G1 X201.533 Y44.373 E6.13102
G1 X202.374 Y44.648 E6.16045
G1 X203.187 Y44.998 E6.18989
G1 X203.966 Y45.42 E6.21936
G1 X204.702 Y45.911 E6.24879
G1 X205.392 Y46.466 E6.27824
G1 X206.029 Y47.081 E6.30769
G1 X206.607 Y47.751 E6.33712
G1 X207.123 Y48.47 E6.36655
G1 X207.572 Y49.233 E6.396
G1 X207.95 Y50.034 E6.42546
G1 X208.254 Y50.865 E6.45489
G1 X208.482 Y51.72 E6.48432
G1 X208.632 Y52.593 E6.51378
G1 X208.709 Y53.815 E6.5545
G1 X208.709 Y86.286 E7.63449
G1 X208.669 Y87.17 E7.66393
G1 X208.549 Y88.047 E7.69337
G1 X208.351 Y88.91 E7.72282
G1 X208.076 Y89.751 E7.75225
G1 X207.968 Y90.002 E7.76133
G1 X208.161 Y90.492 E7.77885
G1 X208.41 Y91.342 E7.80831
G1 X208.582 Y92.21 E7.83774
G1 X208.674 Y93.09 E7.86717
G1 X208.691 Y93.67 E7.88647
G1 X208.691 Y166.185 E10.29833
G1 X208.651 Y167.069 E10.32776
G1 X208.531 Y167.946 E10.3572
G1 X208.333 Y168.809 E10.38665
G1 X208.058 Y169.65 E10.41608
G1 X207.708 Y170.463 E10.44552
G1 X207.286 Y171.242 E10.47499
G1 X206.795 Y171.978 E10.50441
G1 X206.24 Y172.668 E10.53386
G1 X205.625 Y173.305 E10.56331
G1 X204.955 Y173.883 E10.59274
G1 X204.236 Y174.399 E10.62218
G1 X203.473 Y174.848 E10.65163
G1 X202.672 Y175.226 E10.68108
G1 X201.841 Y175.53 E10.71051
G1 X200.986 Y175.758 E10.73995
G1 X200.113 Y175.908 E10.76941
G1 X198.891 Y175.985 E10.81013
G1 X21.091 Y175.985 E16.72378
G1 X20.207 Y175.945 E16.75322
G1 X19.33 Y175.825 E16.78266
G1 X18.467 Y175.627 E16.81211
G1 X17.626 Y175.352 E16.84154
G1 X16.813 Y175.002 E16.87098
G1 X16.034 Y174.58 E16.90044
G1 X15.298 Y174.089 E16.92987
G1 X14.608 Y173.534 E16.95932
G1 X13.971 Y172.919 E16.98877
G1 X13.393 Y172.249 E17.0182
G1 X12.877 Y171.53 E17.04764
G1 X12.428 Y170.767 E17.07708
G1 X12.05 Y169.966 E17.10654
G1 X11.746 Y169.135 E17.13597
G1 X11.518 Y168.28 E17.1654
G1 X11.368 Y167.407 E17.19486
G1 X11.291 Y166.185 E17.23559
G1 X11.29 Y93.083 E19.66697
G1 X11.33 Y92.199 E19.6964
G1 X11.45 Y91.322 E19.72584
G1 X11.648 Y90.459 E19.75529
G1 X11.923 Y89.618 E19.78472
G1 X12.027 Y89.377 E19.79345
G1 X11.941 Y89.178 E19.80066
G1 X11.666 Y88.337 E19.83009
G1 X11.468 Y87.474 E19.85954
G1 X11.349 Y86.597 E19.88898
G1 X11.309 Y85.716 E19.91831
G1 X11.309 Y53.815 E20.97934
G1 X11.349 Y52.931 E21.00877
G1 X11.469 Y52.054 E21.03822
G1 X11.667 Y51.191 E21.06766
G1 X11.942 Y50.35 E21.09709
G1 X12.292 Y49.537 E21.12653
G1 X12.714 Y48.758 E21.156
G1 X13.205 Y48.022 E21.18543
G1 X13.76 Y47.332 E21.21488
G1 X14.375 Y46.695 E21.24433
G1 X15.045 Y46.117 E21.27376
G1 X15.764 Y45.601 E21.3032
G1 X16.527 Y45.152 E21.33264
G1 X17.328 Y44.774 E21.3621
G0 F6000 X17.698 Y45.056
G1 F1200 X18.519 Y44.779 E21.39092
G1 X19.363 Y44.579 E21.41977
G1 X20.221 Y44.457 E21.44859
G1 X21.109 Y44.415 E21.47816
G1 X198.909 Y44.415 E27.39181
G1 X199.775 Y44.455 E27.42065
G1 X200.634 Y44.575 E27.44949
G1 X201.478 Y44.773 E27.47833
G1 X202.3 Y45.048 E27.50716
G1 X203.093 Y45.398 E27.53599
G1 X203.851 Y45.819 E27.56483
G1 X204.566 Y46.308 E27.59364
G1 X205.234 Y46.861 E27.62248
G1 X205.848 Y47.474 E27.65134
G1 X206.403 Y48.14 E27.68017
G1 X206.893 Y48.854 E27.70897
G1 X207.317 Y49.611 E27.73783
G1 X207.668 Y50.404 E27.76667
G1 X207.945 Y51.225 E27.79549
G1 X208.145 Y52.069 E27.82434
G1 X208.267 Y52.927 E27.85317
G1 X208.309 Y53.815 E27.88273
G1 X208.309 Y86.286 E28.96272
G1 X208.269 Y87.152 E28.99156
G1 X208.149 Y88.011 E29.02041
G1 X207.951 Y88.855 E29.04924
G1 X207.676 Y89.677 E29.07807
G1 X207.535 Y89.996 E29.08967
G1 X207.618 Y90.178 E29.09632
G1 X207.903 Y90.997 E29.12516
G1 X208.111 Y91.838 E29.15398
G1 X208.24 Y92.695 E29.1828
G1 X208.291 Y93.67 E29.21528
G1 X208.291 Y166.185 E31.62714
G1 X208.251 Y167.051 E31.65597
G1 X208.131 Y167.91 E31.68482
G1 X207.933 Y168.754 E31.71365
G1 X207.658 Y169.576 E31.74248
G1 X207.308 Y170.369 E31.77131
G1 X206.887 Y171.127 E31.80015
G1 X206.398 Y171.842 E31.82896
G1 X205.845 Y172.51 E31.8578
G1 X205.232 Y173.124 E31.88666
G1 X204.566 Y173.679 E31.9155
G1 X203.852 Y174.169 E31.9443
G1 X203.095 Y174.593 E31.97316
G1 X202.302 Y174.944 E32.002
G1 X201.481 Y175.221 E32.03082
G1 X200.637 Y175.421 E32.05967
G1 X199.779 Y175.543 E32.08849
G1 X198.891 Y175.585 E32.11806
G1 X21.091 Y175.585 E38.03171
G1 X20.225 Y175.545 E38.06055
G1 X19.366 Y175.425 E38.08939
G1 X18.522 Y175.227 E38.11823
G1 X17.7 Y174.952 E38.14706
G1 X16.907 Y174.602 E38.17589
G1 X16.149 Y174.181 E38.20472
G1 X15.434 Y173.692 E38.23354
G1 X14.766 Y173.139 E38.26238
G1 X14.152 Y172.526 E38.29124
G1 X13.597 Y171.86 E38.32007
G1 X13.107 Y171.146 E38.34887
G1 X12.683 Y170.389 E38.37773
G1 X12.332 Y169.596 E38.40657
G1 X12.055 Y168.775 E38.43539
G1 X11.855 Y167.931 E38.46424
G1 X11.733 Y167.073 E38.49307
G1 X11.691 Y166.185 E38.52263
G1 X11.69 Y93.083 E40.95402
G1 X11.73 Y92.217 E40.98285
G1 X11.85 Y91.358 E41.0117
G1 X12.048 Y90.514 E41.04053
G1 X12.323 Y89.692 E41.06936
G1 X12.462 Y89.377 E41.08081
G1 X12.284 Y88.953 E41.09611
G1 X12.023 Y88.126 E41.12495
G1 X11.84 Y87.279 E41.15377
G1 X11.735 Y86.418 E41.18262
G1 X11.709 Y85.716 E41.20599
G1 X11.709 Y53.815 E42.26702
G1 X11.749 Y52.949 E42.29585
G1 X11.869 Y52.09 E42.3247
G1 X12.067 Y51.246 E42.35353
G1 X12.342 Y50.424 E42.38236
G1 X12.692 Y49.631 E42.41119
G1 X13.113 Y48.873 E42.44003
G1 X13.602 Y48.158 E42.46884
G1 X14.155 Y47.49 E42.49769
G1 X14.768 Y46.876 E42.52654
G1 X15.434 Y46.321 E42.55538
G1 X16.148 Y45.831 E42.58418
G1 X16.905 Y45.407 E42.61304
G1 X17.698 Y45.056 E42.64188
G0 F6000 X17.281 Y45.67
G1 F1200 X18.065 Y45.345 E42.67011
G1 X18.876 Y45.096 E42.69833
G1 X19.707 Y44.925 E42.72654
G1 X20.55 Y44.832 E42.75475
G1 X21.109 Y44.815 E42.77335
G1 X198.909 Y44.815 E48.68701
G1 X199.756 Y44.855 E48.71521
G1 X200.596 Y44.975 E48.74343
G1 X201.421 Y45.173 E48.77165
G1 X202.224 Y45.448 E48.79988
G1 X202.997 Y45.797 E48.82809
G1 X203.733 Y46.217 E48.85627
G1 X204.427 Y46.705 E48.88449
G1 X205.072 Y47.256 E48.91271
G1 X205.662 Y47.866 E48.94093
G1 X206.192 Y48.528 E48.96914
G1 X206.658 Y49.237 E48.99736
G1 X207.054 Y49.987 E49.02557
G1 X207.379 Y50.771 E49.05379
G1 X207.628 Y51.582 E49.08201
G1 X207.799 Y52.413 E49.11023
G1 X207.892 Y53.256 E49.13844
G1 X207.909 Y53.815 E49.15704
G1 X207.909 Y86.286 E50.23703
G1 X207.869 Y87.133 E50.26523
G1 X207.749 Y87.973 E50.29345
G1 X207.551 Y88.798 E50.32167
G1 X207.276 Y89.601 E50.3499
G1 X207.1 Y89.991 E50.36413
G1 X207.382 Y90.685 E50.38905
G1 X207.625 Y91.498 E50.41727
G1 X207.791 Y92.33 E50.44549
G1 X207.877 Y93.174 E50.47371
G1 X207.891 Y93.67 E50.49021
G1 X207.891 Y166.185 E52.90207
G1 X207.851 Y167.032 E52.93027
G1 X207.731 Y167.872 E52.95849
G1 X207.533 Y168.697 E52.98671
G1 X207.258 Y169.5 E53.01494
G1 X206.909 Y170.273 E53.04315
G1 X206.489 Y171.009 E53.07134
G1 X206.001 Y171.703 E53.09955
G1 X205.45 Y172.348 E53.12777
G1 X204.84 Y172.938 E53.15599
G1 X204.178 Y173.468 E53.1842
G1 X203.469 Y173.934 E53.21242
G1 X202.719 Y174.33 E53.24063
G1 X201.935 Y174.655 E53.26886
G1 X201.124 Y174.904 E53.29707
G1 X200.293 Y175.075 E53.32529
G1 X199.45 Y175.168 E53.3535
G1 X198.891 Y175.185 E53.3721
G1 X21.091 Y175.185 E59.28575
G1 X20.244 Y175.145 E59.31395
G1 X19.404 Y175.025 E59.34218
G1 X18.579 Y174.827 E59.3704
G1 X17.776 Y174.552 E59.39863
G1 X17.003 Y174.203 E59.42683
G1 X16.267 Y173.783 E59.45502
G1 X15.573 Y173.295 E59.48324
G1 X14.928 Y172.744 E59.51145
G1 X14.338 Y172.134 E59.53968
G1 X13.808 Y171.472 E59.56788
G1 X13.342 Y170.763 E59.5961
G1 X12.946 Y170.013 E59.62431
G1 X12.621 Y169.229 E59.65254
G1 X12.372 Y168.418 E59.68076
G1 X12.201 Y167.587 E59.70897
G1 X12.108 Y166.744 E59.73718
G1 X12.091 Y166.185 E59.75578
G1 X12.09 Y93.083 E62.18717
G1 X12.13 Y92.236 E62.21537
G1 X12.25 Y91.396 E62.24359
G1 X12.448 Y90.571 E62.27181
G1 X12.723 Y89.769 E62.30001
G1 X12.897 Y89.384 E62.31406
G1 X12.628 Y88.729 E62.33761
G1 X12.382 Y87.918 E62.3658
G1 X12.214 Y87.086 E62.39403
G1 X12.124 Y86.243 E62.42223
G1 X12.109 Y85.716 E62.43976
G1 X12.109 Y53.815 E63.5008
G1 X12.149 Y52.968 E63.529
G1 X12.269 Y52.128 E63.55722
G1 X12.467 Y51.303 E63.58544
G1 X12.742 Y50.5 E63.61367
G1 X13.091 Y49.727 E63.64188
G1 X13.511 Y48.991 E63.67006
G1 X13.999 Y48.297 E63.69828
G1 X14.55 Y47.652 E63.7265
G1 X15.16 Y47.062 E63.75472
G1 X15.822 Y46.532 E63.78293
G1 X16.531 Y46.066 E63.81115
G1 X17.281 Y45.67 E63.83936
G0 F6000 X17.655 Y45.939
G1 F1200 X18.43 Y45.643 E63.86695
G1 X19.229 Y45.423 E63.89451
G1 X20.046 Y45.281 E63.92209
G1 X21.109 Y45.215 E63.95752
G1 X198.909 Y45.215 E69.87117
G1 X199.737 Y45.255 E69.89874
G1 X200.558 Y45.375 E69.92634
G1 X201.363 Y45.573 E69.95391
G1 X202.145 Y45.847 E69.98147
G1 X202.898 Y46.196 E70.00907
G1 X203.613 Y46.616 E70.03665
G1 X204.284 Y47.102 E70.06421
G1 X204.906 Y47.651 E70.0918
G1 X205.472 Y48.257 E70.11938
G1 X205.977 Y48.915 E70.14697
G1 X206.416 Y49.618 E70.17454
G1 X206.785 Y50.361 E70.20213
G1 X207.081 Y51.136 E70.22972
G1 X207.301 Y51.935 E70.25729
G1 X207.443 Y52.752 E70.28487
G1 X207.509 Y53.815 E70.32029
G1 X207.509 Y86.286 E71.40028
G1 X207.469 Y87.114 E71.42785
G1 X207.349 Y87.935 E71.45545
G1 X207.151 Y88.74 E71.48302
G1 X206.877 Y89.522 E71.51058
G1 X206.657 Y89.998 E71.52802
G1 X206.849 Y90.408 E71.54308
G1 X207.126 Y91.19 E71.57067
G1 X207.326 Y91.995 E71.59826
G1 X207.448 Y92.815 E71.62583
G1 X207.491 Y93.67 E71.65431
G1 X207.491 Y166.185 E74.06617
G1 X207.451 Y167.013 E74.09374
G1 X207.331 Y167.834 E74.12133
G1 X207.133 Y168.639 E74.14891
G1 X206.859 Y169.421 E74.17647
G1 X206.51 Y170.174 E74.20407
G1 X206.09 Y170.889 E74.23165
G1 X205.604 Y171.56 E74.25921
G1 X205.055 Y172.182 E74.2868
G1 X204.449 Y172.748 E74.31438
G1 X203.791 Y173.253 E74.34197
G1 X203.088 Y173.692 E74.36953
G1 X202.345 Y174.061 E74.39713
G1 X201.57 Y174.357 E74.42472
G1 X200.771 Y174.577 E74.45228
G1 X199.954 Y174.719 E74.47986
G1 X198.891 Y174.785 E74.51529
G1 X21.091 Y174.785 E80.42894
G1 X20.263 Y174.745 E80.45651
G1 X19.442 Y174.625 E80.48411
G1 X18.637 Y174.427 E80.51168
G1 X17.855 Y174.153 E80.53924
G1 X17.102 Y173.804 E80.56684
G1 X16.387 Y173.384 E80.59442
G1 X15.716 Y172.898 E80.62198
G1 X15.094 Y172.349 E80.64958
G1 X14.528 Y171.743 E80.67715
G1 X14.023 Y171.085 E80.70474
G1 X13.584 Y170.382 E80.73231
G1 X13.215 Y169.639 E80.7599
G1 X12.919 Y168.864 E80.78749
G1 X12.699 Y168.065 E80.81506
G1 X12.557 Y167.248 E80.84264
G1 X12.491 Y166.185 E80.87806
G1 X12.49 Y93.083 E83.30944
G1 X12.53 Y92.255 E83.33702
G1 X12.65 Y91.434 E83.36461
G1 X12.848 Y90.629 E83.39218
G1 X13.122 Y89.847 E83.41974
G1 X13.336 Y89.385 E83.43668
G1 X13.281 Y89.278 E83.44068
G1 X12.975 Y88.507 E83.46827
G1 X12.744 Y87.711 E83.49584
G1 X12.59 Y86.896 E83.52342
G1 X12.509 Y85.716 E83.56276
G1 X12.509 Y53.815 E84.6238
G1 X12.549 Y52.987 E84.65137
G1 X12.669 Y52.166 E84.67896
G1 X12.867 Y51.361 E84.70654
G1 X13.141 Y50.579 E84.7341
G1 X13.49 Y49.826 E84.7617
G1 X13.91 Y49.111 E84.78928
G1 X14.396 Y48.44 E84.81684
G1 X14.945 Y47.818 E84.84443
G1 X15.551 Y47.252 E84.87201
G1 X16.209 Y46.747 E84.8996
G1 X16.912 Y46.308 E84.92716
G1 X17.655 Y45.939 E84.95476
G0 F6000 X18.026 Y46.216
G1 F1200 X18.791 Y45.95 E84.98169
G1 X19.578 Y45.759 E85.00863
G1 X20.38 Y45.647 E85.03556
G1 X21.109 Y45.615 E85.05983
G1 X198.909 Y45.615 E90.97349
G1 X199.718 Y45.655 E91.00043
G1 X200.519 Y45.775 E91.02736
G1 X201.304 Y45.972 E91.05428
G1 X202.065 Y46.247 E91.0812
G1 X202.796 Y46.595 E91.10812
G1 X203.49 Y47.014 E91.13509
G1 X204.138 Y47.499 E91.16201
G1 X204.735 Y48.045 E91.18892
G1 X205.276 Y48.648 E91.21586
G1 X205.755 Y49.301 E91.2428
G1 X206.166 Y49.998 E91.26971
G1 X206.508 Y50.732 E91.29664
G1 X206.774 Y51.497 E91.32358
G1 X206.965 Y52.284 E91.35052
G1 X207.077 Y53.086 E91.37745
G1 X207.109 Y53.815 E91.40172
G1 X207.109 Y86.286 E92.48171
G1 X207.069 Y87.095 E92.50865
G1 X206.949 Y87.896 E92.53559
G1 X206.752 Y88.681 E92.56251
G1 X206.477 Y89.442 E92.58942
G1 X206.214 Y89.995 E92.60979
G1 X206.306 Y90.168 E92.6163
G1 X206.615 Y90.916 E92.64322
G1 X206.849 Y91.691 E92.67015
G1 X207.005 Y92.486 E92.69709
G1 X207.091 Y93.67 E92.73658
G1 X207.091 Y166.185 E95.14844
G1 X207.051 Y166.994 E95.17538
G1 X206.931 Y167.795 E95.20231
G1 X206.734 Y168.58 E95.22923
G1 X206.459 Y169.341 E95.25615
G1 X206.111 Y170.072 E95.28307
G1 X205.692 Y170.766 E95.31004
G1 X205.207 Y171.414 E95.33696
G1 X204.661 Y172.011 E95.36387
G1 X204.058 Y172.552 E95.39081
G1 X203.405 Y173.031 E95.41775
G1 X202.708 Y173.442 E95.44466
G1 X201.974 Y173.784 E95.47159
G1 X201.209 Y174.05 E95.49853
G1 X200.422 Y174.241 E95.52547
G1 X199.62 Y174.353 E95.5524
G1 X198.891 Y174.385 E95.57667
G1 X21.091 Y174.385 E101.49032
G1 X20.282 Y174.345 E101.51726
G1 X19.481 Y174.225 E101.5442
G1 X18.696 Y174.028 E101.57112
G1 X17.935 Y173.753 E101.59803
G1 X17.204 Y173.405 E101.62496
G1 X16.51 Y172.986 E101.65192
G1 X15.862 Y172.501 E101.67884
G1 X15.265 Y171.955 E101.70575
G1 X14.724 Y171.352 E101.7327
G1 X14.245 Y170.699 E101.75963
G1 X13.834 Y170.002 E101.78655
G1 X13.492 Y169.268 E101.81348
G1 X13.226 Y168.503 E101.84042
G1 X13.035 Y167.716 E101.86735
G1 X12.923 Y166.914 E101.89429
G1 X12.891 Y166.185 E101.91856
G1 X12.89 Y93.083 E104.34994
G1 X12.93 Y92.274 E104.37688
G1 X13.049 Y91.474 E104.40378
G1 X13.247 Y90.688 E104.43074
G1 X13.522 Y89.927 E104.45765
G1 X13.783 Y89.378 E104.47787
G1 X13.614 Y89.043 E104.49035
G1 X13.323 Y88.287 E104.51729
G1 X13.107 Y87.507 E104.54421
G1 X12.969 Y86.709 E104.57115
G1 X12.909 Y85.716 E104.60423
G1 X12.909 Y53.815 E105.66527
G1 X12.949 Y53.006 E105.69221
G1 X13.069 Y52.205 E105.71914
G1 X13.266 Y51.42 E105.74606
G1 X13.541 Y50.659 E105.77298
G1 X13.889 Y49.928 E105.7999
G1 X14.308 Y49.234 E105.82687
G1 X14.793 Y48.586 E105.85379
G1 X15.339 Y47.989 E105.8807
G1 X15.942 Y47.448 E105.90764
G1 X16.595 Y46.969 E105.93458
G1 X17.292 Y46.558 E105.96149
G1 X18.026 Y46.216 E105.98842
G0 F6000 X18.395 Y46.502
G1 F1200 X19.148 Y46.265 E106.01468
G1 X19.922 Y46.106 E106.04096
G1 X20.707 Y46.025 E106.06721
G1 X21.109 Y46.015 E106.08058
G1 X198.909 Y46.015 E111.99423
G1 X199.698 Y46.055 E112.02051
G1 X200.478 Y46.174 E112.04675
G1 X201.243 Y46.372 E112.07304
G1 X201.983 Y46.646 E112.09928
G1 X202.692 Y46.994 E112.12555
G1 X203.363 Y47.412 E112.15184
G1 X203.987 Y47.895 E112.17809
G1 X204.56 Y48.438 E112.20434
G1 X205.075 Y49.037 E112.23062
G1 X205.526 Y49.685 E112.25688
G1 X205.91 Y50.376 E112.28317
G1 X206.222 Y51.101 E112.30942
G1 X206.459 Y51.854 E112.33568
G1 X206.618 Y52.628 E112.36196
G1 X206.699 Y53.413 E112.38821
G1 X206.709 Y53.815 E112.40158
G1 X206.709 Y86.286 E113.48157
G1 X206.669 Y87.075 E113.50785
G1 X206.55 Y87.855 E113.53409
G1 X206.352 Y88.62 E113.56037
G1 X206.078 Y89.36 E113.58662
G1 X205.768 Y89.992 E113.61003
G1 X206.094 Y90.678 E113.63529
G1 X206.36 Y91.421 E113.66154
G1 X206.549 Y92.188 E113.68782
G1 X206.66 Y92.97 E113.71409
G1 X206.691 Y93.67 E113.73739
G1 X206.691 Y166.185 E116.14925
G1 X206.651 Y166.974 E116.17552
G1 X206.532 Y167.754 E116.20177
G1 X206.334 Y168.519 E116.22805
G1 X206.06 Y169.259 E116.2543
G1 X205.712 Y169.968 E116.28056
G1 X205.294 Y170.639 E116.30686
G1 X204.811 Y171.263 E116.3331
