;FLAVOR:Marlin
;TIME:13043
;Filament used: 8.17741m
;Layer height: 0.2
;MINX:81.317
;MINY:91.056
;MINZ:0.2
;MAXX:138.682
;MAXY:128.944
;MAXZ:44.4
;Generated with Cura_SteamEngine 4.11.0
M140 S50
M105
M190 S50
M104 S200
M105
M109 S200
M82 ;absolute extrusion mode
; Ender 3 Custom Start G-code
G92 E0 ; Reset Extruder
G28 ; Home all axes
G29 ; Auto bed-level (BL-Touch)
G1 Z2.0 F3000 ; Move Z Axis up little to prevent scratching of Heat Bed
G1 X0.1 Y20 Z0.3 F5000.0 ; Move to start position
G1 X0.1 Y200.0 Z0.3 F1500.0 E15 ; Draw the first line
G1 X0.4 Y200.0 Z0.3 F5000.0 ; Move to side a little
G1 X0.4 Y20 Z0.3 F1500.0 E30 ; Draw the second line
G92 E0 ; Reset Extruder
G1 Z2.0 F3000 ; Move Z Axis up little to prevent scratching of Heat Bed
G1 X5 Y20 Z0.3 F5000.0 ; Move over to prevent blob squish
G92 E0
G92 E0
G1 F2700 E-5
;LAYER_COUNT:222
;LAYER:0
M107
G0 F6000 X84.383 Y93.736 Z0.2
;TYPE:SKIRT
G1 F2700 E0
G1 F1200 X85.053 Y93.158 E0.02943
G1 X85.772 Y92.642 E0.05887
G1 X86.535 Y92.193 E0.08831
G1 X87.336 Y91.815 E0.11777
G1 X88.167 Y91.511 E0.1472
G1 X89.022 Y91.283 E0.17663
G1 X89.895 Y91.133 E0.20609
G1 X91.117 Y91.056 E0.24682
G1 X110.183 Y91.056 E0.88096
G1 X111.067 Y91.096 E0.91039
G1 X111.944 Y91.216 E0.93983
G1 X112.807 Y91.414 E0.96928
G1 X113.648 Y91.689 E0.99871
G1 X114.324 Y91.974 E1.02311
G1 X132.662 Y100.524 E1.69607
G1 X133.447 Y100.934 E1.72552
G1 X134.191 Y101.413 E1.75495
G1 X134.831 Y101.907 E1.78184
G1 X135.077 Y102.114 E1.79254
G1 X135.728 Y102.714 E1.82198
G1 X136.322 Y103.371 E1.85144
G1 X136.854 Y104.078 E1.88087
G1 X137.321 Y104.83 E1.91031
G1 X137.875 Y105.995 E1.95322
G1 X137.991 Y106.287 E1.96367
G1 X138.28 Y107.123 E1.99309
G1 X138.493 Y107.983 E2.02256
G1 X138.627 Y108.858 E2.052
G1 X138.682 Y109.741 E2.08143
G1 X138.656 Y110.626 E2.11087
G1 X138.602 Y111.166 E2.12892
G1 X138.561 Y111.482 E2.13952
G1 X138.407 Y112.354 E2.16897
G1 X138.176 Y113.208 E2.1984
G1 X137.868 Y114.038 E2.22784
G1 X137.487 Y114.837 E2.25729
G1 X137.035 Y115.598 E2.28672
G1 X136.723 Y116.046 E2.30488
G1 X136.536 Y116.299 E2.31535
G1 X135.978 Y116.986 E2.34478
G1 X135.361 Y117.621 E2.37423
G1 X134.688 Y118.197 E2.40369
G1 X133.813 Y118.807 E2.43917
G1 X133.666 Y118.898 E2.44492
G1 X132.649 Y119.447 E2.48336
G1 X114.25 Y128.026 E3.15857
G1 X113.432 Y128.363 E3.18799
G1 X112.587 Y128.626 E3.21743
G1 X111.721 Y128.811 E3.24688
G1 X110.842 Y128.917 E3.27633
G1 X110.109 Y128.944 E3.30073
G1 X91.117 Y128.944 E3.9324
G1 X90.233 Y128.904 E3.96183
G1 X89.356 Y128.784 E3.99127
G1 X88.493 Y128.586 E4.02072
G1 X87.652 Y128.311 E4.05015
G1 X86.839 Y127.961 E4.07959
G1 X86.06 Y127.539 E4.10906
G1 X85.324 Y127.048 E4.13849
G1 X84.634 Y126.493 E4.16794
G1 X83.997 Y125.878 E4.19739
G1 X83.419 Y125.208 E4.22682
G1 X82.903 Y124.489 E4.25625
G1 X82.454 Y123.726 E4.2857
G1 X82.076 Y122.925 E4.31516
G1 X81.772 Y122.094 E4.34459
G1 X81.544 Y121.239 E4.37402
G1 X81.394 Y120.366 E4.40348
G1 X81.317 Y119.144 E4.44421
G1 X81.317 Y100.856 E5.05247
G1 X81.357 Y99.972 E5.0819
G1 X81.477 Y99.095 E5.11134
G1 X81.675 Y98.232 E5.14079
G1 X81.95 Y97.391 E5.17022
G1 X82.3 Y96.578 E5.19966
G1 X82.722 Y95.799 E5.22913
G1 X83.213 Y95.063 E5.25855
G1 X83.768 Y94.373 E5.28801
G1 X84.383 Y93.736 E5.31745
G0 F6000 X84.776 Y93.917
G1 F1200 X85.442 Y93.362 E5.34629
G1 X86.156 Y92.872 E5.37509
G1 X86.913 Y92.448 E5.40395
G1 X87.706 Y92.097 E5.43279
G1 X88.527 Y91.82 E5.46161
G1 X89.371 Y91.62 E5.49046
G1 X90.229 Y91.498 E5.51929
G1 X91.117 Y91.456 E5.54885
G1 X110.183 Y91.456 E6.18299
G1 X111.049 Y91.496 E6.21183
G1 X111.908 Y91.616 E6.24067
G1 X112.752 Y91.814 E6.26951
G1 X113.574 Y92.089 E6.29834
G1 X114.155 Y92.337 E6.31935
G1 X132.493 Y100.887 E6.99231
G1 X133.261 Y101.289 E7.02114
G1 X133.989 Y101.76 E7.04998
G1 X134.573 Y102.214 E7.07458
G1 X134.819 Y102.421 E7.08527
G1 X135.456 Y103.009 E7.11411
G1 X136.036 Y103.653 E7.14293
G1 X136.554 Y104.348 E7.17176
G1 X137.006 Y105.088 E7.2006
G1 X137.503 Y106.143 E7.23939
G1 X137.619 Y106.435 E7.24984
G1 X137.901 Y107.254 E7.27865
G1 X138.107 Y108.096 E7.30748
G1 X138.235 Y108.954 E7.33634
G1 X138.283 Y109.819 E7.36515
G1 X138.205 Y111.114 E7.4083
G1 X138.164 Y111.43 E7.4189
G1 X138.013 Y112.284 E7.44774
G1 X137.784 Y113.12 E7.47657
G1 X137.479 Y113.932 E7.50542
G1 X137.1 Y114.712 E7.53427
G1 X136.651 Y115.453 E7.56308
G1 X136.401 Y115.808 E7.57752
G1 X136.214 Y116.061 E7.58799
G1 X135.667 Y116.734 E7.61683
G1 X135.061 Y117.353 E7.64565
G1 X134.4 Y117.914 E7.67448
G1 X133.603 Y118.466 E7.70673
G1 X133.456 Y118.557 E7.71248
G1 X132.48 Y119.084 E7.74937
G1 X114.081 Y127.663 E8.42458
G1 X113.28 Y127.993 E8.45339
G1 X112.451 Y128.248 E8.48224
G1 X111.602 Y128.425 E8.51108
G1 X110.741 Y128.523 E8.5399
G1 X110.109 Y128.544 E8.56094
G1 X91.117 Y128.544 E9.19261
G1 X90.251 Y128.504 E9.22145
G1 X89.392 Y128.384 E9.25029
G1 X88.548 Y128.186 E9.27913
G1 X87.726 Y127.911 E9.30796
G1 X86.933 Y127.561 E9.33679
G1 X86.175 Y127.14 E9.36563
G1 X85.46 Y126.651 E9.39444
G1 X84.792 Y126.098 E9.42328
G1 X84.178 Y125.485 E9.45214
G1 X83.623 Y124.819 E9.48097
G1 X83.133 Y124.105 E9.50977
G1 X82.709 Y123.348 E9.53863
G1 X82.358 Y122.555 E9.56748
G1 X82.081 Y121.734 E9.59629
G1 X81.881 Y120.89 E9.62514
G1 X81.759 Y120.032 E9.65397
G1 X81.717 Y119.144 E9.68354
G1 X81.717 Y100.856 E10.2918
G1 X81.757 Y99.99 E10.32063
G1 X81.877 Y99.131 E10.34948
G1 X82.075 Y98.287 E10.37831
G1 X82.35 Y97.465 E10.40714
G1 X82.7 Y96.672 E10.43597
G1 X83.121 Y95.914 E10.46481
G1 X83.61 Y95.199 E10.49362
G1 X84.163 Y94.531 E10.52246
G1 X84.776 Y93.917 E10.55132
G0 F6000 X85.168 Y94.103
G1 F1200 X85.83 Y93.573 E10.57953
G1 X86.539 Y93.107 E10.60775
G1 X87.289 Y92.711 E10.63595
G1 X88.073 Y92.386 E10.66418
G1 X88.884 Y92.137 E10.6924
G1 X89.715 Y91.966 E10.72062
G1 X90.558 Y91.873 E10.74883
G1 X91.117 Y91.856 E10.76743
G1 X110.183 Y91.856 E11.40156
G1 X111.03 Y91.896 E11.42977
G1 X111.87 Y92.016 E11.45799
G1 X112.695 Y92.214 E11.48621
G1 X113.498 Y92.489 E11.51444
G1 X113.986 Y92.699 E11.53211
G1 X132.324 Y101.249 E12.20507
G1 X133.075 Y101.643 E12.23328
G1 X133.786 Y102.107 E12.26152
G1 X134.316 Y102.52 E12.28386
G1 X134.562 Y102.727 E12.29456
G1 X135.184 Y103.303 E12.32275
G1 X135.75 Y103.935 E12.35097
G1 X136.253 Y104.618 E12.37918
G1 X136.69 Y105.345 E12.4074
G1 X137.131 Y106.29 E12.44208
G1 X137.247 Y106.582 E12.45253
G1 X137.523 Y107.384 E12.48074
G1 X137.722 Y108.209 E12.50897
G1 X137.842 Y109.049 E12.53719
G1 X137.883 Y109.896 E12.56539
G1 X137.808 Y111.063 E12.60429
G1 X137.767 Y111.379 E12.61489
G1 X137.619 Y112.214 E12.64309
G1 X137.392 Y113.032 E12.67133
G1 X137.089 Y113.824 E12.69953
G1 X136.713 Y114.585 E12.72776
G1 X136.08 Y115.571 E12.76673
G1 X135.893 Y115.824 E12.7772
G1 X135.357 Y116.481 E12.8054
G1 X134.761 Y117.085 E12.83362
G1 X134.112 Y117.631 E12.86183
G1 X133.392 Y118.126 E12.89089
G1 X133.245 Y118.217 E12.89664
G1 X132.311 Y118.722 E12.93196
G1 X113.912 Y127.301 E13.60716
G1 X113.127 Y127.623 E13.63538
G1 X112.316 Y127.869 E13.66357
G1 X111.485 Y128.038 E13.69178
G1 X110.641 Y128.128 E13.72001
G1 X110.109 Y128.144 E13.73771
G1 X91.117 Y128.144 E14.36939
G1 X90.27 Y128.104 E14.39759
G1 X89.43 Y127.984 E14.42581
G1 X88.605 Y127.786 E14.45403
G1 X87.802 Y127.511 E14.48226
G1 X87.029 Y127.162 E14.51047
G1 X86.293 Y126.742 E14.53865
G1 X85.599 Y126.254 E14.56687
G1 X84.954 Y125.703 E14.59509
G1 X84.364 Y125.093 E14.62331
G1 X83.834 Y124.431 E14.65152
G1 X83.368 Y123.722 E14.67974
G1 X82.972 Y122.972 E14.70795
G1 X82.647 Y122.188 E14.73617
G1 X82.398 Y121.377 E14.76439
G1 X82.227 Y120.546 E14.79261
G1 X82.134 Y119.703 E14.82082
G1 X82.117 Y119.144 E14.83942
G1 X82.117 Y100.856 E15.44768
G1 X82.157 Y100.009 E15.47588
G1 X82.277 Y99.169 E15.5041
G1 X82.475 Y98.344 E15.53232
G1 X82.75 Y97.541 E15.56055
G1 X83.099 Y96.768 E15.58876
G1 X83.519 Y96.032 E15.61695
G1 X84.007 Y95.338 E15.64517
G1 X84.558 Y94.693 E15.67338
G1 X85.168 Y94.103 E15.70161
G0 F6000 X84.953 Y94.859
G1 F1200 X85.559 Y94.293 E15.72919
G1 X86.217 Y93.788 E15.75677
G1 X86.92 Y93.349 E15.78434
G1 X87.663 Y92.98 E15.81193
G1 X88.438 Y92.684 E15.83952
G1 X89.237 Y92.464 E15.86709
G1 X90.054 Y92.322 E15.89467
G1 X91.117 Y92.256 E15.93009
G1 X110.183 Y92.256 E16.56423
G1 X111.011 Y92.296 E16.5918
G1 X111.832 Y92.416 E16.6194
G1 X112.637 Y92.614 E16.64697
G1 X113.419 Y92.888 E16.67453
G1 X113.817 Y93.062 E16.68898
G1 X132.155 Y101.612 E17.36194
G1 X132.889 Y101.998 E17.38952
G1 X133.582 Y102.453 E17.4171
G1 X134.058 Y102.826 E17.43721
G1 X134.304 Y103.033 E17.4479
G1 X134.912 Y103.597 E17.47549
G1 X135.463 Y104.216 E17.50305
G1 X135.952 Y104.886 E17.53064
G1 X136.373 Y105.6 E17.55821
G1 X136.759 Y106.438 E17.58889
G1 X136.875 Y106.73 E17.59934
G1 X137.144 Y107.514 E17.62691
G1 X137.336 Y108.321 E17.6545
G1 X137.449 Y109.143 E17.6821
G1 X137.483 Y109.971 E17.70966
G1 X137.412 Y111.012 E17.74436
G1 X137.371 Y111.328 E17.75496
G1 X137.224 Y112.144 E17.78254
G1 X137 Y112.942 E17.81011
G1 X136.7 Y113.715 E17.83769
G1 X136.327 Y114.456 E17.86528
G1 X135.758 Y115.333 E17.90005
G1 X135.571 Y115.586 E17.91051
G1 X135.046 Y116.228 E17.9381
G1 X134.463 Y116.817 E17.96566
G1 X133.825 Y117.347 E17.99325
G1 X133.182 Y117.786 E18.01914
G1 X133.035 Y117.877 E18.02489
G1 X132.142 Y118.359 E18.05864
G1 X113.743 Y126.938 E18.73385
G1 X112.976 Y127.252 E18.76142
G1 X112.182 Y127.491 E18.789
G1 X111.368 Y127.651 E18.81659
G1 X110.543 Y127.733 E18.84416
G1 X110.109 Y127.744 E18.8586
G1 X91.117 Y127.744 E19.49028
G1 X90.289 Y127.704 E19.51785
G1 X89.468 Y127.584 E19.54545
G1 X88.663 Y127.386 E19.57302
G1 X87.881 Y127.112 E19.60058
G1 X87.128 Y126.763 E19.62818
G1 X86.413 Y126.343 E19.65576
G1 X85.742 Y125.857 E19.68332
G1 X85.12 Y125.308 E19.71091
G1 X84.554 Y124.702 E19.73849
G1 X84.049 Y124.044 E19.76608
G1 X83.61 Y123.341 E19.79365
G1 X83.241 Y122.598 E19.82124
G1 X82.945 Y121.823 E19.84883
G1 X82.725 Y121.024 E19.8764
G1 X82.583 Y120.207 E19.90398
G1 X82.517 Y119.144 E19.9394
G1 X82.517 Y100.856 E20.54766
G1 X82.557 Y100.028 E20.57523
G1 X82.677 Y99.207 E20.60283
G1 X82.875 Y98.402 E20.6304
G1 X83.149 Y97.62 E20.65796
G1 X83.498 Y96.867 E20.68557
G1 X83.918 Y96.152 E20.71315
G1 X84.404 Y95.481 E20.7407
G1 X84.953 Y94.859 E20.7683
G0 F6000 X85.347 Y95.03
G1 F1200 X85.95 Y94.489 E20.79524
G1 X86.603 Y94.01 E20.82218
G1 X87.3 Y93.599 E20.84909
G1 X88.034 Y93.257 E20.87602
G1 X88.799 Y92.991 E20.90296
G1 X89.586 Y92.8 E20.9299
G1 X90.388 Y92.688 E20.95683
G1 X91.117 Y92.656 E20.9811
G1 X110.183 Y92.656 E21.61524
G1 X110.992 Y92.696 E21.64218
G1 X111.793 Y92.816 E21.66912
G1 X112.578 Y93.013 E21.69604
G1 X113.648 Y93.424 E21.73416
G1 X131.986 Y101.974 E22.40712
G1 X132.702 Y102.352 E22.43405
G1 X133.377 Y102.799 E22.46098
G1 X133.801 Y103.132 E22.47891
G1 X134.047 Y103.339 E22.4896
G1 X134.64 Y103.89 E22.51652
G1 X135.175 Y104.497 E22.54344
G1 X135.649 Y105.154 E22.57038
G1 X136.055 Y105.854 E22.5973
G1 X136.388 Y106.586 E22.62404
G1 X136.504 Y106.878 E22.63449
G1 X136.765 Y107.644 E22.66141
G1 X136.95 Y108.432 E22.68833
G1 X137.056 Y109.235 E22.71527
G1 X137.082 Y110.044 E22.74219
G1 X137.015 Y110.96 E22.77274
G1 X136.974 Y111.276 E22.78334
G1 X136.83 Y112.073 E22.81027
G1 X136.609 Y112.852 E22.83721
G1 X136.311 Y113.605 E22.86414
G1 X135.941 Y114.325 E22.89107
G1 X135.436 Y115.095 E22.92169
G1 X135.249 Y115.348 E22.93216
G1 X134.736 Y115.975 E22.9591
G1 X134.164 Y116.548 E22.98603
G1 X133.538 Y117.061 E23.01295
G1 X132.971 Y117.446 E23.03574
G1 X132.824 Y117.537 E23.04149
G1 X131.973 Y117.997 E23.07367
G1 X113.574 Y126.576 E23.74888
G1 X112.824 Y126.881 E23.77581
G1 X112.048 Y127.111 E23.80273
G1 X111.253 Y127.264 E23.82965
G1 X110.109 Y127.344 E23.86779
G1 X91.117 Y127.344 E24.49947
G1 X90.308 Y127.304 E24.52641
G1 X89.507 Y127.184 E24.55335
G1 X88.722 Y126.987 E24.58027
G1 X87.961 Y126.712 E24.60718
G1 X87.23 Y126.364 E24.63411
G1 X86.536 Y125.945 E24.66107
G1 X85.888 Y125.46 E24.68799
G1 X85.291 Y124.914 E24.7149
G1 X84.75 Y124.311 E24.74185
G1 X84.271 Y123.658 E24.76878
G1 X83.86 Y122.961 E24.79569
G1 X83.518 Y122.227 E24.82263
G1 X83.252 Y121.462 E24.84957
G1 X83.061 Y120.675 E24.8765
G1 X82.949 Y119.873 E24.90343
G1 X82.917 Y119.144 E24.9277
G1 X82.917 Y100.856 E25.53597
G1 X82.957 Y100.047 E25.56291
G1 X83.077 Y99.246 E25.58985
G1 X83.274 Y98.461 E25.61676
G1 X83.549 Y97.7 E25.64368
G1 X83.897 Y96.969 E25.6706
G1 X84.316 Y96.275 E25.69757
G1 X84.801 Y95.627 E25.72449
G1 X85.347 Y95.03 E25.7514
G0 F6000 X85.74 Y95.205
G1 F1200 X86.339 Y94.69 E25.77767
G1 X86.987 Y94.239 E25.80393
G1 X87.678 Y93.855 E25.83022
G1 X88.403 Y93.543 E25.85647
G1 X89.156 Y93.306 E25.88273
G1 X89.93 Y93.147 E25.90901
G1 X90.715 Y93.066 E25.93526
G1 X91.117 Y93.056 E25.94863
G1 X110.183 Y93.056 E26.58277
G1 X110.972 Y93.096 E26.60905
G1 X111.752 Y93.215 E26.63529
G1 X112.517 Y93.413 E26.66157
G1 X113.479 Y93.787 E26.6959
G1 X131.817 Y102.337 E27.36886
G1 X132.515 Y102.706 E27.39512
G1 X133.172 Y103.144 E27.42139
G1 X133.543 Y103.438 E27.43713
G1 X133.789 Y103.645 E27.44782
G1 X134.367 Y104.183 E27.47409
G1 X134.887 Y104.777 E27.50034
G1 X135.345 Y105.421 E27.52663
G1 X135.735 Y106.107 E27.55287
G1 X136.016 Y106.733 E27.5757
G1 X136.132 Y107.025 E27.58615
G1 X136.386 Y107.773 E27.61242
G1 X136.563 Y108.543 E27.6387
G1 X136.661 Y109.326 E27.66494
G1 X136.68 Y110.116 E27.69123
G1 X136.618 Y110.909 E27.71768
G1 X136.577 Y111.225 E27.72828
G1 X136.436 Y112.002 E27.75455
G1 X136.217 Y112.76 E27.78079
G1 X135.923 Y113.493 E27.80706
G1 X135.555 Y114.192 E27.83333
G1 X135.115 Y114.857 E27.85985
G1 X134.928 Y115.11 E27.87032
G1 X134.427 Y115.721 E27.8966
G1 X133.867 Y116.277 E27.92284
G1 X133.253 Y116.775 E27.94914
G1 X132.761 Y117.106 E27.96886
G1 X132.614 Y117.197 E27.97461
G1 X131.804 Y117.634 E28.00522
G1 X113.405 Y126.213 E28.68043
G1 X112.674 Y126.51 E28.70667
G1 X111.916 Y126.732 E28.73294
G1 X111.139 Y126.876 E28.75923
G1 X110.109 Y126.944 E28.79356
G1 X91.117 Y126.944 E29.42523
G1 X90.328 Y126.904 E29.45151
G1 X89.548 Y126.785 E29.47775
G1 X88.783 Y126.587 E29.50404
G1 X88.043 Y126.313 E29.53028
G1 X87.334 Y125.965 E29.55655
G1 X86.663 Y125.547 E29.58284
G1 X86.039 Y125.064 E29.60909
G1 X85.466 Y124.521 E29.63535
G1 X84.951 Y123.922 E29.66162
G1 X84.5 Y123.274 E29.68788
G1 X84.116 Y122.583 E29.71417
G1 X83.804 Y121.858 E29.74042
G1 X83.567 Y121.105 E29.76668
G1 X83.408 Y120.331 E29.79296
G1 X83.327 Y119.546 E29.81921
G1 X83.317 Y119.144 E29.83258
G1 X83.317 Y100.856 E30.44084
G1 X83.357 Y100.067 E30.46712
G1 X83.476 Y99.287 E30.49336
G1 X83.674 Y98.522 E30.51965
G1 X83.948 Y97.782 E30.54589
G1 X84.296 Y97.073 E30.57216
G1 X84.714 Y96.402 E30.59845
G1 X85.197 Y95.778 E30.6247
G1 X85.74 Y95.205 E30.65095
G0 F6000 X86.133 Y95.386
G1 F1200 X86.728 Y94.898 E30.67655
G1 X87.37 Y94.475 E30.70212
G1 X88.053 Y94.12 E30.72772
G1 X88.768 Y93.839 E30.75327
G1 X89.51 Y93.633 E30.77889
G1 X90.268 Y93.505 E30.80445
G1 X91.117 Y93.456 E30.83274
G1 X110.183 Y93.456 E31.46688
G1 X110.951 Y93.496 E31.49246
G1 X111.711 Y93.615 E31.51804
G1 X112.454 Y93.813 E31.54362
G1 X113.31 Y94.149 E31.5742
G1 X131.648 Y102.699 E32.24716
G1 X132.327 Y103.06 E32.27274
G1 X132.965 Y103.489 E32.29831
G1 X133.285 Y103.744 E32.31192
G1 X133.531 Y103.951 E32.32261
G1 X134.093 Y104.476 E32.34819
G1 X134.598 Y105.057 E32.3738
G1 X135.039 Y105.686 E32.39935
G1 X135.413 Y106.359 E32.42495
G1 X135.644 Y106.881 E32.44394
G1 X135.76 Y107.173 E32.45439
G1 X136.007 Y107.902 E32.47999
G1 X136.176 Y108.652 E32.50556
G1 X136.267 Y109.416 E32.53115
G1 X136.278 Y110.185 E32.55673
G1 X136.221 Y110.857 E32.57916
G1 X136.18 Y111.173 E32.58976
G1 X136.042 Y111.93 E32.61535
G1 X135.826 Y112.668 E32.64093
G1 X135.534 Y113.38 E32.66653
G1 X135.17 Y114.057 E32.69209
G1 X134.793 Y114.619 E32.7146
G1 X134.606 Y114.872 E32.72506
G1 X134.117 Y115.466 E32.75065
G1 X133.569 Y116.006 E32.77624
G1 X132.969 Y116.487 E32.80182
G1 X132.55 Y116.766 E32.81856
G1 X132.403 Y116.857 E32.82431
G1 X131.635 Y117.272 E32.85335
G1 X113.236 Y125.851 E33.52855
G1 X112.523 Y126.139 E33.55413
G1 X111.784 Y126.352 E33.57971
G1 X111.027 Y126.487 E33.60528
G1 X110.109 Y126.544 E33.63588
