;FLAVOR:Marlin
;TIME:25959
;Filament used: 19.1473m
;Layer height: 0.2
;MINX:11.257
;MINY:55.644
;MINZ:0.2
;MAXX:208.743
;MAXY:164.356
;MAXZ:3.2
;Generated with Cura_SteamEngine 4.11.0
M140 S50
M105
M190 S50
M104 S200
M105
M109 S200
M82 ;absolute extrusion mode
; Ender 3 Custom Start G-code
G92 E0 ; Reset Extruder
G28 ; Home all axes
G29 ; Auto bed-level (BL-Touch)
G1 Z2.0 F3000 ; Move Z Axis up little to prevent scratching of Heat Bed
G1 X0.1 Y20 Z0.3 F5000.0 ; Move to start position
G1 X0.1 Y200.0 Z0.3 F1500.0 E15 ; Draw the first line
G1 X0.4 Y200.0 Z0.3 F5000.0 ; Move to side a little
G1 X0.4 Y20 Z0.3 F1500.0 E30 ; Draw the second line
G92 E0 ; Reset Extruder
G1 Z2.0 F3000 ; Move Z Axis up little to prevent scratching of Heat Bed
G1 X5 Y20 Z0.3 F5000.0 ; Move over to prevent blob squish
G92 E0
G92 E0
G1 F2700 E-5
;LAYER_COUNT:16
;LAYER:0
M107
G0 F6000 X18.193 Y56.099 Z0.2
;TYPE:SKIRT
G1 F2700 E0
G1 F1200 X19.048 Y55.871 E0.02943
G1 X19.921 Y55.721 E0.05889
G1 X21.143 Y55.644 E0.09962
G1 X198.943 Y55.644 E6.01327
G1 X199.827 Y55.684 E6.0427
G1 X200.704 Y55.804 E6.07214
G1 X201.567 Y56.002 E6.10159
G1 X202.408 Y56.277 E6.13102
G1 X203.221 Y56.627 E6.16046
G1 X204 Y57.049 E6.18993
G1 X204.736 Y57.54 E6.21935
G1 X205.426 Y58.095 E6.24881
G1 X206.063 Y58.71 E6.27826
G1 X206.641 Y59.38 E6.30769
G1 X207.157 Y60.099 E6.33712
G1 X207.606 Y60.862 E6.36657
G1 X207.984 Y61.663 E6.39603
G1 X208.288 Y62.494 E6.42546
G1 X208.516 Y63.349 E6.45489
G1 X208.666 Y64.222 E6.48435
G1 X208.743 Y65.444 E6.52507
G1 X208.743 Y93.456 E7.45676
G1 X208.703 Y94.34 E7.48619
G1 X208.583 Y95.217 E7.51563
G1 X208.385 Y96.08 E7.54508
G1 X208.11 Y96.921 E7.57451
G1 X207.76 Y97.734 E7.60395
G1 X207.338 Y98.513 E7.63342
G1 X207.086 Y98.891 E7.64853
G1 X207.096 Y98.905 E7.6491
G1 X207.541 Y99.67 E7.67853
G1 X207.916 Y100.472 E7.70798
G1 X208.216 Y101.305 E7.73743
G1 X208.44 Y102.161 E7.76686
G1 X208.586 Y103.034 E7.7963
G1 X208.657 Y104.211 E7.83551
G1 X208.657 Y154.556 E9.51
G1 X208.617 Y155.44 E9.53943
G1 X208.497 Y156.317 E9.56887
G1 X208.299 Y157.18 E9.59832
G1 X208.024 Y158.021 E9.62775
G1 X207.674 Y158.834 E9.65719
G1 X207.252 Y159.613 E9.68665
G1 X206.761 Y160.349 E9.71608
G1 X206.206 Y161.039 E9.74553
G1 X205.591 Y161.676 E9.77498
G1 X204.921 Y162.254 E9.80441
G1 X204.202 Y162.77 E9.83385
G1 X203.439 Y163.219 E9.86329
G1 X202.638 Y163.597 E9.89275
G1 X201.807 Y163.901 E9.92218
G1 X200.952 Y164.129 E9.95162
G1 X200.079 Y164.279 E9.98108
G1 X198.857 Y164.356 E10.0218
G1 X21.057 Y164.356 E15.93545
G1 X20.173 Y164.316 E15.96489
G1 X19.296 Y164.196 E15.99433
G1 X18.433 Y163.998 E16.02378
G1 X17.592 Y163.723 E16.0532
G1 X16.779 Y163.373 E16.08264
G1 X16 Y162.951 E16.11211
G1 X15.264 Y162.46 E16.14154
G1 X14.574 Y161.905 E16.17099
G1 X13.937 Y161.29 E16.20044
G1 X13.359 Y160.62 E16.22987
G1 X12.843 Y159.901 E16.25931
G1 X12.394 Y159.138 E16.28875
G1 X12.016 Y158.337 E16.31821
G1 X11.712 Y157.506 E16.34764
G1 X11.484 Y156.651 E16.37707
G1 X11.334 Y155.778 E16.40653
G1 X11.257 Y154.556 E16.44726
G1 X11.257 Y104.192 E18.12237
G1 X11.297 Y103.308 E18.1518
G1 X11.417 Y102.431 E18.18124
G1 X11.615 Y101.568 E18.21069
G1 X11.89 Y100.727 E18.24012
G1 X12.24 Y99.914 E18.26956
G1 X12.662 Y99.135 E18.29903
G1 X12.915 Y98.755 E18.31421
G1 X12.567 Y98.187 E18.33637
G1 X12.174 Y97.394 E18.36581
G1 X11.854 Y96.569 E18.39524
G1 X11.61 Y95.718 E18.42468
G1 X11.444 Y94.848 E18.45414
G1 X11.357 Y93.967 E18.48359
G1 X11.343 Y93.445 E18.50095
G1 X11.343 Y65.444 E19.43227
G1 X11.383 Y64.56 E19.4617
G1 X11.503 Y63.683 E19.49114
G1 X11.701 Y62.82 E19.52059
G1 X11.976 Y61.979 E19.55002
G1 X12.326 Y61.166 E19.57946
G1 X12.748 Y60.387 E19.60893
G1 X13.239 Y59.651 E19.63836
G1 X13.794 Y58.961 E19.66781
G1 X14.409 Y58.324 E19.69726
G1 X15.079 Y57.746 E19.72669
G1 X15.798 Y57.23 E19.75612
G1 X16.561 Y56.781 E19.78557
G1 X17.362 Y56.403 E19.81503
G1 X18.193 Y56.099 E19.84446
G0 F6000 X18.553 Y56.408
G1 F1200 X19.397 Y56.208 E19.87331
G1 X20.255 Y56.086 E19.90213
G1 X21.143 Y56.044 E19.9317
G1 X198.943 Y56.044 E25.84535
G1 X199.809 Y56.084 E25.87419
G1 X200.668 Y56.204 E25.90303
G1 X201.512 Y56.402 E25.93187
G1 X202.334 Y56.677 E25.9607
G1 X203.127 Y57.027 E25.98953
G1 X203.885 Y57.448 E26.01836
G1 X204.6 Y57.937 E26.04718
G1 X205.268 Y58.49 E26.07602
G1 X205.882 Y59.103 E26.10488
G1 X206.437 Y59.769 E26.13371
G1 X206.927 Y60.483 E26.16251
G1 X207.351 Y61.24 E26.19137
G1 X207.702 Y62.033 E26.22021
G1 X207.979 Y62.854 E26.24903
G1 X208.179 Y63.698 E26.27788
G1 X208.301 Y64.556 E26.30671
G1 X208.343 Y65.444 E26.33627
G1 X208.343 Y93.456 E27.26796
G1 X208.303 Y94.322 E27.29679
G1 X208.183 Y95.181 E27.32564
G1 X207.985 Y96.025 E27.35447
G1 X207.71 Y96.847 E27.3833
G1 X207.36 Y97.64 E27.41213
G1 X206.939 Y98.398 E27.44097
G1 X206.599 Y98.895 E27.461
G1 X206.902 Y99.349 E27.47915
G1 X207.316 Y100.111 E27.508
G1 X207.657 Y100.907 E27.5368
G1 X207.924 Y101.732 E27.56564
G1 X208.114 Y102.578 E27.59448
G1 X208.225 Y103.438 E27.62332
G1 X208.257 Y104.211 E27.64905
G1 X208.257 Y154.556 E29.32353
G1 X208.217 Y155.422 E29.35237
G1 X208.097 Y156.281 E29.38122
G1 X207.899 Y157.125 E29.41005
G1 X207.624 Y157.947 E29.43888
G1 X207.274 Y158.74 E29.46771
G1 X206.853 Y159.498 E29.49655
G1 X206.364 Y160.213 E29.52536
G1 X205.811 Y160.881 E29.5542
G1 X205.198 Y161.495 E29.58306
G1 X204.532 Y162.05 E29.61189
G1 X203.818 Y162.54 E29.64069
G1 X203.061 Y162.964 E29.66955
G1 X202.268 Y163.315 E29.6984
G1 X201.447 Y163.592 E29.72722
G1 X200.603 Y163.792 E29.75606
G1 X199.745 Y163.914 E29.78489
G1 X198.857 Y163.956 E29.81446
G1 X21.057 Y163.956 E35.72811
G1 X20.191 Y163.916 E35.75694
G1 X19.332 Y163.796 E35.78579
G1 X18.488 Y163.598 E35.81462
G1 X17.666 Y163.323 E35.84345
G1 X16.873 Y162.973 E35.87228
G1 X16.115 Y162.552 E35.90112
G1 X15.4 Y162.063 E35.92993
G1 X14.732 Y161.51 E35.95878
G1 X14.118 Y160.897 E35.98763
G1 X13.563 Y160.231 E36.01647
G1 X13.073 Y159.517 E36.04527
G1 X12.649 Y158.76 E36.07413
G1 X12.298 Y157.967 E36.10297
G1 X12.021 Y157.146 E36.13179
G1 X11.821 Y156.302 E36.16064
G1 X11.699 Y155.444 E36.18946
G1 X11.657 Y154.556 E36.21903
G1 X11.657 Y104.192 E37.89414
G1 X11.697 Y103.326 E37.92298
G1 X11.817 Y102.467 E37.95183
G1 X12.015 Y101.623 E37.98066
G1 X12.29 Y100.801 E38.00949
G1 X12.64 Y100.008 E38.03832
G1 X13.061 Y99.25 E38.06716
G1 X13.397 Y98.759 E38.08695
G1 X13.291 Y98.613 E38.09295
G1 X12.849 Y97.868 E38.12176
G1 X12.476 Y97.085 E38.15061
G1 X12.178 Y96.271 E38.17944
G1 X11.956 Y95.433 E38.20827
G1 X11.812 Y94.578 E38.23711
G1 X11.743 Y93.445 E38.27486
G1 X11.743 Y65.444 E39.20618
G1 X11.783 Y64.578 E39.23501
G1 X11.903 Y63.719 E39.26386
G1 X12.101 Y62.875 E39.29269
G1 X12.376 Y62.053 E39.32152
G1 X12.726 Y61.26 E39.35035
G1 X13.147 Y60.502 E39.37919
G1 X13.636 Y59.787 E39.408
G1 X14.189 Y59.119 E39.43685
G1 X14.802 Y58.505 E39.4657
G1 X15.468 Y57.95 E39.49454
G1 X16.182 Y57.46 E39.52334
G1 X16.939 Y57.036 E39.5522
G1 X17.732 Y56.685 E39.58104
G1 X18.553 Y56.408 E39.60986
G0 F6000 X18.099 Y56.974
G1 F1200 X18.91 Y56.725 E39.63808
G1 X19.741 Y56.554 E39.6663
G1 X20.584 Y56.461 E39.6945
G1 X21.143 Y56.444 E39.71311
G1 X198.943 Y56.444 E45.62676
G1 X199.79 Y56.484 E45.65496
G1 X200.63 Y56.604 E45.68318
G1 X201.455 Y56.802 E45.7114
G1 X202.258 Y57.077 E45.73963
G1 X203.031 Y57.426 E45.76784
G1 X203.767 Y57.846 E45.79603
G1 X204.461 Y58.334 E45.82424
G1 X205.106 Y58.885 E45.85246
G1 X205.696 Y59.495 E45.88068
G1 X206.226 Y60.157 E45.90889
G1 X206.692 Y60.866 E45.93711
G1 X207.088 Y61.616 E45.96532
G1 X207.413 Y62.4 E45.99355
G1 X207.662 Y63.211 E46.02176
G1 X207.833 Y64.042 E46.04998
G1 X207.926 Y64.885 E46.07819
G1 X207.943 Y65.444 E46.09679
G1 X207.943 Y93.456 E47.02847
G1 X207.903 Y94.303 E47.05668
G1 X207.783 Y95.143 E47.0849
G1 X207.585 Y95.968 E47.11312
G1 X207.31 Y96.771 E47.14135
G1 X206.961 Y97.544 E47.16956
G1 X206.541 Y98.28 E47.19774
G1 X206.109 Y98.894 E47.22271
G1 X206.247 Y99.074 E47.23025
G1 X206.698 Y99.792 E47.25846
G1 X207.079 Y100.55 E47.28667
G1 X207.387 Y101.34 E47.31487
G1 X207.619 Y102.156 E47.34309
G1 X207.774 Y102.99 E47.3713
G1 X207.857 Y104.211 E47.41201
G1 X207.857 Y154.556 E49.08649
G1 X207.817 Y155.403 E49.11469
G1 X207.697 Y156.243 E49.14291
G1 X207.499 Y157.068 E49.17113
G1 X207.224 Y157.871 E49.19936
G1 X206.875 Y158.644 E49.22757
G1 X206.455 Y159.38 E49.25576
G1 X205.967 Y160.074 E49.28398
G1 X205.416 Y160.719 E49.31219
G1 X204.806 Y161.309 E49.34042
G1 X204.144 Y161.839 E49.36862
G1 X203.435 Y162.305 E49.39684
G1 X202.685 Y162.701 E49.42505
G1 X201.901 Y163.026 E49.45328
G1 X201.09 Y163.275 E49.48149
G1 X200.259 Y163.446 E49.50971
G1 X199.416 Y163.539 E49.53792
G1 X198.857 Y163.556 E49.55652
G1 X21.057 Y163.556 E55.47017
G1 X20.21 Y163.516 E55.49838
G1 X19.37 Y163.396 E55.5266
G1 X18.545 Y163.198 E55.55482
G1 X17.742 Y162.923 E55.58305
G1 X16.969 Y162.574 E55.61126
G1 X16.233 Y162.154 E55.63944
G1 X15.539 Y161.666 E55.66766
G1 X14.894 Y161.115 E55.69587
G1 X14.304 Y160.505 E55.7241
G1 X13.774 Y159.843 E55.75231
G1 X13.308 Y159.134 E55.78053
G1 X12.912 Y158.384 E55.80873
G1 X12.587 Y157.6 E55.83696
G1 X12.338 Y156.789 E55.86518
G1 X12.167 Y155.958 E55.8934
G1 X12.074 Y155.115 E55.9216
G1 X12.057 Y154.556 E55.94021
G1 X12.057 Y104.192 E57.61532
G1 X12.097 Y103.345 E57.64352
G1 X12.217 Y102.505 E57.67174
G1 X12.415 Y101.68 E57.69996
G1 X12.69 Y100.877 E57.72819
G1 X13.039 Y100.104 E57.7564
G1 X13.459 Y99.368 E57.78459
G1 X13.888 Y98.757 E57.80942
G1 X13.556 Y98.286 E57.82858
G1 X13.134 Y97.55 E57.8568
G1 X12.783 Y96.778 E57.88501
G1 X12.506 Y95.976 E57.91323
G1 X12.306 Y95.152 E57.94143
G1 X12.185 Y94.312 E57.96966
G1 X12.143 Y93.445 E57.99853
G1 X12.143 Y65.444 E58.92985
G1 X12.183 Y64.597 E58.95805
G1 X12.303 Y63.757 E58.98627
G1 X12.501 Y62.932 E59.01449
G1 X12.776 Y62.129 E59.04272
G1 X13.125 Y61.356 E59.07093
G1 X13.545 Y60.62 E59.09911
G1 X14.033 Y59.926 E59.12733
G1 X14.584 Y59.281 E59.15555
G1 X15.194 Y58.691 E59.18377
G1 X15.856 Y58.161 E59.21198
G1 X16.565 Y57.695 E59.2402
G1 X17.315 Y57.299 E59.26841
G1 X18.099 Y56.974 E59.29663
G0 F6000 X18.464 Y57.272
G1 F1200 X19.263 Y57.052 E59.3242
G1 X20.08 Y56.91 E59.35178
G1 X21.143 Y56.844 E59.3872
G1 X198.943 Y56.844 E65.30085
G1 X199.771 Y56.884 E65.32843
G1 X200.592 Y57.004 E65.35602
G1 X201.397 Y57.202 E65.38359
G1 X202.179 Y57.476 E65.41115
G1 X202.932 Y57.825 E65.43876
G1 X203.647 Y58.245 E65.46634
G1 X204.318 Y58.731 E65.4939
G1 X204.94 Y59.28 E65.52149
G1 X205.506 Y59.886 E65.54907
G1 X206.011 Y60.544 E65.57666
G1 X206.45 Y61.247 E65.60422
G1 X206.819 Y61.99 E65.63181
G1 X207.115 Y62.765 E65.65941
G1 X207.335 Y63.564 E65.68697
G1 X207.477 Y64.381 E65.71455
G1 X207.543 Y65.444 E65.74998
G1 X207.543 Y93.456 E66.68166
G1 X207.503 Y94.284 E66.70923
G1 X207.383 Y95.105 E66.73683
G1 X207.185 Y95.91 E66.7644
G1 X206.911 Y96.692 E66.79196
G1 X206.562 Y97.445 E66.81956
G1 X206.142 Y98.16 E66.84714
G1 X205.656 Y98.831 E66.8747
G1 X205.608 Y98.886 E66.87713
G1 X206.064 Y99.519 E66.90308
G1 X206.482 Y100.234 E66.93062
G1 X206.83 Y100.987 E66.95821
G1 X207.103 Y101.77 E66.98579
G1 X207.3 Y102.576 E67.01339
G1 X207.418 Y103.396 E67.04094
G1 X207.457 Y104.211 E67.06808
G1 X207.457 Y154.556 E68.74256
G1 X207.417 Y155.384 E68.77014
G1 X207.297 Y156.205 E68.79773
G1 X207.099 Y157.01 E68.8253
G1 X206.825 Y157.792 E68.85286
G1 X206.476 Y158.545 E68.88047
G1 X206.056 Y159.26 E68.90805
G1 X205.57 Y159.931 E68.93561
G1 X205.021 Y160.553 E68.9632
G1 X204.415 Y161.119 E68.99078
G1 X203.757 Y161.624 E69.01837
G1 X203.054 Y162.063 E69.04593
G1 X202.311 Y162.432 E69.07352
G1 X201.536 Y162.728 E69.10112
G1 X200.737 Y162.948 E69.12868
G1 X199.92 Y163.09 E69.15626
G1 X198.857 Y163.156 E69.19169
G1 X21.057 Y163.156 E75.10534
G1 X20.229 Y163.116 E75.13291
G1 X19.408 Y162.996 E75.16051
G1 X18.603 Y162.798 E75.18808
G1 X17.821 Y162.524 E75.21564
G1 X17.068 Y162.175 E75.24324
G1 X16.353 Y161.755 E75.27082
G1 X15.682 Y161.269 E75.29838
G1 X15.06 Y160.72 E75.32597
G1 X14.494 Y160.114 E75.35355
G1 X13.989 Y159.456 E75.38114
G1 X13.55 Y158.753 E75.40871
G1 X13.181 Y158.01 E75.4363
G1 X12.885 Y157.235 E75.46389
G1 X12.665 Y156.436 E75.49145
G1 X12.523 Y155.619 E75.51904
G1 X12.457 Y154.556 E75.55446
G1 X12.457 Y104.192 E77.22957
G1 X12.497 Y103.364 E77.25714
G1 X12.617 Y102.543 E77.28474
G1 X12.815 Y101.738 E77.31231
G1 X13.089 Y100.956 E77.33987
G1 X13.438 Y100.203 E77.36748
G1 X13.858 Y99.488 E77.39506
G1 X14.344 Y98.817 E77.42261
G1 X14.392 Y98.762 E77.42504
G1 X14.293 Y98.644 E77.43017
G1 X13.824 Y97.96 E77.45775
G1 X13.423 Y97.234 E77.48533
G1 X13.094 Y96.473 E77.51291
G1 X12.84 Y95.684 E77.54048
G1 X12.663 Y94.874 E77.56805
G1 X12.564 Y94.051 E77.59563
G1 X12.543 Y93.445 E77.61579
G1 X12.543 Y65.444 E78.54711
G1 X12.583 Y64.616 E78.57468
G1 X12.703 Y63.795 E78.60228
G1 X12.901 Y62.99 E78.62985
G1 X13.175 Y62.208 E78.65741
G1 X13.524 Y61.455 E78.68501
G1 X13.944 Y60.74 E78.7126
G1 X14.43 Y60.069 E78.74015
G1 X14.979 Y59.447 E78.76775
G1 X15.585 Y58.881 E78.79532
G1 X16.243 Y58.376 E78.82291
G1 X16.946 Y57.937 E78.85048
G1 X17.689 Y57.568 E78.87807
G1 X18.464 Y57.272 E78.90566
G0 F6000 X18.825 Y57.579
G1 F1200 X19.612 Y57.388 E78.9326
G1 X20.414 Y57.276 E78.95953
G1 X21.143 Y57.244 E78.9838
G1 X198.943 Y57.244 E84.89745
G1 X199.752 Y57.284 E84.9244
G1 X200.553 Y57.404 E84.95133
G1 X201.338 Y57.601 E84.97825
G1 X202.099 Y57.876 E85.00517
G1 X202.83 Y58.224 E85.03209
G1 X203.524 Y58.643 E85.05906
G1 X204.172 Y59.128 E85.08598
G1 X204.769 Y59.674 E85.11289
G1 X205.31 Y60.277 E85.13983
G1 X205.789 Y60.93 E85.16677
G1 X206.2 Y61.627 E85.19368
G1 X206.542 Y62.361 E85.22061
G1 X206.808 Y63.126 E85.24755
G1 X206.999 Y63.913 E85.27448
G1 X207.111 Y64.715 E85.30142
G1 X207.143 Y65.444 E85.32569
G1 X207.143 Y93.456 E86.25737
G1 X207.103 Y94.265 E86.28431
G1 X206.983 Y95.066 E86.31125
G1 X206.786 Y95.851 E86.33817
G1 X206.511 Y96.612 E86.36508
G1 X206.163 Y97.343 E86.39201
G1 X205.744 Y98.037 E86.41897
G1 X205.259 Y98.685 E86.44589
G1 X205.078 Y98.883 E86.45482
G1 X205.418 Y99.292 E86.47251
G1 X205.871 Y99.963 E86.49943
G1 X206.256 Y100.675 E86.52636
G1 X206.568 Y101.422 E86.55328
G1 X206.806 Y102.196 E86.58021
G1 X206.966 Y102.99 E86.60715
G1 X207.046 Y103.796 E86.63409
G1 X207.057 Y104.211 E86.6479
G1 X207.057 Y154.556 E88.32238
G1 X207.017 Y155.365 E88.34932
G1 X206.897 Y156.166 E88.37626
G1 X206.7 Y156.951 E88.40318
G1 X206.425 Y157.712 E88.43009
G1 X206.077 Y158.443 E88.45702
G1 X205.658 Y159.137 E88.48398
G1 X205.173 Y159.785 E88.5109
G1 X204.627 Y160.382 E88.53781
G1 X204.024 Y160.923 E88.56476
G1 X203.371 Y161.402 E88.59169
G1 X202.674 Y161.813 E88.6186
G1 X201.94 Y162.155 E88.64554
G1 X201.175 Y162.421 E88.67248
G1 X200.388 Y162.612 E88.69941
G1 X199.586 Y162.724 E88.72635
G1 X198.857 Y162.756 E88.75062
G1 X21.057 Y162.756 E94.66427
G1 X20.248 Y162.716 E94.69121
G1 X19.447 Y162.596 E94.71815
G1 X18.662 Y162.399 E94.74506
G1 X17.901 Y162.124 E94.77198
G1 X17.17 Y161.776 E94.79891
G1 X16.476 Y161.357 E94.82587
G1 X15.828 Y160.872 E94.85279
G1 X15.231 Y160.326 E94.8797
G1 X14.69 Y159.723 E94.90664
G1 X14.211 Y159.07 E94.93358
G1 X13.8 Y158.373 E94.96049
G1 X13.458 Y157.639 E94.98742
G1 X13.192 Y156.874 E95.01436
G1 X13.001 Y156.087 E95.0413
G1 X12.889 Y155.285 E95.06823
G1 X12.857 Y154.556 E95.0925
G1 X12.857 Y104.192 E96.76761
G1 X12.897 Y103.383 E96.79455
G1 X13.017 Y102.582 E96.82149
G1 X13.214 Y101.797 E96.84841
G1 X13.489 Y101.036 E96.87532
G1 X13.837 Y100.305 E96.90225
G1 X14.256 Y99.611 E96.92922
G1 X14.741 Y98.963 E96.95614
G1 X14.918 Y98.77 E96.96485
G1 X14.543 Y98.311 E96.98456
G1 X14.095 Y97.636 E97.01151
G1 X13.716 Y96.921 E97.03842
G1 X13.409 Y96.171 E97.06537
G1 X13.178 Y95.395 E97.0923
G1 X13.025 Y94.6 E97.11923
G1 X12.943 Y93.445 E97.15774
G1 X12.943 Y65.444 E98.08906
G1 X12.983 Y64.635 E98.116
G1 X13.103 Y63.834 E98.14294
G1 X13.3 Y63.049 E98.16986
G1 X13.575 Y62.288 E98.19677
G1 X13.923 Y61.557 E98.2237
G1 X14.342 Y60.863 E98.25066
G1 X14.827 Y60.215 E98.27758
G1 X15.373 Y59.618 E98.30449
G1 X15.976 Y59.077 E98.33144
G1 X16.629 Y58.598 E98.35837
G1 X17.326 Y58.187 E98.38528
