;FLAVOR:Marlin
;TIME:17679
;Filament used: 11.9123m
;Layer height: 0.2
;MINX:75.435
;MINY:72.752
;MINZ:0.2
;MAXX:144.565
;MAXY:147.248
;MAXZ:32.4
;Generated with Cura_SteamEngine 4.11.0
M140 S50
M105
M190 S50
M104 S200
M105
M109 S200
M82 ;absolute extrusion mode
; Ender 3 Custom Start G-code
G92 E0 ; Reset Extruder
G28 ; Home all axes
G29 ; Auto bed-level (BL-Touch)
G1 Z2.0 F3000 ; Move Z Axis up little to prevent scratching of Heat Bed
G1 X0.1 Y20 Z0.3 F5000.0 ; Move to start position
G1 X0.1 Y200.0 Z0.3 F1500.0 E15 ; Draw the first line
G1 X0.4 Y200.0 Z0.3 F5000.0 ; Move to side a little
G1 X0.4 Y20 Z0.3 F1500.0 E30 ; Draw the second line
G92 E0 ; Reset Extruder
G1 Z2.0 F3000 ; Move Z Axis up little to prevent scratching of Heat Bed
G1 X5 Y20 Z0.3 F5000.0 ; Move over to prevent blob squish
G92 E0
G92 E0
G1 F2700 E-5
;LAYER_COUNT:162
;LAYER:0
M107
G0 F6000 X107.811 Y76.759 Z0.2
;TYPE:SKIRT
G1 F2700 E0
G1 F1200 X108.366 Y76.069 E0.02945
G1 X108.981 Y75.432 E0.0589
G1 X109.651 Y74.854 E0.08833
G1 X110.37 Y74.338 E0.11777
G1 X111.133 Y73.889 E0.14721
G1 X111.934 Y73.511 E0.17667
G1 X112.765 Y73.207 E0.2061
G1 X113.62 Y72.979 E0.23553
G1 X114.493 Y72.829 E0.265
G1 X115.715 Y72.752 E0.30572
G1 X134.765 Y72.752 E0.93933
G1 X135.649 Y72.792 E0.96876
G1 X136.526 Y72.912 E0.9982
G1 X137.389 Y73.11 E1.02765
G1 X138.23 Y73.385 E1.05708
G1 X139.043 Y73.735 E1.08652
G1 X139.822 Y74.157 E1.11598
G1 X140.558 Y74.648 E1.14541
G1 X141.248 Y75.203 E1.17486
G1 X141.885 Y75.818 E1.20431
G1 X142.463 Y76.488 E1.23374
G1 X142.979 Y77.207 E1.26318
G1 X143.428 Y77.97 E1.29262
G1 X143.806 Y78.771 E1.32208
G1 X144.11 Y79.602 E1.35151
G1 X144.338 Y80.457 E1.38094
G1 X144.488 Y81.33 E1.41041
G1 X144.565 Y82.552 E1.45113
G1 X144.565 Y137.448 E3.27698
G1 X144.525 Y138.332 E3.30641
G1 X144.405 Y139.209 E3.33585
G1 X144.207 Y140.072 E3.3653
G1 X143.932 Y140.913 E3.39473
G1 X143.582 Y141.726 E3.42417
G1 X143.16 Y142.505 E3.45364
G1 X142.669 Y143.241 E3.48306
G1 X142.114 Y143.931 E3.51252
G1 X141.499 Y144.568 E3.54197
G1 X140.829 Y145.146 E3.5714
G1 X140.11 Y145.662 E3.60083
G1 X139.347 Y146.111 E3.63028
G1 X138.546 Y146.489 E3.65974
G1 X137.715 Y146.793 E3.68917
G1 X136.86 Y147.021 E3.7186
G1 X135.987 Y147.171 E3.74806
G1 X134.765 Y147.248 E3.78878
G1 X85.235 Y147.248 E5.43616
G1 X84.351 Y147.208 E5.46559
G1 X83.474 Y147.088 E5.49503
G1 X82.611 Y146.89 E5.52448
G1 X81.77 Y146.615 E5.55391
G1 X80.957 Y146.265 E5.58335
G1 X80.178 Y145.843 E5.61282
G1 X79.442 Y145.352 E5.64224
G1 X78.752 Y144.797 E5.6717
G1 X78.115 Y144.182 E5.70114
G1 X77.537 Y143.512 E5.73058
G1 X77.021 Y142.793 E5.76001
G1 X76.572 Y142.03 E5.78946
G1 X76.194 Y141.229 E5.81892
G1 X75.89 Y140.398 E5.84835
G1 X75.662 Y139.543 E5.87778
G1 X75.512 Y138.67 E5.90724
G1 X75.435 Y137.448 E5.94796
G1 X75.435 Y119.16 E6.55622
G1 X75.475 Y118.276 E6.58566
G1 X75.595 Y117.399 E6.6151
G1 X75.793 Y116.536 E6.64455
G1 X76.068 Y115.695 E6.67398
G1 X76.418 Y114.882 E6.70342
G1 X76.84 Y114.103 E6.73288
G1 X77.331 Y113.367 E6.76231
G1 X77.886 Y112.677 E6.79176
G1 X78.501 Y112.04 E6.82121
G1 X79.171 Y111.462 E6.85064
G1 X79.89 Y110.946 E6.88008
G1 X80.653 Y110.497 E6.90952
G1 X81.454 Y110.119 E6.93898
G1 X82.285 Y109.815 E6.96841
G1 X83.14 Y109.587 E6.99784
G1 X84.013 Y109.437 E7.0273
G1 X85.235 Y109.36 E7.06803
G1 X105.915 Y109.36 E7.75585
G1 X105.915 Y82.552 E8.64749
G1 X105.955 Y81.668 E8.67692
G1 X106.075 Y80.791 E8.70636
G1 X106.273 Y79.928 E8.73581
G1 X106.548 Y79.087 E8.76524
G1 X106.898 Y78.274 E8.79468
G1 X107.32 Y77.495 E8.82414
G1 X107.811 Y76.759 E8.85357
G0 F6000 X108.208 Y76.895
G1 F1200 X108.761 Y76.227 E8.88241
G1 X109.374 Y75.613 E8.91127
G1 X110.04 Y75.058 E8.94011
G1 X110.754 Y74.568 E8.96891
G1 X111.511 Y74.144 E8.99777
G1 X112.304 Y73.793 E9.02661
G1 X113.125 Y73.516 E9.05543
G1 X113.969 Y73.316 E9.08428
G1 X114.827 Y73.194 E9.1131
G1 X115.715 Y73.152 E9.14267
G1 X134.765 Y73.152 E9.77628
G1 X135.631 Y73.192 E9.80511
G1 X136.49 Y73.312 E9.83396
G1 X137.334 Y73.51 E9.86279
G1 X138.156 Y73.785 E9.89162
G1 X138.949 Y74.135 E9.92045
G1 X139.707 Y74.556 E9.94929
G1 X140.422 Y75.045 E9.9781
G1 X141.09 Y75.598 E10.00694
G1 X141.704 Y76.211 E10.0358
G1 X142.259 Y76.877 E10.06464
G1 X142.749 Y77.591 E10.09344
G1 X143.173 Y78.348 E10.1223
G1 X143.524 Y79.141 E10.15114
G1 X143.801 Y79.962 E10.17996
G1 X144.001 Y80.806 E10.20881
G1 X144.123 Y81.664 E10.23763
G1 X144.165 Y82.552 E10.2672
G1 X144.165 Y137.448 E12.09305
G1 X144.125 Y138.314 E12.12188
G1 X144.005 Y139.173 E12.15073
G1 X143.807 Y140.017 E12.17956
G1 X143.532 Y140.839 E12.20839
G1 X143.182 Y141.632 E12.23722
G1 X142.761 Y142.39 E12.26606
G1 X142.272 Y143.105 E12.29487
G1 X141.719 Y143.773 E12.32372
G1 X141.106 Y144.387 E12.35257
G1 X140.44 Y144.942 E12.38141
G1 X139.726 Y145.432 E12.41021
G1 X138.969 Y145.856 E12.43907
G1 X138.176 Y146.207 E12.46791
G1 X137.355 Y146.484 E12.49673
G1 X136.511 Y146.684 E12.52558
G1 X135.653 Y146.806 E12.5544
G1 X134.765 Y146.848 E12.58397
G1 X85.235 Y146.848 E14.23135
G1 X84.369 Y146.808 E14.26018
G1 X83.51 Y146.688 E14.28903
G1 X82.666 Y146.49 E14.31786
G1 X81.844 Y146.215 E14.34669
G1 X81.051 Y145.865 E14.37552
G1 X80.293 Y145.444 E14.40436
G1 X79.578 Y144.955 E14.43317
G1 X78.91 Y144.402 E14.46201
G1 X78.296 Y143.789 E14.49087
G1 X77.741 Y143.123 E14.5197
G1 X77.251 Y142.409 E14.54851
G1 X76.827 Y141.652 E14.57736
G1 X76.476 Y140.859 E14.60621
G1 X76.199 Y140.038 E14.63503
G1 X75.999 Y139.194 E14.66388
G1 X75.877 Y138.336 E14.6927
G1 X75.835 Y137.448 E14.72227
G1 X75.835 Y119.16 E15.33053
G1 X75.875 Y118.294 E15.35936
G1 X75.995 Y117.435 E15.38821
G1 X76.193 Y116.591 E15.41705
G1 X76.468 Y115.769 E15.44587
G1 X76.818 Y114.976 E15.4747
G1 X77.239 Y114.218 E15.50354
G1 X77.728 Y113.503 E15.53235
G1 X78.281 Y112.835 E15.5612
G1 X78.894 Y112.221 E15.59005
G1 X79.56 Y111.666 E15.61889
G1 X80.274 Y111.176 E15.64769
G1 X81.031 Y110.752 E15.67655
G1 X81.824 Y110.401 E15.70539
G1 X82.645 Y110.124 E15.73421
G1 X83.489 Y109.924 E15.76306
G1 X84.347 Y109.802 E15.79188
G1 X85.235 Y109.76 E15.82145
G1 X106.315 Y109.76 E16.52258
G1 X106.315 Y82.552 E17.42752
G1 X106.355 Y81.686 E17.45635
G1 X106.475 Y80.827 E17.4852
G1 X106.673 Y79.983 E17.51403
G1 X106.948 Y79.161 E17.54286
G1 X107.298 Y78.368 E17.57169
G1 X107.719 Y77.61 E17.60053
G1 X108.208 Y76.895 E17.62934
G0 F6000 X108.605 Y77.034
G1 F1200 X109.156 Y76.389 E17.65756
G1 X109.766 Y75.799 E17.68578
G1 X110.428 Y75.269 E17.71399
G1 X111.137 Y74.803 E17.74221
G1 X111.887 Y74.407 E17.77042
G1 X112.671 Y74.082 E17.79864
G1 X113.482 Y73.833 E17.82686
G1 X114.313 Y73.662 E17.85508
G1 X115.156 Y73.569 E17.88329
G1 X115.715 Y73.552 E17.90189
G1 X134.765 Y73.552 E18.53549
G1 X135.612 Y73.592 E18.5637
G1 X136.452 Y73.712 E18.59192
G1 X137.277 Y73.91 E18.62014
G1 X138.08 Y74.185 E18.64837
G1 X138.853 Y74.534 E18.67658
G1 X139.589 Y74.954 E18.70476
G1 X140.283 Y75.442 E18.73298
G1 X140.928 Y75.993 E18.7612
G1 X141.518 Y76.603 E18.78942
G1 X142.048 Y77.265 E18.81763
G1 X142.514 Y77.974 E18.84585
G1 X142.91 Y78.724 E18.87405
G1 X143.235 Y79.508 E18.90228
G1 X143.484 Y80.319 E18.9305
G1 X143.655 Y81.15 E18.95872
G1 X143.748 Y81.993 E18.98693
G1 X143.765 Y82.552 E19.00553
G1 X143.765 Y137.448 E20.83137
G1 X143.725 Y138.295 E20.85958
G1 X143.605 Y139.135 E20.8878
G1 X143.407 Y139.96 E20.91602
G1 X143.132 Y140.763 E20.94425
G1 X142.783 Y141.536 E20.97246
G1 X142.363 Y142.272 E21.00064
G1 X141.875 Y142.966 E21.02886
G1 X141.324 Y143.611 E21.05708
G1 X140.714 Y144.201 E21.0853
G1 X140.052 Y144.731 E21.11351
G1 X139.343 Y145.197 E21.14173
G1 X138.593 Y145.593 E21.16993
G1 X137.809 Y145.918 E21.19816
G1 X136.998 Y146.167 E21.22638
G1 X136.167 Y146.338 E21.2546
G1 X135.324 Y146.431 E21.28281
G1 X134.765 Y146.448 E21.30141
G1 X85.235 Y146.448 E22.94878
G1 X84.388 Y146.408 E22.97698
G1 X83.548 Y146.288 E23.00521
G1 X82.723 Y146.09 E23.03342
G1 X81.92 Y145.815 E23.06166
G1 X81.147 Y145.466 E23.08986
G1 X80.411 Y145.046 E23.11805
G1 X79.717 Y144.558 E23.14627
G1 X79.072 Y144.007 E23.17448
G1 X78.482 Y143.397 E23.20271
G1 X77.952 Y142.735 E23.23091
G1 X77.486 Y142.026 E23.25913
G1 X77.09 Y141.276 E23.28734
G1 X76.765 Y140.492 E23.31557
G1 X76.516 Y139.681 E23.34379
G1 X76.345 Y138.85 E23.372
G1 X76.252 Y138.007 E23.40021
G1 X76.235 Y137.448 E23.41881
G1 X76.235 Y119.16 E24.02707
G1 X76.275 Y118.313 E24.05528
G1 X76.395 Y117.473 E24.0835
G1 X76.593 Y116.648 E24.11172
G1 X76.868 Y115.845 E24.13995
G1 X77.217 Y115.072 E24.16816
G1 X77.637 Y114.336 E24.19634
G1 X78.125 Y113.642 E24.22456
G1 X78.676 Y112.997 E24.25278
G1 X79.286 Y112.407 E24.281
G1 X79.948 Y111.877 E24.30921
G1 X80.657 Y111.411 E24.33743
G1 X81.407 Y111.015 E24.36563
G1 X82.191 Y110.69 E24.39386
G1 X83.002 Y110.441 E24.42208
G1 X83.833 Y110.27 E24.4503
G1 X84.676 Y110.177 E24.47851
G1 X85.235 Y110.16 E24.49711
G1 X106.715 Y110.16 E25.21153
G1 X106.715 Y82.552 E26.12978
G1 X106.755 Y81.705 E26.15798
G1 X106.875 Y80.865 E26.18621
G1 X107.073 Y80.04 E26.21442
G1 X107.348 Y79.237 E26.24265
G1 X107.697 Y78.464 E26.27086
G1 X108.117 Y77.728 E26.29905
G1 X108.605 Y77.034 E26.32727
G0 F6000 X109.002 Y77.177
G1 F1200 X109.551 Y76.555 E26.35486
G1 X110.157 Y75.989 E26.38244
G1 X110.815 Y75.484 E26.41003
G1 X111.518 Y75.045 E26.43759
G1 X112.261 Y74.676 E26.46519
G1 X113.036 Y74.38 E26.49278
G1 X113.835 Y74.16 E26.52034
G1 X114.652 Y74.018 E26.54792
G1 X115.715 Y73.952 E26.58335
G1 X134.765 Y73.952 E27.21695
G1 X135.593 Y73.992 E27.24452
G1 X136.414 Y74.112 E27.27212
G1 X137.219 Y74.31 E27.29969
G1 X138.001 Y74.584 E27.32725
G1 X138.754 Y74.933 E27.35486
G1 X139.469 Y75.353 E27.38244
G1 X140.14 Y75.839 E27.40999
G1 X140.762 Y76.388 E27.43759
G1 X141.328 Y76.994 E27.46517
G1 X141.833 Y77.652 E27.49275
G1 X142.272 Y78.355 E27.52032
G1 X142.641 Y79.098 E27.54791
G1 X142.937 Y79.873 E27.57551
G1 X143.157 Y80.672 E27.60307
G1 X143.299 Y81.489 E27.63065
G1 X143.365 Y82.552 E27.66607
G1 X143.365 Y137.448 E29.49192
G1 X143.325 Y138.276 E29.51949
G1 X143.205 Y139.097 E29.54709
G1 X143.007 Y139.902 E29.57466
G1 X142.733 Y140.684 E29.60222
G1 X142.384 Y141.437 E29.62983
G1 X141.964 Y142.152 E29.65741
G1 X141.478 Y142.823 E29.68496
G1 X140.929 Y143.445 E29.71256
G1 X140.323 Y144.011 E29.74014
G1 X139.665 Y144.516 E29.76773
G1 X138.962 Y144.955 E29.79529
G1 X138.219 Y145.324 E29.82288
G1 X137.444 Y145.62 E29.85048
G1 X136.645 Y145.84 E29.87804
G1 X135.828 Y145.982 E29.90562
G1 X134.765 Y146.048 E29.94104
G1 X85.235 Y146.048 E31.58842
G1 X84.407 Y146.008 E31.61599
G1 X83.586 Y145.888 E31.64359
G1 X82.781 Y145.69 E31.67116
G1 X81.999 Y145.416 E31.69872
G1 X81.246 Y145.067 E31.72632
G1 X80.531 Y144.647 E31.7539
G1 X79.86 Y144.161 E31.78146
G1 X79.238 Y143.612 E31.80905
G1 X78.672 Y143.006 E31.83663
G1 X78.167 Y142.348 E31.86422
G1 X77.728 Y141.645 E31.89179
G1 X77.359 Y140.902 E31.91938
G1 X77.063 Y140.127 E31.94697
G1 X76.843 Y139.328 E31.97454
G1 X76.701 Y138.511 E32.00212
G1 X76.635 Y137.448 E32.03754
G1 X76.635 Y119.16 E32.6458
G1 X76.675 Y118.332 E32.67337
G1 X76.795 Y117.511 E32.70097
G1 X76.993 Y116.706 E32.72854
G1 X77.267 Y115.924 E32.7561
G1 X77.616 Y115.171 E32.78371
G1 X78.036 Y114.456 E32.81129
G1 X78.522 Y113.785 E32.83884
G1 X79.071 Y113.163 E32.86644
G1 X79.677 Y112.597 E32.89402
G1 X80.335 Y112.092 E32.9216
G1 X81.038 Y111.653 E32.94917
G1 X81.781 Y111.284 E32.97676
G1 X82.556 Y110.988 E33.00436
G1 X83.355 Y110.768 E33.03192
G1 X84.172 Y110.626 E33.0595
G1 X85.235 Y110.56 E33.09492
G1 X107.115 Y110.56 E33.82266
G1 X107.115 Y82.552 E34.75421
G1 X107.155 Y81.724 E34.78178
G1 X107.275 Y80.903 E34.80937
G1 X107.473 Y80.098 E34.83695
G1 X107.747 Y79.316 E34.86451
G1 X108.096 Y78.563 E34.89211
G1 X108.516 Y77.848 E34.91969
G1 X109.002 Y77.177 E34.94725
G0 F6000 X108.914 Y77.971
G1 F1200 X109.399 Y77.323 E34.97417
G1 X109.945 Y76.726 E35.00108
G1 X110.548 Y76.185 E35.02802
G1 X111.201 Y75.706 E35.05496
G1 X111.898 Y75.295 E35.08187
G1 X112.632 Y74.953 E35.1088
G1 X113.397 Y74.687 E35.13574
G1 X114.184 Y74.496 E35.16268
G1 X114.986 Y74.384 E35.18961
G1 X115.715 Y74.352 E35.21388
G1 X134.765 Y74.352 E35.84748
G1 X135.574 Y74.392 E35.87443
G1 X136.375 Y74.512 E35.90136
G1 X137.16 Y74.709 E35.92828
G1 X137.921 Y74.984 E35.9552
G1 X138.652 Y75.332 E35.98212
G1 X139.346 Y75.751 E36.00909
G1 X139.994 Y76.236 E36.03601
G1 X140.591 Y76.782 E36.06292
G1 X141.132 Y77.385 E36.08986
G1 X141.611 Y78.038 E36.1168
G1 X142.022 Y78.735 E36.14371
G1 X142.364 Y79.469 E36.17064
G1 X142.63 Y80.234 E36.19758
G1 X142.821 Y81.021 E36.22452
G1 X142.933 Y81.823 E36.25145
G1 X142.965 Y82.552 E36.27572
G1 X142.965 Y137.448 E38.10157
G1 X142.925 Y138.257 E38.12851
G1 X142.805 Y139.058 E38.15545
G1 X142.608 Y139.843 E38.18236
G1 X142.333 Y140.604 E38.20928
G1 X141.985 Y141.335 E38.23621
G1 X141.566 Y142.029 E38.26317
G1 X141.081 Y142.677 E38.29009
G1 X140.535 Y143.274 E38.317
G1 X139.932 Y143.815 E38.34394
G1 X139.279 Y144.294 E38.37088
G1 X138.582 Y144.705 E38.39779
G1 X137.848 Y145.047 E38.42472
G1 X137.083 Y145.313 E38.45166
G1 X136.296 Y145.504 E38.4786
G1 X135.494 Y145.616 E38.50553
G1 X134.765 Y145.648 E38.5298
G1 X85.235 Y145.648 E40.17718
G1 X84.426 Y145.608 E40.20412
G1 X83.625 Y145.488 E40.23105
G1 X82.84 Y145.291 E40.25797
G1 X82.079 Y145.016 E40.28489
G1 X81.348 Y144.668 E40.31181
G1 X80.654 Y144.249 E40.33878
G1 X80.006 Y143.764 E40.3657
G1 X79.409 Y143.218 E40.39261
G1 X78.868 Y142.615 E40.41955
G1 X78.389 Y141.962 E40.44649
G1 X77.978 Y141.265 E40.4734
G1 X77.636 Y140.531 E40.50033
G1 X77.37 Y139.766 E40.52727
G1 X77.179 Y138.979 E40.55421
G1 X77.067 Y138.177 E40.58114
G1 X77.035 Y137.448 E40.60541
G1 X77.035 Y119.16 E41.21367
G1 X77.075 Y118.351 E41.24061
G1 X77.195 Y117.55 E41.26755
G1 X77.392 Y116.765 E41.29447
G1 X77.667 Y116.004 E41.32138
G1 X78.015 Y115.273 E41.34831
G1 X78.434 Y114.579 E41.37527
G1 X78.919 Y113.931 E41.40219
G1 X79.465 Y113.334 E41.4291
G1 X80.068 Y112.793 E41.45605
G1 X80.721 Y112.314 E41.48298
G1 X81.418 Y111.903 E41.50989
G1 X82.152 Y111.561 E41.53683
G1 X82.917 Y111.295 E41.56376
G1 X83.704 Y111.104 E41.5907
G1 X84.506 Y110.992 E41.61763
G1 X85.235 Y110.96 E41.6419
G1 X107.515 Y110.96 E42.38294
G1 X107.515 Y82.552 E43.32779
G1 X107.555 Y81.743 E43.35473
G1 X107.675 Y80.942 E43.38167
G1 X107.872 Y80.157 E43.40859
G1 X108.147 Y79.396 E43.4355
G1 X108.495 Y78.665 E43.46243
G1 X108.914 Y77.971 E43.4894
G0 F6000 X109.312 Y78.098
G1 F1200 X109.795 Y77.474 E43.51564
G1 X110.338 Y76.901 E43.5419
G1 X110.937 Y76.386 E43.56817
G1 X111.585 Y75.935 E43.59443
G1 X112.276 Y75.551 E43.62072
G1 X113.001 Y75.239 E43.64697
G1 X113.754 Y75.002 E43.67323
G1 X114.528 Y74.843 E43.69951
G1 X115.313 Y74.762 E43.72576
G1 X115.715 Y74.752 E43.73913
G1 X134.765 Y74.752 E44.37274
G1 X135.554 Y74.792 E44.39902
G1 X136.334 Y74.911 E44.42526
G1 X137.099 Y75.109 E44.45154
G1 X137.839 Y75.383 E44.47779
G1 X138.548 Y75.731 E44.50406
G1 X139.219 Y76.149 E44.53035
G1 X139.843 Y76.632 E44.55659
G1 X140.416 Y77.175 E44.58285
G1 X140.931 Y77.774 E44.60912
G1 X141.382 Y78.422 E44.63538
G1 X141.766 Y79.113 E44.66168
G1 X142.078 Y79.838 E44.68793
G1 X142.315 Y80.591 E44.71418
G1 X142.474 Y81.365 E44.74046
G1 X142.555 Y82.15 E44.76671
G1 X142.565 Y82.552 E44.78009
G1 X142.565 Y137.448 E46.60594
G1 X142.525 Y138.237 E46.63221
G1 X142.406 Y139.017 E46.65845
G1 X142.208 Y139.782 E46.68474
G1 X141.934 Y140.522 E46.71098
G1 X141.586 Y141.231 E46.73725
G1 X141.168 Y141.902 E46.76355
G1 X140.685 Y142.526 E46.78979
G1 X140.142 Y143.099 E46.81605
G1 X139.543 Y143.614 E46.84232
G1 X138.895 Y144.065 E46.86858
G1 X138.204 Y144.449 E46.89487
G1 X137.479 Y144.761 E46.92112
G1 X136.726 Y144.998 E46.94738
G1 X135.952 Y145.157 E46.97366
G1 X135.167 Y145.238 E46.99991
G1 X134.765 Y145.248 E47.01328
G1 X85.235 Y145.248 E48.66066
G1 X84.446 Y145.208 E48.68693
G1 X83.666 Y145.089 E48.71318
G1 X82.901 Y144.891 E48.73946
G1 X82.161 Y144.617 E48.76571
G1 X81.452 Y144.269 E48.79197
G1 X80.781 Y143.851 E48.81827
G1 X80.157 Y143.368 E48.84451
G1 X79.584 Y142.825 E48.87077
G1 X79.069 Y142.226 E48.89704
G1 X78.618 Y141.578 E48.9233
G1 X78.234 Y140.887 E48.94959
