;FLAVOR:Marlin
;TIME:18926
;Filament used: 11.7215m
;Layer height: 0.2
;MINX:31.054
;MINY:60.904
;MINZ:0.2
;MAXX:188.946
;MAXY:159.096
;MAXZ:15.2
;Generated with Cura_SteamEngine 4.11.0
M140 S50
M105
M190 S50
M104 S200
M105
M109 S200
M82 ;absolute extrusion mode
; Ender 3 Custom Start G-code
G92 E0 ; Reset Extruder
G28 ; Home all axes
G29 ; Auto bed-level (BL-Touch)
G1 Z2.0 F3000 ; Move Z Axis up little to prevent scratching of Heat Bed
G1 X0.1 Y20 Z0.3 F5000.0 ; Move to start position
G1 X0.1 Y200.0 Z0.3 F1500.0 E15 ; Draw the first line
G1 X0.4 Y200.0 Z0.3 F5000.0 ; Move to side a little
G1 X0.4 Y20 Z0.3 F1500.0 E30 ; Draw the second line
G92 E0 ; Reset Extruder
G1 Z2.0 F3000 ; Move Z Axis up little to prevent scratching of Heat Bed
G1 X5 Y20 Z0.3 F5000.0 ; Move over to prevent blob squish
G92 E0
G92 E0
G1 F2700 E-5
;LAYER_COUNT:76
;LAYER:0
M107
G0 F6000 X38.278 Y62.818 Z0.2
;TYPE:SKIRT
G1 F2700 E0
G1 F1200 X39.003 Y62.442 E0.02716
G1 X39.731 Y62.102 E0.05389
G1 X40.549 Y61.764 E0.08333
G1 X41.343 Y61.515 E0.111
G1 X42.116 Y61.308 E0.13762
G1 X42.981 Y61.117 E0.16708
G1 X43.797 Y61.011 E0.19445
G1 X44.597 Y60.941 E0.22116
G1 X45.451 Y60.904 E0.24959
G1 X174.549 Y60.905 E4.54341
G1 X175.391 Y60.941 E4.57144
G1 X176.191 Y61.01 E4.59814
G1 X177.069 Y61.126 E4.6276
G1 X177.884 Y61.308 E4.65538
G1 X178.657 Y61.515 E4.68199
G1 X179.501 Y61.782 E4.71143
G1 X180.269 Y62.102 E4.73911
G1 X180.997 Y62.442 E4.76583
G1 X181.781 Y62.852 E4.79526
G1 X182.469 Y63.292 E4.82242
G1 X183.122 Y63.749 E4.84893
G1 X183.824 Y64.289 E4.87839
G1 X184.433 Y64.848 E4.90588
G1 X185.002 Y65.417 E4.93264
G1 X185.599 Y66.071 E4.9621
G1 X186.101 Y66.728 E4.9896
G1 X186.558 Y67.381 E5.01611
G1 X187.032 Y68.128 E5.04553
G1 X187.409 Y68.854 E5.07274
G1 X187.748 Y69.58 E5.09939
G1 X188.086 Y70.398 E5.12883
G1 X188.333 Y71.186 E5.15629
G1 X188.541 Y71.961 E5.18298
G1 X188.732 Y72.825 E5.21241
G1 X188.839 Y73.645 E5.23992
G1 X188.909 Y74.443 E5.26656
G1 X188.946 Y75.299 E5.29506
G1 X188.945 Y144.699 E7.60331
G1 X188.909 Y145.541 E7.63134
G1 X188.84 Y146.341 E7.65805
G1 X188.724 Y147.219 E7.68751
G1 X188.542 Y148.037 E7.71538
G1 X188.335 Y148.809 E7.74196
G1 X188.067 Y149.653 E7.77141
G1 X187.751 Y150.413 E7.79879
G1 X187.411 Y151.142 E7.82554
G1 X187.001 Y151.927 E7.855
G1 X186.558 Y152.619 E7.88233
G1 X186.101 Y153.272 E7.90884
G1 X185.561 Y153.974 E7.9383
G1 X185.002 Y154.583 E7.96579
G1 X184.433 Y155.152 E7.99255
G1 X183.779 Y155.749 E8.02201
G1 X183.122 Y156.251 E8.04951
G1 X182.469 Y156.708 E8.07602
G1 X181.722 Y157.182 E8.10544
G1 X180.997 Y157.558 E8.1326
G1 X180.269 Y157.898 E8.15933
G1 X179.451 Y158.236 E8.18877
G1 X178.657 Y158.485 E8.21644
G1 X177.884 Y158.692 E8.24306
G1 X177.019 Y158.883 E8.27252
G1 X176.203 Y158.989 E8.29989
G1 X175.403 Y159.059 E8.3266
G1 X174.549 Y159.096 E8.35503
G1 X45.451 Y159.095 E12.64885
G1 X44.609 Y159.059 E12.67688
G1 X43.809 Y158.99 E12.70359
G1 X42.931 Y158.874 E12.73304
G1 X42.116 Y158.692 E12.76082
G1 X41.343 Y158.485 E12.78743
G1 X40.499 Y158.218 E12.81687
G1 X39.731 Y157.898 E12.84455
G1 X39.003 Y157.558 E12.87127
G1 X38.219 Y157.148 E12.9007
G1 X37.531 Y156.708 E12.92786
G1 X36.878 Y156.251 E12.95437
G1 X36.176 Y155.711 E12.98383
G1 X35.567 Y155.152 E13.01132
G1 X34.998 Y154.583 E13.03809
G1 X34.401 Y153.929 E13.06754
G1 X33.899 Y153.272 E13.09504
G1 X33.442 Y152.619 E13.12155
G1 X32.968 Y151.872 E13.15097
G1 X32.589 Y151.142 E13.17833
G1 X32.249 Y150.413 E13.20508
G1 X31.912 Y149.595 E13.23451
G1 X31.665 Y148.809 E13.26191
G1 X31.458 Y148.037 E13.2885
G1 X31.268 Y147.173 E13.31792
G1 X31.161 Y146.355 E13.34536
G1 X31.091 Y145.557 E13.372
G1 X31.054 Y144.701 E13.4005
G1 X31.055 Y75.301 E15.70875
G1 X31.091 Y74.459 E15.73678
G1 X31.16 Y73.659 E15.76349
G1 X31.276 Y72.781 E15.79295
G1 X31.458 Y71.963 E15.82082
G1 X31.665 Y71.191 E15.8474
G1 X31.933 Y70.347 E15.87685
G1 X32.249 Y69.587 E15.90423
G1 X32.589 Y68.858 E15.93098
G1 X32.999 Y68.073 E15.96044
G1 X33.442 Y67.381 E15.98777
G1 X33.899 Y66.728 E16.01428
G1 X34.439 Y66.026 E16.04374
G1 X34.998 Y65.417 E16.07123
G1 X35.567 Y64.848 E16.09799
G1 X36.221 Y64.251 E16.12745
G1 X36.878 Y63.749 E16.15495
G1 X37.531 Y63.292 E16.18146
G1 X38.278 Y62.818 E16.21088
G0 F6000 X38.493 Y63.156
G1 F1200 X39.172 Y62.804 E16.23632
G1 X39.9 Y62.464 E16.26304
G1 X40.702 Y62.134 E16.29189
G1 X41.446 Y61.901 E16.31782
G1 X42.219 Y61.694 E16.34443
G1 X43.066 Y61.509 E16.37327
G1 X43.832 Y61.41 E16.39896
G1 X44.632 Y61.34 E16.42567
G1 X45.451 Y61.304 E16.45293
G1 X174.549 Y61.305 E20.74675
G1 X175.357 Y61.34 E20.77365
G1 X176.157 Y61.409 E20.80036
G1 X177.016 Y61.523 E20.82918
G1 X177.781 Y61.694 E20.85525
G1 X178.554 Y61.901 E20.88187
G1 X179.38 Y62.164 E20.9107
G1 X180.1 Y62.464 E20.93664
G1 X180.828 Y62.804 E20.96337
G1 X181.595 Y63.207 E20.99218
G1 X182.24 Y63.62 E21.01766
G1 X182.893 Y64.077 E21.04417
G1 X183.579 Y64.606 E21.07298
G1 X184.15 Y65.131 E21.09878
G1 X184.719 Y65.7 E21.12554
G1 X185.303 Y66.341 E21.15438
G1 X185.773 Y66.957 E21.18015
G1 X186.23 Y67.61 E21.20666
G1 X186.694 Y68.343 E21.23552
G1 X187.046 Y69.023 E21.26098
G1 X187.385 Y69.749 E21.28763
G1 X187.715 Y70.551 E21.31648
G1 X187.947 Y71.289 E21.34221
G1 X188.155 Y72.064 E21.3689
G1 X188.341 Y72.911 E21.39774
G1 X188.44 Y73.68 E21.42353
G1 X188.51 Y74.478 E21.45017
G1 X188.546 Y75.299 E21.4775
G1 X188.545 Y144.699 E23.78576
G1 X188.51 Y145.507 E23.81266
G1 X188.441 Y146.307 E23.83936
G1 X188.327 Y147.166 E23.86818
G1 X188.155 Y147.933 E23.89433
G1 X187.948 Y148.705 E23.92091
G1 X187.685 Y149.532 E23.94978
G1 X187.388 Y150.244 E23.97544
G1 X187.048 Y150.973 E24.00219
G1 X186.646 Y151.741 E24.03102
G1 X186.23 Y152.39 E24.05666
G1 X185.773 Y153.043 E24.08317
G1 X185.244 Y153.729 E24.11198
G1 X184.719 Y154.3 E24.13778
G1 X184.15 Y154.869 E24.16455
G1 X183.509 Y155.453 E24.19339
G1 X182.893 Y155.923 E24.21916
G1 X182.24 Y156.38 E24.24567
G1 X181.507 Y156.844 E24.27452
G1 X180.828 Y157.196 E24.29996
G1 X180.1 Y157.536 E24.32668
G1 X179.298 Y157.866 E24.35553
G1 X178.554 Y158.099 E24.38146
G1 X177.781 Y158.306 E24.40807
G1 X176.934 Y158.491 E24.43691
G1 X176.168 Y158.59 E24.4626
G1 X175.368 Y158.66 E24.48931
G1 X174.549 Y158.696 E24.51657
G1 X45.451 Y158.695 E28.81039
G1 X44.643 Y158.66 E28.83729
G1 X43.843 Y158.591 E28.864
G1 X42.984 Y158.477 E28.89282
G1 X42.219 Y158.306 E28.91889
G1 X41.446 Y158.099 E28.94551
G1 X40.62 Y157.836 E28.97434
G1 X39.9 Y157.536 E29.00028
G1 X39.172 Y157.196 E29.027
G1 X38.405 Y156.793 E29.05582
G1 X37.76 Y156.38 E29.0813
G1 X37.107 Y155.923 E29.10781
G1 X36.421 Y155.394 E29.13662
G1 X35.85 Y154.869 E29.16242
G1 X35.281 Y154.3 E29.18918
G1 X34.697 Y153.659 E29.21802
G1 X34.227 Y153.043 E29.24379
G1 X33.77 Y152.39 E29.2703
G1 X33.306 Y151.657 E29.29916
G1 X32.952 Y150.973 E29.32477
G1 X32.612 Y150.244 E29.35153
G1 X32.282 Y149.442 E29.38037
G1 X32.052 Y148.705 E29.40605
G1 X31.845 Y147.933 E29.43263
G1 X31.659 Y147.087 E29.46144
G1 X31.56 Y146.32 E29.48717
G1 X31.49 Y145.522 E29.51381
G1 X31.454 Y144.701 E29.54114
G1 X31.455 Y75.301 E31.8494
G1 X31.49 Y74.493 E31.87629
G1 X31.559 Y73.693 E31.903
G1 X31.673 Y72.834 E31.93182
G1 X31.845 Y72.067 E31.95797
G1 X32.052 Y71.295 E31.98455
G1 X32.315 Y70.468 E32.01341
G1 X32.612 Y69.756 E32.03907
G1 X32.952 Y69.027 E32.06583
G1 X33.354 Y68.259 E32.09466
G1 X33.77 Y67.61 E32.1203
G1 X34.227 Y66.957 E32.14681
G1 X34.756 Y66.271 E32.17562
G1 X35.281 Y65.7 E32.20142
G1 X35.85 Y65.131 E32.22818
G1 X36.491 Y64.547 E32.25702
G1 X37.107 Y64.077 E32.2828
G1 X37.76 Y63.62 E32.3093
G1 X38.493 Y63.156 E32.33816
G0 F6000 X38.707 Y63.494
G1 F1200 X39.342 Y63.166 E32.36193
G1 X40.07 Y62.826 E32.38865
G1 X40.854 Y62.504 E32.41684
G1 X41.55 Y62.287 E32.44109
G1 X42.323 Y62.08 E32.46771
G1 X43.152 Y61.9 E32.49592
G1 X43.866 Y61.808 E32.51987
G1 X44.666 Y61.738 E32.54658
G1 X45.451 Y61.704 E32.57271
G1 X174.549 Y61.705 E36.86653
G1 X175.322 Y61.738 E36.89226
G1 X176.122 Y61.807 E36.91897
G1 X176.963 Y61.92 E36.94719
G1 X177.677 Y62.08 E36.97153
G1 X178.45 Y62.287 E36.99814
G1 X179.258 Y62.545 E37.02635
G1 X179.93 Y62.826 E37.05058
G1 X180.658 Y63.166 E37.0773
G1 X181.409 Y63.561 E37.10553
G1 X182.01 Y63.947 E37.12928
G1 X182.663 Y64.404 E37.15579
G1 X183.335 Y64.923 E37.18403
G1 X183.867 Y65.414 E37.20811
G1 X184.436 Y65.983 E37.23488
G1 X185.007 Y66.61 E37.26308
G1 X185.446 Y67.187 E37.2872
G1 X185.903 Y67.84 E37.31371
G1 X186.356 Y68.557 E37.34191
G1 X186.684 Y69.192 E37.36569
G1 X187.023 Y69.918 E37.39234
G1 X187.345 Y70.703 E37.42056
G1 X187.56 Y71.393 E37.44459
G1 X187.768 Y72.168 E37.47128
G1 X187.949 Y72.997 E37.4995
G1 X188.042 Y73.715 E37.52358
G1 X188.112 Y74.513 E37.55023
G1 X188.146 Y75.299 E37.5764
G1 X188.145 Y144.699 E39.88465
G1 X188.112 Y145.472 E39.91038
G1 X188.043 Y146.272 E39.93709
G1 X187.93 Y147.113 E39.96531
G1 X187.769 Y147.83 E39.98975
G1 X187.562 Y148.602 E40.01634
G1 X187.304 Y149.41 E40.04455
G1 X187.026 Y150.075 E40.06852
G1 X186.686 Y150.804 E40.09528
G1 X186.291 Y151.555 E40.1235
G1 X185.903 Y152.16 E40.1474
G1 X185.446 Y152.813 E40.17391
G1 X184.927 Y153.485 E40.20215
G1 X184.436 Y154.017 E40.22623
G1 X183.867 Y154.586 E40.253
G1 X183.24 Y155.157 E40.2812
G1 X182.663 Y155.596 E40.30532
G1 X182.01 Y156.053 E40.33182
G1 X181.293 Y156.506 E40.36003
G1 X180.658 Y156.834 E40.3838
G1 X179.93 Y157.174 E40.41053
G1 X179.146 Y157.496 E40.43872
G1 X178.45 Y157.713 E40.46297
G1 X177.677 Y157.92 E40.48958
G1 X176.848 Y158.1 E40.5178
G1 X176.134 Y158.192 E40.54174
G1 X175.334 Y158.262 E40.56845
G1 X174.549 Y158.296 E40.59458
G1 X45.451 Y158.295 E44.8884
G1 X44.678 Y158.262 E44.91414
G1 X43.878 Y158.193 E44.94084
G1 X43.037 Y158.08 E44.96907
G1 X42.323 Y157.92 E44.9934
G1 X41.55 Y157.713 E45.02002
G1 X40.742 Y157.455 E45.04823
G1 X40.07 Y157.174 E45.07246
G1 X39.342 Y156.834 E45.09918
G1 X38.591 Y156.439 E45.1274
G1 X37.99 Y156.053 E45.15116
G1 X37.337 Y155.596 E45.17767
G1 X36.665 Y155.077 E45.20591
G1 X36.133 Y154.586 E45.22999
G1 X35.564 Y154.017 E45.25675
G1 X34.993 Y153.39 E45.28496
G1 X34.554 Y152.813 E45.30907
G1 X34.097 Y152.16 E45.33558
G1 X33.644 Y151.443 E45.36379
G1 X33.314 Y150.804 E45.38771
G1 X32.974 Y150.075 E45.41446
G1 X32.653 Y149.29 E45.44267
G1 X32.438 Y148.602 E45.46665
G1 X32.231 Y147.83 E45.49323
G1 X32.05 Y147.001 E45.52145
G1 X31.958 Y146.285 E45.54546
G1 X31.888 Y145.487 E45.57211
G1 X31.854 Y144.701 E45.59827
G1 X31.855 Y75.301 E47.90653
G1 X31.888 Y74.528 E47.93226
G1 X31.957 Y73.728 E47.95897
G1 X32.07 Y72.887 E47.98719
G1 X32.231 Y72.17 E48.01163
G1 X32.438 Y71.398 E48.03821
G1 X32.696 Y70.59 E48.06643
G1 X32.974 Y69.925 E48.0904
G1 X33.314 Y69.196 E48.11715
G1 X33.709 Y68.445 E48.14537
G1 X34.097 Y67.84 E48.16928
G1 X34.554 Y67.187 E48.19579
G1 X35.073 Y66.515 E48.22403
G1 X35.564 Y65.983 E48.24811
G1 X36.133 Y65.414 E48.27487
G1 X36.76 Y64.843 E48.30308
G1 X37.337 Y64.404 E48.32719
G1 X37.99 Y63.947 E48.3537
G1 X38.707 Y63.494 E48.38191
G0 F6000 X38.92 Y63.833
G1 F1200 X39.511 Y63.529 E48.40402
G1 X40.239 Y63.189 E48.43074
G1 X41.006 Y62.875 E48.4583
G1 X41.653 Y62.674 E48.48084
G1 X42.426 Y62.467 E48.50745
G1 X43.237 Y62.291 E48.53506
G1 X43.901 Y62.207 E48.55732
G1 X44.701 Y62.137 E48.58403
G1 X45.451 Y62.104 E48.609
G1 X174.549 Y62.105 E52.90281
G1 X175.288 Y62.137 E52.92742
G1 X176.088 Y62.206 E52.95412
G1 X176.91 Y62.317 E52.98171
G1 X177.574 Y62.467 E53.00435
G1 X178.347 Y62.674 E53.03097
G1 X179.136 Y62.927 E53.05853
G1 X179.761 Y63.189 E53.08107
G1 X180.489 Y63.529 E53.10779
G1 X181.223 Y63.916 E53.13539
G1 X181.781 Y64.275 E53.15746
G1 X182.434 Y64.732 E53.18397
G1 X183.09 Y65.24 E53.21156
G1 X183.584 Y65.697 E53.23394
G1 X184.153 Y66.266 E53.26071
G1 X184.711 Y66.88 E53.2883
G1 X185.118 Y67.416 E53.31069
G1 X185.575 Y68.069 E53.3372
G1 X186.017 Y68.77 E53.36476
G1 X186.321 Y69.361 E53.38687
G1 X186.66 Y70.087 E53.41352
G1 X186.975 Y70.855 E53.44112
G1 X187.174 Y71.497 E53.46348
G1 X187.382 Y72.272 E53.49017
G1 X187.558 Y73.082 E53.51774
G1 X187.643 Y73.749 E53.5401
G1 X187.713 Y74.547 E53.56674
G1 X187.746 Y75.299 E53.59178
G1 X187.745 Y144.699 E55.90003
G1 X187.713 Y145.438 E55.92464
G1 X187.644 Y146.238 E55.95134
G1 X187.533 Y147.06 E55.97893
G1 X187.383 Y147.726 E56.00164
G1 X187.176 Y148.498 E56.02822
G1 X186.922 Y149.288 E56.05582
G1 X186.663 Y149.906 E56.07811
G1 X186.323 Y150.635 E56.10486
G1 X185.937 Y151.369 E56.13245
G1 X185.575 Y151.931 E56.15468
G1 X185.118 Y152.584 E56.18119
G1 X184.61 Y153.24 E56.20878
G1 X184.153 Y153.734 E56.23117
G1 X183.584 Y154.303 E56.25793
G1 X182.97 Y154.861 E56.28553
G1 X182.434 Y155.268 E56.30791
G1 X181.781 Y155.725 E56.33442
G1 X181.08 Y156.167 E56.36198
G1 X180.489 Y156.471 E56.38409
G1 X179.761 Y156.811 E56.41081
G1 X178.994 Y157.125 E56.43838
G1 X178.347 Y157.326 E56.46091
G1 X177.574 Y157.533 E56.48753
G1 X176.763 Y157.709 E56.51513
G1 X176.099 Y157.793 E56.53739
G1 X175.299 Y157.863 E56.5641
G1 X174.549 Y157.896 E56.58907
G1 X45.451 Y157.895 E60.88289
G1 X44.712 Y157.863 E60.90749
G1 X43.912 Y157.794 E60.9342
G1 X43.09 Y157.683 E60.96178
G1 X42.426 Y157.533 E60.98442
G1 X41.653 Y157.326 E61.01104
G1 X40.864 Y157.073 E61.0386
G1 X40.239 Y156.811 E61.06114
G1 X39.511 Y156.471 E61.08786
G1 X38.777 Y156.084 E61.11546
G1 X38.219 Y155.725 E61.13753
G1 X37.566 Y155.268 E61.16404
G1 X36.91 Y154.76 E61.19164
G1 X36.416 Y154.303 E61.21402
G1 X35.847 Y153.734 E61.24078
G1 X35.289 Y153.12 E61.26838
G1 X34.882 Y152.584 E61.29076
G1 X34.425 Y151.931 E61.31727
G1 X33.983 Y151.23 E61.34483
G1 X33.677 Y150.635 E61.36709
G1 X33.337 Y149.906 E61.39384
G1 X33.023 Y149.139 E61.42141
G1 X32.824 Y148.498 E61.44373
G1 X32.617 Y147.726 E61.47031
G1 X32.442 Y146.916 E61.49788
G1 X32.357 Y146.251 E61.52017
G1 X32.287 Y145.453 E61.54682
G1 X32.254 Y144.701 E61.57185
G1 X32.255 Y75.301 E63.88011
G1 X32.287 Y74.562 E63.90471
G1 X32.356 Y73.762 E63.93142
G1 X32.467 Y72.94 E63.959
G1 X32.617 Y72.274 E63.98171
G1 X32.824 Y71.502 E64.00829
G1 X33.078 Y70.712 E64.03589
G1 X33.337 Y70.094 E64.05818
G1 X33.677 Y69.365 E64.08494
G1 X34.063 Y68.631 E64.11252
G1 X34.425 Y68.069 E64.13475
G1 X34.882 Y67.416 E64.16126
G1 X35.39 Y66.76 E64.18886
G1 X35.847 Y66.266 E64.21124
G1 X36.416 Y65.697 E64.23801
G1 X37.03 Y65.139 E64.2656
G1 X37.566 Y64.732 E64.28798
G1 X38.219 Y64.275 E64.31449
G1 X38.92 Y63.833 E64.34206
G0 F6000 X39.134 Y64.172
G1 F1200 X39.68 Y63.891 E64.36248
G1 X40.408 Y63.551 E64.3892
G1 X41.158 Y63.245 E64.41615
G1 X41.757 Y63.06 E64.437
G1 X42.53 Y62.853 E64.46361
G1 X43.321 Y62.683 E64.49052
G1 X43.936 Y62.605 E64.51114
G1 X44.736 Y62.535 E64.53785
G1 X45.451 Y62.504 E64.56166
G1 X174.549 Y62.505 E68.85547
G1 X175.254 Y62.535 E68.87894
G1 X176.054 Y62.604 E68.90565
G1 X176.856 Y62.714 E68.93257
G1 X177.47 Y62.853 E68.95351
G1 X178.243 Y63.06 E68.98013
G1 X179.014 Y63.308 E69.00706
G1 X179.592 Y63.551 E69.02792
G1 X180.32 Y63.891 E69.05464
G1 X181.036 Y64.27 E69.08159
G1 X181.552 Y64.603 E69.10201
G1 X182.205 Y65.06 E69.12852
G1 X182.844 Y65.556 E69.15543
G1 X183.301 Y65.98 E69.17616
G1 X183.87 Y66.549 E69.20293
G1 X184.414 Y67.149 E69.22986
G1 X184.79 Y67.645 E69.25056
G1 X185.247 Y68.298 E69.27707
G1 X185.678 Y68.984 E69.30402
G1 X185.959 Y69.531 E69.32447
G1 X186.298 Y70.257 E69.35112
G1 X186.604 Y71.006 E69.37803
G1 X186.788 Y71.6 E69.39872
G1 X186.996 Y72.375 E69.42541
G1 X187.167 Y73.167 E69.45235
G1 X187.245 Y73.784 E69.47304
G1 X187.315 Y74.582 E69.49968
G1 X187.346 Y75.299 E69.52355
G1 X187.345 Y144.699 E71.83181
G1 X187.315 Y145.404 E71.85528
G1 X187.246 Y146.204 E71.88198
G1 X187.136 Y147.006 E71.90891
G1 X186.996 Y147.623 E71.92995
G1 X186.789 Y148.395 E71.95653
G1 X186.541 Y149.165 E71.98344
G1 X186.3 Y149.737 E72.00408
G1 X185.96 Y150.466 E72.03084
G1 X185.582 Y151.182 E72.05777
G1 X185.247 Y151.702 E72.07834
G1 X184.79 Y152.355 E72.10485
G1 X184.294 Y152.994 E72.13175
G1 X183.87 Y153.451 E72.15249
G1 X183.301 Y154.02 E72.17925
G1 X182.701 Y154.564 E72.20619
G1 X182.205 Y154.94 E72.22689
G1 X181.552 Y155.397 E72.2534
G1 X180.866 Y155.828 E72.28035
G1 X180.32 Y156.109 E72.30077
G1 X179.592 Y156.449 E72.32749
G1 X178.842 Y156.755 E72.35444
