;FLAVOR:Marlin
;TIME:7506
;Filament used: 4.13872m
;Layer height: 0.2
;MINX:60.2
;MINY:96.2
;MINZ:0.2
;MAXX:159.8
;MAXY:123.8
;MAXZ:25
;Generated with Cura_SteamEngine 4.11.0
M140 S50
M105
M190 S50
M104 S200
M105
M109 S200
M82 ;absolute extrusion mode
; Ender 3 Custom Start G-code
G92 E0 ; Reset Extruder
G28 ; Home all axes
G29 ; Auto bed-level (BL-Touch)
G1 Z2.0 F3000 ; Move Z Axis up little to prevent scratching of Heat Bed
G1 X0.1 Y20 Z0.3 F5000.0 ; Move to start position
G1 X0.1 Y200.0 Z0.3 F1500.0 E15 ; Draw the first line
G1 X0.4 Y200.0 Z0.3 F5000.0 ; Move to side a little
G1 X0.4 Y20 Z0.3 F1500.0 E30 ; Draw the second line
G92 E0 ; Reset Extruder
G1 Z2.0 F3000 ; Move Z Axis up little to prevent scratching of Heat Bed
G1 X5 Y20 Z0.3 F5000.0 ; Move over to prevent blob squish
G92 E0
G92 E0
G1 F2700 E-5
;LAYER_COUNT:125
;LAYER:0
M107
G0 F6000 X64.655 Y97.786 Z0.2
;TYPE:SKIRT
G1 F2700 E0
G1 F1200 X65.418 Y97.337 E0.02945
G1 X66.219 Y96.959 E0.0589
G1 X67.05 Y96.655 E0.08833
G1 X67.905 Y96.427 E0.11777
G1 X68.778 Y96.277 E0.14723
G1 X70 Y96.2 E0.18795
G1 X71.222 Y96.2 E0.2286
G1 X72.106 Y96.24 E0.25803
G1 X72.983 Y96.36 E0.28747
G1 X73.846 Y96.558 E0.31692
G1 X74.687 Y96.833 E0.34635
G1 X75.5 Y97.183 E0.37579
G1 X76.279 Y97.605 E0.40525
G1 X77.015 Y98.096 E0.43468
G1 X77.705 Y98.651 E0.46413
G1 X78.152 Y99.07 E0.48451
G1 X79.93 Y100.848 E0.56814
G1 X80.251 Y101.2 E0.58399
G1 X84.829 Y101.2 E0.73625
G1 X85.159 Y100.848 E0.7523
G1 X86.937 Y99.07 E0.83593
G1 X87.591 Y98.473 E0.86538
G1 X88.296 Y97.938 E0.89482
G1 X89.046 Y97.468 E0.92426
G1 X89.836 Y97.068 E0.95371
G1 X90.658 Y96.74 E0.98315
G1 X91.507 Y96.489 E1.01259
G1 X92.375 Y96.314 E1.04204
G1 X93.255 Y96.219 E1.07148
G1 X93.867 Y96.2 E1.09185
G1 X95.089 Y96.2 E1.13249
G1 X95.973 Y96.24 E1.16192
G1 X96.85 Y96.36 E1.19136
G1 X97.713 Y96.558 E1.22081
G1 X98.554 Y96.833 E1.25024
G1 X99.367 Y97.183 E1.27968
G1 X100.146 Y97.605 E1.30915
G1 X100.882 Y98.096 E1.33858
G1 X101.572 Y98.651 E1.36803
G1 X102.141 Y99.2 E1.39433
G1 X150 Y99.2 E2.98612
G1 X150.884 Y99.24 E3.01555
G1 X151.761 Y99.36 E3.045
G1 X152.624 Y99.558 E3.07444
G1 X153.465 Y99.833 E3.10387
G1 X154.278 Y100.183 E3.13331
G1 X155.057 Y100.605 E3.16278
G1 X155.793 Y101.096 E3.19221
G1 X156.483 Y101.651 E3.22166
G1 X157.12 Y102.266 E3.25111
G1 X157.698 Y102.936 E3.28054
G1 X158.214 Y103.655 E3.30998
G1 X158.663 Y104.418 E3.33942
G1 X159.041 Y105.219 E3.36888
G1 X159.345 Y106.05 E3.39831
G1 X159.573 Y106.905 E3.42774
G1 X159.723 Y107.778 E3.4572
G1 X159.8 Y109 E3.49793
G1 X159.8 Y114 E3.66423
G1 X159.76 Y114.884 E3.69366
G1 X159.64 Y115.761 E3.7231
G1 X159.442 Y116.624 E3.75255
G1 X159.167 Y117.465 E3.78198
G1 X158.817 Y118.278 E3.81142
G1 X158.395 Y119.057 E3.84089
G1 X157.904 Y119.793 E3.87031
G1 X157.349 Y120.483 E3.89977
G1 X156.734 Y121.12 E3.92922
G1 X156.064 Y121.698 E3.95865
G1 X155.345 Y122.214 E3.98808
G1 X154.582 Y122.663 E4.01753
G1 X153.781 Y123.041 E4.04699
G1 X152.95 Y123.345 E4.07642
G1 X152.095 Y123.573 E4.10585
G1 X151.222 Y123.723 E4.13531
G1 X150 Y123.8 E4.17603
G1 X70 Y123.8 E6.83684
G1 X69.116 Y123.76 E6.86628
G1 X68.239 Y123.64 E6.89572
G1 X67.376 Y123.442 E6.92517
G1 X66.535 Y123.167 E6.9546
G1 X65.722 Y122.817 E6.98404
G1 X64.943 Y122.395 E7.0135
G1 X64.207 Y121.904 E7.04293
G1 X63.517 Y121.349 E7.07238
G1 X62.88 Y120.734 E7.10183
G1 X62.302 Y120.064 E7.13126
G1 X61.786 Y119.345 E7.1607
G1 X61.337 Y118.582 E7.19014
G1 X60.959 Y117.781 E7.2196
G1 X60.655 Y116.95 E7.24903
G1 X60.427 Y116.095 E7.27846
G1 X60.277 Y115.222 E7.30792
G1 X60.2 Y114 E7.34865
G1 X60.2 Y106 E7.61473
G1 X60.24 Y105.116 E7.64416
G1 X60.36 Y104.239 E7.6736
G1 X60.558 Y103.376 E7.70305
G1 X60.833 Y102.535 E7.73248
G1 X61.183 Y101.722 E7.76192
G1 X61.605 Y100.943 E7.79139
G1 X62.096 Y100.207 E7.82082
G1 X62.651 Y99.517 E7.85027
G1 X63.266 Y98.88 E7.87972
G1 X63.936 Y98.302 E7.90915
G1 X64.655 Y97.786 E7.93858
G0 F6000 X65.039 Y98.016
G1 F1200 X65.796 Y97.592 E7.96744
G1 X66.589 Y97.241 E7.99628
G1 X67.41 Y96.964 E8.0251
G1 X68.254 Y96.764 E8.05395
G1 X69.112 Y96.642 E8.08278
G1 X70 Y96.6 E8.11234
G1 X71.222 Y96.6 E8.15299
G1 X72.088 Y96.64 E8.18182
G1 X72.947 Y96.76 E8.21067
G1 X73.791 Y96.958 E8.2395
G1 X74.613 Y97.233 E8.26833
G1 X75.406 Y97.583 E8.29716
G1 X76.164 Y98.004 E8.326
G1 X76.879 Y98.493 E8.35481
G1 X77.547 Y99.046 E8.38366
G1 X77.869 Y99.353 E8.39845
G1 X79.647 Y101.131 E8.48208
G1 X80.074 Y101.6 E8.50318
G1 X85.013 Y101.6 E8.66745
G1 X85.135 Y101.453 E8.67381
G1 X85.442 Y101.131 E8.6886
G1 X87.22 Y99.353 E8.77224
G1 X87.861 Y98.769 E8.80108
G1 X88.553 Y98.246 E8.82993
G1 X89.29 Y97.79 E8.85875
G1 X90.065 Y97.403 E8.88756
G1 X90.874 Y97.089 E8.91643
G1 X91.707 Y96.851 E8.94524
G1 X92.559 Y96.691 E8.97407
G1 X93.422 Y96.611 E9.0029
G1 X93.867 Y96.6 E9.01771
G1 X95.089 Y96.6 E9.05835
G1 X95.955 Y96.64 E9.08718
G1 X96.814 Y96.76 E9.11603
G1 X97.658 Y96.958 E9.14487
G1 X98.48 Y97.233 E9.17369
G1 X99.273 Y97.583 E9.20252
G1 X100.031 Y98.004 E9.23136
G1 X100.746 Y98.493 E9.26017
G1 X101.414 Y99.046 E9.28902
G1 X101.969 Y99.6 E9.3151
G1 X150 Y99.6 E10.91262
G1 X150.866 Y99.64 E10.94145
G1 X151.725 Y99.76 E10.9703
G1 X152.569 Y99.958 E10.99913
G1 X153.391 Y100.233 E11.02796
G1 X154.184 Y100.583 E11.05679
G1 X154.942 Y101.004 E11.08563
G1 X155.657 Y101.493 E11.11444
G1 X156.325 Y102.046 E11.14328
G1 X156.939 Y102.659 E11.17214
G1 X157.494 Y103.325 E11.20098
G1 X157.984 Y104.039 E11.22978
G1 X158.408 Y104.796 E11.25864
G1 X158.759 Y105.589 E11.28748
G1 X159.036 Y106.41 E11.3163
G1 X159.236 Y107.254 E11.34515
G1 X159.358 Y108.112 E11.37397
G1 X159.4 Y109 E11.40354
G1 X159.4 Y114 E11.56984
G1 X159.36 Y114.866 E11.59867
G1 X159.24 Y115.725 E11.62752
G1 X159.042 Y116.569 E11.65636
G1 X158.767 Y117.391 E11.68519
G1 X158.417 Y118.184 E11.71402
G1 X157.996 Y118.942 E11.74285
G1 X157.507 Y119.657 E11.77166
G1 X156.954 Y120.325 E11.80051
G1 X156.341 Y120.939 E11.82937
G1 X155.675 Y121.494 E11.8582
G1 X154.961 Y121.984 E11.887
G1 X154.204 Y122.408 E11.91586
G1 X153.411 Y122.759 E11.9447
G1 X152.59 Y123.036 E11.97352
G1 X151.746 Y123.236 E12.00237
G1 X150.888 Y123.358 E12.0312
G1 X150 Y123.4 E12.06076
G1 X70 Y123.4 E14.72157
G1 X69.134 Y123.36 E14.75041
G1 X68.275 Y123.24 E14.77926
G1 X67.431 Y123.042 E14.80809
G1 X66.609 Y122.767 E14.83692
G1 X65.816 Y122.417 E14.86575
G1 X65.058 Y121.996 E14.89459
G1 X64.343 Y121.507 E14.9234
G1 X63.675 Y120.954 E14.95224
G1 X63.061 Y120.341 E14.9811
G1 X62.506 Y119.675 E15.00993
G1 X62.016 Y118.961 E15.03874
G1 X61.592 Y118.204 E15.06759
G1 X61.241 Y117.411 E15.09644
G1 X60.964 Y116.59 E15.12526
G1 X60.764 Y115.746 E15.15411
G1 X60.642 Y114.888 E15.18293
G1 X60.6 Y114 E15.2125
G1 X60.6 Y106 E15.47858
G1 X60.64 Y105.134 E15.50741
G1 X60.76 Y104.275 E15.53626
G1 X60.958 Y103.431 E15.56509
G1 X61.233 Y102.609 E15.59392
G1 X61.583 Y101.816 E15.62275
G1 X62.004 Y101.058 E15.65159
G1 X62.493 Y100.343 E15.6804
G1 X63.046 Y99.675 E15.70925
G1 X63.659 Y99.061 E15.7381
G1 X64.325 Y98.506 E15.76694
G1 X65.039 Y98.016 E15.79574
G0 F6000 X65.422 Y98.251
G1 F1200 X66.172 Y97.855 E15.82395
G1 X66.956 Y97.53 E15.85218
G1 X67.767 Y97.281 E15.88039
G1 X68.598 Y97.11 E15.90861
G1 X69.441 Y97.017 E15.93682
G1 X70 Y97 E15.95542
G1 X71.222 Y97 E15.99606
G1 X72.069 Y97.04 E16.02427
G1 X72.909 Y97.16 E16.05249
G1 X73.734 Y97.358 E16.08071
G1 X74.537 Y97.633 E16.10894
G1 X75.31 Y97.982 E16.13715
G1 X76.046 Y98.402 E16.16533
G1 X76.74 Y98.89 E16.19355
G1 X77.586 Y99.636 E16.23107
G1 X79.364 Y101.414 E16.3147
G1 X79.898 Y102 E16.34107
G1 X85.208 Y102 E16.51768
G1 X85.725 Y101.414 E16.54367
G1 X87.503 Y99.636 E16.6273
G1 X88.13 Y99.065 E16.65551
G1 X88.809 Y98.556 E16.68373
G1 X89.532 Y98.113 E16.71193
G1 X90.294 Y97.74 E16.74015
G1 X91.088 Y97.44 E16.76838
G1 X91.906 Y97.216 E16.79659
G1 X92.742 Y97.071 E16.82481
G1 X93.867 Y97 E16.8623
G1 X95.089 Y97 E16.90295
G1 X95.936 Y97.04 E16.93115
G1 X96.776 Y97.16 E16.95937
G1 X97.601 Y97.358 E16.98759
G1 X98.404 Y97.633 E17.01582
G1 X99.177 Y97.982 E17.04403
G1 X99.913 Y98.402 E17.07222
G1 X100.607 Y98.89 E17.10043
G1 X101.252 Y99.441 E17.12865
G1 X101.793 Y100 E17.15452
G1 X150 Y100 E18.75789
G1 X150.847 Y100.04 E18.7861
G1 X151.687 Y100.16 E18.81432
G1 X152.512 Y100.358 E18.84254
G1 X153.315 Y100.633 E18.87077
G1 X154.088 Y100.982 E18.89898
G1 X154.824 Y101.402 E18.92716
G1 X155.518 Y101.89 E18.95538
G1 X156.163 Y102.441 E18.98359
G1 X156.753 Y103.051 E19.01182
G1 X157.283 Y103.713 E19.04003
G1 X157.749 Y104.422 E19.06824
G1 X158.145 Y105.172 E19.09645
G1 X158.47 Y105.956 E19.12468
G1 X158.719 Y106.767 E19.1529
G1 X158.89 Y107.598 E19.18112
G1 X158.983 Y108.441 E19.20932
G1 X159 Y109 E19.22793
G1 X159 Y114 E19.39423
G1 X158.96 Y114.847 E19.42243
G1 X158.84 Y115.687 E19.45065
G1 X158.642 Y116.512 E19.47887
G1 X158.367 Y117.315 E19.5071
G1 X158.018 Y118.088 E19.53531
G1 X157.598 Y118.824 E19.56349
G1 X157.11 Y119.518 E19.59171
G1 X156.559 Y120.163 E19.61993
G1 X155.949 Y120.753 E19.64815
G1 X155.287 Y121.283 E19.67636
G1 X154.578 Y121.749 E19.70458
G1 X153.828 Y122.145 E19.73279
G1 X153.044 Y122.47 E19.76101
G1 X152.233 Y122.719 E19.78923
G1 X151.402 Y122.89 E19.81745
G1 X150.559 Y122.983 E19.84566
G1 X150 Y123 E19.86426
G1 X70 Y123 E22.52507
G1 X69.153 Y122.96 E22.55327
G1 X68.313 Y122.84 E22.58149
G1 X67.488 Y122.642 E22.60971
G1 X66.685 Y122.367 E22.63794
G1 X65.912 Y122.018 E22.66615
G1 X65.176 Y121.598 E22.69434
G1 X64.482 Y121.11 E22.72255
G1 X63.837 Y120.559 E22.75077
G1 X63.247 Y119.949 E22.779
G1 X62.717 Y119.287 E22.8072
G1 X62.251 Y118.578 E22.83542
G1 X61.855 Y117.828 E22.86363
G1 X61.53 Y117.044 E22.89186
G1 X61.281 Y116.233 E22.92007
G1 X61.11 Y115.402 E22.94829
G1 X61.017 Y114.559 E22.9765
G1 X61 Y114 E22.9951
G1 X61 Y106 E23.26118
G1 X61.04 Y105.153 E23.28938
G1 X61.16 Y104.313 E23.31761
G1 X61.358 Y103.488 E23.34583
G1 X61.633 Y102.685 E23.37406
G1 X61.982 Y101.912 E23.40227
G1 X62.402 Y101.176 E23.43045
G1 X62.89 Y100.482 E23.45867
G1 X63.441 Y99.837 E23.48688
G1 X64.051 Y99.247 E23.51511
G1 X64.713 Y98.717 E23.54331
G1 X65.422 Y98.251 E23.57153
G0 F6000 X65.1 Y98.932
G1 F1200 X65.803 Y98.493 E23.5991
G1 X66.546 Y98.124 E23.62669
G1 X67.321 Y97.828 E23.65428
G1 X68.12 Y97.608 E23.68185
G1 X68.937 Y97.466 E23.70943
G1 X70 Y97.4 E23.74485
G1 X71.222 Y97.4 E23.7855
G1 X72.05 Y97.44 E23.81307
G1 X72.871 Y97.56 E23.84067
G1 X73.676 Y97.758 E23.86824
G1 X74.458 Y98.032 E23.8958
G1 X75.211 Y98.381 E23.9234
G1 X75.926 Y98.801 E23.95098
G1 X76.597 Y99.287 E23.97854
G1 X77.303 Y99.919 E24.01005
G1 X79.081 Y101.697 E24.09369
G1 X79.639 Y102.311 E24.12128
G1 X79.705 Y102.4 E24.12497
G1 X85.379 Y102.4 E24.31368
G1 X86.008 Y101.697 E24.34506
G1 X87.786 Y99.919 E24.42869
G1 X88.4 Y99.361 E24.45629
G1 X89.065 Y98.866 E24.48386
G1 X89.774 Y98.436 E24.51144
G1 X90.521 Y98.077 E24.539
G1 X91.3 Y97.792 E24.56659
G1 X92.102 Y97.583 E24.59416
G1 X92.921 Y97.452 E24.62174
G1 X93.867 Y97.4 E24.65326
G1 X95.089 Y97.4 E24.6939
G1 X95.917 Y97.44 E24.72147
G1 X96.738 Y97.56 E24.74907
G1 X97.543 Y97.758 E24.77664
G1 X98.325 Y98.032 E24.8042
G1 X99.078 Y98.381 E24.8318
G1 X99.793 Y98.801 E24.85939
G1 X100.464 Y99.287 E24.88694
G1 X101.086 Y99.836 E24.91454
G1 X101.613 Y100.4 E24.94021
G1 X150 Y100.4 E26.54957
G1 X150.828 Y100.44 E26.57714
G1 X151.649 Y100.56 E26.60473
G1 X152.454 Y100.758 E26.63231
G1 X153.236 Y101.032 E26.65987
G1 X153.989 Y101.381 E26.68747
G1 X154.704 Y101.801 E26.71505
G1 X155.375 Y102.287 E26.74261
G1 X155.997 Y102.836 E26.7702
G1 X156.563 Y103.442 E26.79778
G1 X157.068 Y104.1 E26.82537
G1 X157.507 Y104.803 E26.85294
G1 X157.876 Y105.546 E26.88053
G1 X158.172 Y106.321 E26.90812
G1 X158.392 Y107.12 E26.93568
G1 X158.534 Y107.937 E26.96326
G1 X158.6 Y109 E26.99869
G1 X158.6 Y114 E27.16499
G1 X158.56 Y114.828 E27.19256
G1 X158.44 Y115.649 E27.22016
G1 X158.242 Y116.454 E27.24773
G1 X157.968 Y117.236 E27.27529
G1 X157.619 Y117.989 E27.30289
G1 X157.199 Y118.704 E27.33047
G1 X156.713 Y119.375 E27.35803
G1 X156.164 Y119.997 E27.38562
G1 X155.558 Y120.563 E27.4132
G1 X154.9 Y121.068 E27.44079
G1 X154.197 Y121.507 E27.46836
G1 X153.454 Y121.876 E27.49595
G1 X152.679 Y122.172 E27.52354
G1 X151.88 Y122.392 E27.55111
G1 X151.063 Y122.534 E27.57869
G1 X150 Y122.6 E27.61411
G1 X70 Y122.6 E30.27492
G1 X69.172 Y122.56 E30.30249
G1 X68.351 Y122.44 E30.33009
G1 X67.546 Y122.242 E30.35766
G1 X66.764 Y121.968 E30.38522
G1 X66.011 Y121.619 E30.41283
G1 X65.296 Y121.199 E30.44041
G1 X64.625 Y120.713 E30.46796
G1 X64.003 Y120.164 E30.49556
G1 X63.437 Y119.558 E30.52314
G1 X62.932 Y118.9 E30.55072
G1 X62.493 Y118.197 E30.57829
G1 X62.124 Y117.454 E30.60588
G1 X61.828 Y116.679 E30.63348
G1 X61.608 Y115.88 E30.66104
G1 X61.466 Y115.063 E30.68862
G1 X61.4 Y114 E30.72404
G1 X61.4 Y106 E30.99012
G1 X61.44 Y105.172 E31.0177
G1 X61.56 Y104.351 E31.04529
G1 X61.758 Y103.546 E31.07287
G1 X62.032 Y102.764 E31.10043
G1 X62.381 Y102.011 E31.12803
G1 X62.801 Y101.296 E31.15561
G1 X63.287 Y100.625 E31.18317
G1 X63.836 Y100.003 E31.21076
G1 X64.442 Y99.437 E31.23834
G1 X65.1 Y98.932 E31.26593
G0 F6000 X65.486 Y99.154
G1 F1200 X66.183 Y98.743 E31.29284
G1 X66.917 Y98.401 E31.31977
G1 X67.682 Y98.135 E31.34671
G1 X68.469 Y97.944 E31.37365
G1 X69.271 Y97.832 E31.40058
G1 X70 Y97.8 E31.42485
G1 X71.222 Y97.8 E31.46549
G1 X72.031 Y97.84 E31.49243
G1 X72.832 Y97.96 E31.51937
G1 X73.617 Y98.157 E31.54629
G1 X74.378 Y98.432 E31.5732
G1 X75.109 Y98.78 E31.60013
G1 X75.803 Y99.199 E31.6271
G1 X76.451 Y99.684 E31.65402
G1 X77.02 Y100.202 E31.67961
G1 X78.798 Y101.98 E31.76324
G1 X79.342 Y102.58 E31.79018
G1 X79.505 Y102.8 E31.79928
G1 X85.585 Y102.8 E32.00151
G1 X85.773 Y102.549 E32.01194
G1 X86.291 Y101.98 E32.03753
G1 X88.069 Y100.202 E32.12116
G1 X88.669 Y99.658 E32.1481
G1 X89.32 Y99.176 E32.17504
G1 X90.015 Y98.761 E32.20196
G1 X90.747 Y98.417 E32.22886
G1 X91.511 Y98.146 E32.25583
G1 X92.297 Y97.952 E32.28275
G1 X93.098 Y97.836 E32.30967
G1 X93.867 Y97.8 E32.33528
G1 X95.089 Y97.8 E32.37592
G1 X95.898 Y97.84 E32.40286
G1 X96.699 Y97.96 E32.4298
G1 X97.484 Y98.157 E32.45672
G1 X98.245 Y98.432 E32.48363
G1 X98.976 Y98.78 E32.51056
G1 X99.67 Y99.199 E32.53752
G1 X100.318 Y99.684 E32.56444
G1 X100.915 Y100.23 E32.59135
G1 X101.426 Y100.8 E32.61681
G1 X150 Y100.8 E34.23239
G1 X150.809 Y100.84 E34.25933
G1 X151.61 Y100.96 E34.28627
G1 X152.395 Y101.157 E34.31319
G1 X153.156 Y101.432 E34.3401
G1 X153.887 Y101.78 E34.36703
G1 X154.581 Y102.199 E34.39399
G1 X155.229 Y102.684 E34.42091
G1 X155.826 Y103.23 E34.44782
G1 X156.367 Y103.833 E34.47477
G1 X156.846 Y104.486 E34.5017
G1 X157.257 Y105.183 E34.52861
G1 X157.599 Y105.917 E34.55555
G1 X157.865 Y106.682 E34.58249
G1 X158.056 Y107.469 E34.60942
G1 X158.168 Y108.271 E34.63635
G1 X158.2 Y109 E34.66062
G1 X158.2 Y114 E34.82693
G1 X158.16 Y114.809 E34.85387
G1 X158.04 Y115.61 E34.8808
G1 X157.843 Y116.395 E34.90772
G1 X157.568 Y117.156 E34.93464
G1 X157.22 Y117.887 E34.96156
G1 X156.801 Y118.581 E34.98853
G1 X156.316 Y119.229 E35.01545
G1 X155.77 Y119.826 E35.04236
G1 X155.167 Y120.367 E35.0693
G1 X154.514 Y120.846 E35.09624
G1 X153.817 Y121.257 E35.12315
G1 X153.083 Y121.599 E35.15008
G1 X152.318 Y121.865 E35.17702
G1 X151.531 Y122.056 E35.20396
G1 X150.729 Y122.168 E35.23089
G1 X150 Y122.2 E35.25516
G1 X70 Y122.2 E37.91597
G1 X69.191 Y122.16 E37.94291
G1 X68.39 Y122.04 E37.96985
G1 X67.605 Y121.843 E37.99677
G1 X66.844 Y121.568 E38.02368
G1 X66.113 Y121.22 E38.05061
G1 X65.419 Y120.801 E38.07757
G1 X64.771 Y120.316 E38.10449
G1 X64.174 Y119.77 E38.1314
G1 X63.633 Y119.167 E38.15834
G1 X63.154 Y118.514 E38.18528
G1 X62.743 Y117.817 E38.21219
G1 X62.401 Y117.083 E38.23913
G1 X62.135 Y116.318 E38.26606
G1 X61.944 Y115.531 E38.293
G1 X61.832 Y114.729 E38.31993
G1 X61.8 Y114 E38.3442
G1 X61.8 Y106 E38.61028
G1 X61.84 Y105.191 E38.63722
G1 X61.96 Y104.39 E38.66416
G1 X62.157 Y103.605 E38.69108
G1 X62.432 Y102.844 E38.718
G1 X62.78 Y102.113 E38.74492
G1 X63.199 Y101.419 E38.77189
G1 X63.684 Y100.771 E38.79881
G1 X64.23 Y100.174 E38.82572
G1 X64.833 Y99.633 E38.85266
G1 X65.486 Y99.154 E38.8796
G0 F6000 X65.87 Y99.383
