;FLAVOR:Marlin
;TIME:9867
;Filament used: 5.31638m
;Layer height: 0.2
;MINX:71.65
;MINY:92.7
;MINZ:0.2
;MAXX:148.35
;MAXY:127.3
;MAXZ:33
;Generated with Cura_SteamEngine 4.11.0
M140 S50
M105
M190 S50
M104 S200
M105
M109 S200
M82 ;absolute extrusion mode
; Ender 3 Custom Start G-code
G92 E0 ; Reset Extruder
G28 ; Home all axes
G29 ; Auto bed-level (BL-Touch)
G1 Z2.0 F3000 ; Move Z Axis up little to prevent scratching of Heat Bed
G1 X0.1 Y20 Z0.3 F5000.0 ; Move to start position
G1 X0.1 Y200.0 Z0.3 F1500.0 E15 ; Draw the first line
G1 X0.4 Y200.0 Z0.3 F5000.0 ; Move to side a little
G1 X0.4 Y20 Z0.3 F1500.0 E30 ; Draw the second line
G92 E0 ; Reset Extruder
G1 Z2.0 F3000 ; Move Z Axis up little to prevent scratching of Heat Bed
G1 X5 Y20 Z0.3 F5000.0 ; Move over to prevent blob squish
G92 E0
G92 E0
G1 F2700 E-5
;LAYER_COUNT:165
;LAYER:0
M107
G0 F6000 X75.386 Y94.802 Z0.2
;TYPE:SKIRT
G1 F2700 E0
G1 F1200 X76.105 Y94.286 E0.02944
G1 X76.868 Y93.837 E0.05888
G1 X77.669 Y93.459 E0.08834
G1 X78.5 Y93.155 E0.11777
G1 X79.355 Y92.927 E0.1472
G1 X80.228 Y92.777 E0.17666
G1 X81.45 Y92.7 E0.21739
G1 X138.55 Y92.7 E2.11654
G1 X139.434 Y92.74 E2.14597
G1 X140.311 Y92.86 E2.17541
G1 X141.174 Y93.058 E2.20486
G1 X142.015 Y93.333 E2.23429
G1 X142.828 Y93.683 E2.26373
G1 X143.607 Y94.105 E2.2932
G1 X144.343 Y94.596 E2.32263
G1 X145.033 Y95.151 E2.35208
G1 X145.67 Y95.766 E2.38153
G1 X146.248 Y96.436 E2.41096
G1 X146.764 Y97.155 E2.44039
G1 X147.213 Y97.918 E2.46984
G1 X147.591 Y98.719 E2.4993
G1 X147.895 Y99.55 E2.52873
G1 X148.123 Y100.405 E2.55816
G1 X148.273 Y101.278 E2.58762
G1 X148.35 Y102.5 E2.62835
G1 X148.35 Y117.5 E3.12725
G1 X148.31 Y118.384 E3.15668
G1 X148.19 Y119.261 E3.18612
G1 X147.992 Y120.124 E3.21557
G1 X147.717 Y120.965 E3.245
G1 X147.367 Y121.778 E3.27444
G1 X146.945 Y122.557 E3.30391
G1 X146.454 Y123.293 E3.33333
G1 X145.899 Y123.983 E3.36279
G1 X145.284 Y124.62 E3.39223
G1 X144.614 Y125.198 E3.42167
G1 X143.895 Y125.714 E3.4511
G1 X143.132 Y126.163 E3.48055
G1 X142.331 Y126.541 E3.51
G1 X141.5 Y126.845 E3.53944
G1 X140.645 Y127.073 E3.56887
G1 X139.772 Y127.223 E3.59833
G1 X138.55 Y127.3 E3.63905
G1 X81.45 Y127.3 E5.53821
G1 X80.566 Y127.26 E5.56764
G1 X79.689 Y127.14 E5.59708
G1 X78.826 Y126.942 E5.62653
G1 X77.985 Y126.667 E5.65596
G1 X77.172 Y126.317 E5.6854
G1 X76.393 Y125.895 E5.71486
G1 X75.657 Y125.404 E5.74429
G1 X74.967 Y124.849 E5.77374
G1 X74.33 Y124.234 E5.80319
G1 X73.752 Y123.564 E5.83262
G1 X73.236 Y122.845 E5.86206
G1 X72.787 Y122.082 E5.8915
G1 X72.409 Y121.281 E5.92096
G1 X72.105 Y120.45 E5.95039
G1 X71.877 Y119.595 E5.97983
G1 X71.727 Y118.722 E6.00929
G1 X71.65 Y117.5 E6.05001
G1 X71.65 Y102.5 E6.54891
G1 X71.69 Y101.616 E6.57835
G1 X71.81 Y100.739 E6.60779
G1 X72.008 Y99.876 E6.63724
G1 X72.283 Y99.035 E6.66666
G1 X72.633 Y98.222 E6.6961
G1 X73.055 Y97.443 E6.72557
G1 X73.546 Y96.707 E6.755
G1 X74.101 Y96.017 E6.78445
G1 X74.716 Y95.38 E6.8139
G1 X75.386 Y94.802 E6.84333
G0 F6000 X75.775 Y95.006
G1 F1200 X76.489 Y94.516 E6.87213
G1 X77.246 Y94.092 E6.90099
G1 X78.039 Y93.741 E6.92984
G1 X78.86 Y93.464 E6.95865
G1 X79.704 Y93.264 E6.9875
G1 X80.562 Y93.142 E7.01633
G1 X81.45 Y93.1 E7.0459
G1 X138.55 Y93.1 E8.94505
G1 X139.416 Y93.14 E8.97388
G1 X140.275 Y93.26 E9.00273
G1 X141.119 Y93.458 E9.03156
G1 X141.941 Y93.733 E9.06039
G1 X142.734 Y94.083 E9.08922
G1 X143.492 Y94.504 E9.11806
G1 X144.207 Y94.993 E9.14687
G1 X144.875 Y95.546 E9.17572
G1 X145.489 Y96.159 E9.20457
G1 X146.044 Y96.825 E9.23341
G1 X146.534 Y97.539 E9.26221
G1 X146.958 Y98.296 E9.29107
G1 X147.309 Y99.089 E9.31991
G1 X147.586 Y99.91 E9.34873
G1 X147.786 Y100.754 E9.37758
G1 X147.908 Y101.612 E9.4064
G1 X147.95 Y102.5 E9.43597
G1 X147.95 Y117.5 E9.93487
G1 X147.91 Y118.366 E9.96371
G1 X147.79 Y119.225 E9.99256
G1 X147.592 Y120.069 E10.02139
G1 X147.317 Y120.891 E10.05022
G1 X146.967 Y121.684 E10.07905
G1 X146.546 Y122.442 E10.10789
G1 X146.057 Y123.157 E10.1367
G1 X145.504 Y123.825 E10.16554
G1 X144.891 Y124.439 E10.1944
G1 X144.225 Y124.994 E10.22323
G1 X143.511 Y125.484 E10.25204
G1 X142.754 Y125.908 E10.28089
G1 X141.961 Y126.259 E10.30974
G1 X141.14 Y126.536 E10.33856
G1 X140.296 Y126.736 E10.3674
G1 X139.438 Y126.858 E10.39623
G1 X138.55 Y126.9 E10.4258
G1 X81.45 Y126.9 E12.32495
G1 X80.584 Y126.86 E12.35378
G1 X79.725 Y126.74 E12.38263
G1 X78.881 Y126.542 E12.41147
G1 X78.059 Y126.267 E12.4403
G1 X77.266 Y125.917 E12.46913
G1 X76.508 Y125.496 E12.49796
G1 X75.793 Y125.007 E12.52678
G1 X75.125 Y124.454 E12.55562
G1 X74.511 Y123.841 E12.58448
G1 X73.956 Y123.175 E12.61331
G1 X73.466 Y122.461 E12.64211
G1 X73.042 Y121.704 E12.67097
G1 X72.691 Y120.911 E12.69981
G1 X72.414 Y120.09 E12.72863
G1 X72.214 Y119.246 E12.75748
G1 X72.092 Y118.388 E12.78631
G1 X72.05 Y117.5 E12.81587
G1 X72.05 Y102.5 E13.31478
G1 X72.09 Y101.634 E13.34361
G1 X72.21 Y100.775 E13.37246
G1 X72.408 Y99.931 E13.40129
G1 X72.683 Y99.109 E13.43012
G1 X73.033 Y98.316 E13.45895
G1 X73.454 Y97.558 E13.48779
G1 X73.943 Y96.843 E13.5166
G1 X74.496 Y96.175 E13.54544
G1 X75.109 Y95.561 E13.5743
G1 X75.775 Y95.006 E13.60314
G0 F6000 X76.163 Y95.217
G1 F1200 X76.872 Y94.751 E13.63135
G1 X77.622 Y94.355 E13.65956
G1 X78.406 Y94.03 E13.68779
G1 X79.217 Y93.781 E13.71601
G1 X80.048 Y93.61 E13.74423
G1 X80.891 Y93.517 E13.77243
G1 X81.45 Y93.5 E13.79103
G1 X138.55 Y93.5 E15.69019
G1 X139.397 Y93.54 E15.71839
G1 X140.237 Y93.66 E15.74661
G1 X141.062 Y93.858 E15.77483
G1 X141.865 Y94.133 E15.80306
G1 X142.638 Y94.482 E15.83127
G1 X143.374 Y94.902 E15.85946
G1 X144.068 Y95.39 E15.88767
G1 X144.713 Y95.941 E15.91589
G1 X145.303 Y96.551 E15.94412
G1 X145.833 Y97.213 E15.97232
G1 X146.299 Y97.922 E16.00054
G1 X146.695 Y98.672 E16.02875
G1 X147.02 Y99.456 E16.05698
G1 X147.269 Y100.267 E16.08519
G1 X147.44 Y101.098 E16.11341
G1 X147.533 Y101.941 E16.14162
G1 X147.55 Y102.5 E16.16022
G1 X147.55 Y117.5 E16.65912
G1 X147.51 Y118.347 E16.68733
G1 X147.39 Y119.187 E16.71555
G1 X147.192 Y120.012 E16.74377
G1 X146.917 Y120.815 E16.772
G1 X146.568 Y121.588 E16.80021
G1 X146.148 Y122.324 E16.82839
G1 X145.66 Y123.018 E16.85661
G1 X145.109 Y123.663 E16.88482
G1 X144.499 Y124.253 E16.91305
G1 X143.837 Y124.783 E16.94126
G1 X143.128 Y125.249 E16.96947
G1 X142.378 Y125.645 E16.99768
G1 X141.594 Y125.97 E17.02591
G1 X140.783 Y126.219 E17.05413
G1 X139.952 Y126.39 E17.08235
G1 X139.109 Y126.483 E17.11055
G1 X138.55 Y126.5 E17.12915
G1 X81.45 Y126.5 E19.02831
G1 X80.603 Y126.46 E19.05651
G1 X79.763 Y126.34 E19.08473
G1 X78.938 Y126.142 E19.11295
G1 X78.135 Y125.867 E19.14118
G1 X77.362 Y125.518 E19.16939
G1 X76.626 Y125.098 E19.19758
G1 X75.932 Y124.61 E19.22579
G1 X75.287 Y124.059 E19.25401
G1 X74.697 Y123.449 E19.28224
G1 X74.167 Y122.787 E19.31044
G1 X73.701 Y122.078 E19.33866
G1 X73.305 Y121.328 E19.36687
G1 X72.98 Y120.544 E19.3951
G1 X72.731 Y119.733 E19.42331
G1 X72.56 Y118.902 E19.45153
G1 X72.467 Y118.059 E19.47974
G1 X72.45 Y117.5 E19.49834
G1 X72.45 Y102.5 E19.99724
G1 X72.49 Y101.653 E20.02545
G1 X72.61 Y100.813 E20.05367
G1 X72.808 Y99.988 E20.08189
G1 X73.083 Y99.185 E20.11012
G1 X73.432 Y98.412 E20.13833
G1 X73.852 Y97.676 E20.16651
G1 X74.34 Y96.982 E20.19473
G1 X74.891 Y96.337 E20.22294
G1 X75.501 Y95.747 E20.25117
G1 X76.163 Y95.217 E20.27938
G0 F6000 X75.892 Y95.937
G1 F1200 X76.55 Y95.432 E20.30696
G1 X77.253 Y94.993 E20.33453
G1 X77.996 Y94.624 E20.36212
G1 X78.771 Y94.328 E20.38971
G1 X79.57 Y94.108 E20.41728
G1 X80.387 Y93.966 E20.44486
G1 X81.45 Y93.9 E20.48028
G1 X138.55 Y93.9 E22.37944
G1 X139.378 Y93.94 E22.40701
G1 X140.199 Y94.06 E22.4346
G1 X141.004 Y94.258 E22.46218
G1 X141.786 Y94.532 E22.48974
G1 X142.539 Y94.881 E22.51734
G1 X143.254 Y95.301 E22.54492
G1 X143.925 Y95.787 E22.57248
G1 X144.547 Y96.336 E22.60007
G1 X145.113 Y96.942 E22.62765
G1 X145.618 Y97.6 E22.65524
G1 X146.057 Y98.303 E22.6828
G1 X146.426 Y99.046 E22.7104
G1 X146.722 Y99.821 E22.73799
G1 X146.942 Y100.62 E22.76555
G1 X147.084 Y101.437 E22.79313
G1 X147.15 Y102.5 E22.82856
G1 X147.15 Y117.5 E23.32746
G1 X147.11 Y118.328 E23.35503
G1 X146.99 Y119.149 E23.38263
G1 X146.792 Y119.954 E23.4102
G1 X146.518 Y120.736 E23.43776
G1 X146.169 Y121.489 E23.46536
G1 X145.749 Y122.204 E23.49294
G1 X145.263 Y122.875 E23.5205
G1 X144.714 Y123.497 E23.54809
G1 X144.108 Y124.063 E23.57567
G1 X143.45 Y124.568 E23.60326
G1 X142.747 Y125.007 E23.63083
G1 X142.004 Y125.376 E23.65842
G1 X141.229 Y125.672 E23.68601
G1 X140.43 Y125.892 E23.71358
G1 X139.613 Y126.034 E23.74116
G1 X138.55 Y126.1 E23.77658
G1 X81.45 Y126.1 E25.67574
G1 X80.622 Y126.06 E25.70331
G1 X79.801 Y125.94 E25.7309
G1 X78.996 Y125.742 E25.75848
G1 X78.214 Y125.468 E25.78604
G1 X77.461 Y125.119 E25.81364
G1 X76.746 Y124.699 E25.84122
G1 X76.075 Y124.213 E25.86878
G1 X75.453 Y123.664 E25.89637
G1 X74.887 Y123.058 E25.92395
G1 X74.382 Y122.4 E25.95154
G1 X73.943 Y121.697 E25.9791
G1 X73.574 Y120.954 E26.0067
G1 X73.278 Y120.179 E26.03429
G1 X73.058 Y119.38 E26.06185
G1 X72.916 Y118.563 E26.08943
G1 X72.85 Y117.5 E26.12486
G1 X72.85 Y102.5 E26.62376
G1 X72.89 Y101.672 E26.65133
G1 X73.01 Y100.851 E26.67893
G1 X73.208 Y100.046 E26.7065
G1 X73.482 Y99.264 E26.73406
G1 X73.831 Y98.511 E26.76166
G1 X74.251 Y97.796 E26.78924
G1 X74.737 Y97.125 E26.8168
G1 X75.286 Y96.503 E26.84439
G1 X75.892 Y95.937 E26.87197
G0 F6000 X76.283 Y96.133
G1 F1200 X76.936 Y95.654 E26.89891
G1 X77.633 Y95.243 E26.92582
G1 X78.367 Y94.901 E26.95276
G1 X79.132 Y94.635 E26.97969
G1 X79.919 Y94.444 E27.00663
G1 X80.721 Y94.332 E27.03356
G1 X81.45 Y94.3 E27.05783
G1 X138.55 Y94.3 E28.95699
G1 X139.359 Y94.34 E28.98393
G1 X140.16 Y94.46 E29.01087
G1 X140.945 Y94.657 E29.03778
G1 X141.706 Y94.932 E29.0647
G1 X142.437 Y95.28 E29.09162
G1 X143.131 Y95.699 E29.11859
G1 X143.779 Y96.184 E29.14551
G1 X144.376 Y96.73 E29.17242
G1 X144.917 Y97.333 E29.19936
G1 X145.396 Y97.986 E29.2263
G1 X145.807 Y98.683 E29.25321
G1 X146.149 Y99.417 E29.28014
G1 X146.415 Y100.182 E29.30708
G1 X146.606 Y100.969 E29.33402
G1 X146.718 Y101.771 E29.36095
G1 X146.75 Y102.5 E29.38522
G1 X146.75 Y117.5 E29.88412
G1 X146.71 Y118.309 E29.91106
G1 X146.59 Y119.11 E29.938
G1 X146.393 Y119.895 E29.96492
G1 X146.118 Y120.656 E29.99183
G1 X145.77 Y121.387 E30.01876
G1 X145.351 Y122.081 E30.04572
G1 X144.866 Y122.729 E30.07264
G1 X144.32 Y123.326 E30.09955
G1 X143.717 Y123.867 E30.1265
G1 X143.064 Y124.346 E30.15343
G1 X142.367 Y124.757 E30.18035
G1 X141.633 Y125.099 E30.20728
G1 X140.868 Y125.365 E30.23422
G1 X140.081 Y125.556 E30.26115
G1 X139.279 Y125.668 E30.28809
G1 X138.55 Y125.7 E30.31236
G1 X81.45 Y125.7 E32.21151
G1 X80.641 Y125.66 E32.23845
G1 X79.84 Y125.54 E32.26539
G1 X79.055 Y125.343 E32.29231
G1 X78.294 Y125.068 E32.31922
G1 X77.563 Y124.72 E32.34615
G1 X76.869 Y124.301 E32.37311
G1 X76.221 Y123.816 E32.40003
G1 X75.624 Y123.27 E32.42694
G1 X75.083 Y122.667 E32.45388
G1 X74.604 Y122.014 E32.48082
G1 X74.193 Y121.317 E32.50773
G1 X73.851 Y120.583 E32.53467
G1 X73.585 Y119.818 E32.5616
G1 X73.394 Y119.031 E32.58854
G1 X73.282 Y118.229 E32.61547
G1 X73.25 Y117.5 E32.63974
G1 X73.25 Y102.5 E33.13865
G1 X73.29 Y101.691 E33.16559
G1 X73.41 Y100.89 E33.19252
G1 X73.607 Y100.105 E33.21944
G1 X73.882 Y99.344 E33.24636
G1 X74.23 Y98.613 E33.27328
G1 X74.649 Y97.919 E33.30025
G1 X75.134 Y97.271 E33.32717
G1 X75.68 Y96.674 E33.35408
G1 X76.283 Y96.133 E33.38102
G0 F6000 X76.672 Y96.334
G1 F1200 X77.32 Y95.883 E33.40728
G1 X78.011 Y95.499 E33.43357
G1 X78.736 Y95.187 E33.45982
G1 X79.489 Y94.95 E33.48608
G1 X80.263 Y94.791 E33.51236
G1 X81.048 Y94.71 E33.53861
G1 X81.45 Y94.7 E33.55198
G1 X138.55 Y94.7 E35.45114
G1 X139.339 Y94.74 E35.47741
G1 X140.119 Y94.859 E35.50366
G1 X140.884 Y95.057 E35.52994
G1 X141.624 Y95.331 E35.55618
G1 X142.333 Y95.679 E35.58245
G1 X143.004 Y96.097 E35.60875
G1 X143.628 Y96.58 E35.63499
G1 X144.201 Y97.123 E35.66125
G1 X144.716 Y97.722 E35.68752
G1 X145.167 Y98.37 E35.71378
G1 X145.551 Y99.061 E35.74007
G1 X145.863 Y99.786 E35.76633
G1 X146.1 Y100.539 E35.79258
G1 X146.259 Y101.313 E35.81886
G1 X146.34 Y102.098 E35.84511
G1 X146.35 Y102.5 E35.85849
G1 X146.35 Y117.5 E36.35739
G1 X146.31 Y118.289 E36.38366
G1 X146.191 Y119.069 E36.40991
G1 X145.993 Y119.834 E36.43619
G1 X145.719 Y120.574 E36.46243
G1 X145.371 Y121.283 E36.4887
G1 X144.953 Y121.954 E36.515
G1 X144.47 Y122.578 E36.54124
G1 X143.927 Y123.151 E36.5675
G1 X143.328 Y123.666 E36.59377
G1 X142.68 Y124.117 E36.62003
G1 X141.989 Y124.501 E36.64632
G1 X141.264 Y124.813 E36.67258
G1 X140.511 Y125.05 E36.69883
G1 X139.737 Y125.209 E36.72511
G1 X138.952 Y125.29 E36.75136
G1 X138.55 Y125.3 E36.76474
G1 X81.45 Y125.3 E38.66389
G1 X80.661 Y125.26 E38.69016
G1 X79.881 Y125.141 E38.71641
G1 X79.116 Y124.943 E38.74269
G1 X78.376 Y124.669 E38.76894
G1 X77.667 Y124.321 E38.7952
G1 X76.996 Y123.903 E38.8215
G1 X76.372 Y123.42 E38.84774
G1 X75.799 Y122.877 E38.874
G1 X75.284 Y122.278 E38.90027
G1 X74.833 Y121.63 E38.92653
G1 X74.449 Y120.939 E38.95283
G1 X74.137 Y120.214 E38.97908
G1 X73.9 Y119.461 E39.00533
G1 X73.741 Y118.687 E39.03161
G1 X73.66 Y117.902 E39.05786
G1 X73.65 Y117.5 E39.07124
G1 X73.65 Y102.5 E39.57014
G1 X73.69 Y101.711 E39.59641
G1 X73.809 Y100.931 E39.62266
G1 X74.007 Y100.166 E39.64894
G1 X74.281 Y99.426 E39.67519
G1 X74.629 Y98.717 E39.70145
G1 X75.047 Y98.046 E39.72775
G1 X75.53 Y97.422 E39.75399
G1 X76.073 Y96.849 E39.78025
G1 X76.672 Y96.334 E39.80652
G0 F6000 X77.061 Y96.542
G1 F1200 X77.703 Y96.119 E39.8321
G1 X78.386 Y95.764 E39.8577
G1 X79.101 Y95.483 E39.88325
G1 X79.843 Y95.277 E39.90886
G1 X80.601 Y95.149 E39.93443
G1 X81.45 Y95.1 E39.96271
G1 X138.55 Y95.1 E41.86187
G1 X139.318 Y95.14 E41.88745
G1 X140.078 Y95.259 E41.91303
G1 X140.821 Y95.457 E41.93861
G1 X141.54 Y95.731 E41.9642
G1 X142.226 Y96.078 E41.98977
G1 X142.873 Y96.494 E42.01535
G1 X143.473 Y96.975 E42.04093
G1 X144.02 Y97.516 E42.06652
G1 X144.508 Y98.111 E42.09211
G1 X144.931 Y98.753 E42.11768
G1 X145.286 Y99.436 E42.14328
G1 X145.567 Y100.151 E42.16884
G1 X145.773 Y100.893 E42.19445
G1 X145.901 Y101.651 E42.22002
G1 X145.95 Y102.5 E42.2483
G1 X145.95 Y117.5 E42.7472
G1 X145.91 Y118.268 E42.77278
G1 X145.791 Y119.028 E42.79837
G1 X145.593 Y119.771 E42.82394
G1 X145.319 Y120.49 E42.84953
G1 X144.972 Y121.176 E42.8751
G1 X144.556 Y121.823 E42.90069
G1 X144.075 Y122.423 E42.92626
G1 X143.534 Y122.97 E42.95185
G1 X142.939 Y123.458 E42.97745
G1 X142.297 Y123.881 E43.00302
G1 X141.614 Y124.236 E43.02862
G1 X140.899 Y124.517 E43.05417
G1 X140.157 Y124.723 E43.07978
G1 X139.399 Y124.851 E43.10535
G1 X138.55 Y124.9 E43.13364
G1 X81.45 Y124.9 E45.03279
G1 X80.682 Y124.86 E45.05837
G1 X79.922 Y124.741 E45.08396
G1 X79.179 Y124.543 E45.10953
G1 X78.46 Y124.269 E45.13512
G1 X77.774 Y123.922 E45.16069
G1 X77.127 Y123.506 E45.18627
G1 X76.527 Y123.025 E45.21185
G1 X75.98 Y122.484 E45.23744
G1 X75.492 Y121.889 E45.26303
G1 X75.069 Y121.247 E45.28861
G1 X74.714 Y120.564 E45.31421
G1 X74.433 Y119.849 E45.33976
G1 X74.227 Y119.107 E45.36537
G1 X74.099 Y118.349 E45.39094
G1 X74.05 Y117.5 E45.41922
G1 X74.05 Y102.5 E45.91813
G1 X74.09 Y101.732 E45.94371
G1 X74.209 Y100.972 E45.96929
G1 X74.407 Y100.229 E45.99487
G1 X74.681 Y99.51 E46.02046
G1 X75.028 Y98.824 E46.04603
G1 X75.444 Y98.177 E46.07161
G1 X75.925 Y97.577 E46.09719
G1 X76.466 Y97.03 E46.12278
G1 X77.061 Y96.542 E46.14837
G0 F6000 X76.858 Y97.216
G1 F1200 X77.448 Y96.757 E46.17323
G1 X78.084 Y96.362 E46.19813
G1 X78.758 Y96.038 E46.22301
G1 X79.463 Y95.788 E46.24789
G1 X80.191 Y95.614 E46.27278
G1 X80.933 Y95.519 E46.29766
G1 X81.45 Y95.5 E46.31487
G1 X138.55 Y95.5 E48.21402
G1 X139.297 Y95.54 E48.2389
G1 X140.035 Y95.659 E48.26377
G1 X140.757 Y95.857 E48.28867
G1 X141.453 Y96.13 E48.31353
G1 X142.116 Y96.477 E48.33842
G1 X142.739 Y96.892 E48.36332
G1 X143.313 Y97.371 E48.38819
G1 X143.834 Y97.908 E48.41307
G1 X144.293 Y98.498 E48.43793
G1 X144.688 Y99.134 E48.46283
G1 X145.012 Y99.808 E48.48771
G1 X145.262 Y100.513 E48.51259
G1 X145.436 Y101.241 E48.53748
G1 X145.531 Y101.983 E48.56236
G1 X145.55 Y102.5 E48.57957
G1 X145.55 Y117.5 E49.07847
G1 X145.51 Y118.247 E49.10335
