;FLAVOR:Marlin
;TIME:7134
;Filament used: 4.24852m
;Layer height: 0.2
;MINX:65.571
;MINY:100.15
;MINZ:0.2
;MAXX:167.623
;MAXY:134.85
;MAXZ:12.6
;Generated with Cura_SteamEngine 4.10.0
M140 S50
M105
M190 S50
M104 S220
M105
M109 S220
M82 ;absolute extrusion mode
; Ender 3 Custom Start G-code
G92 E0 ; Reset Extruder
G28 ; Home all axes
G1 Z2.0 F3000 ; Move Z Axis up little to prevent scratching of Heat Bed
G1 X0.1 Y20 Z0.3 F5000.0 ; Move to start position
G1 X0.1 Y200.0 Z0.3 F1500.0 E15 ; Draw the first line
G1 X0.4 Y200.0 Z0.3 F5000.0 ; Move to side a little
G1 X0.4 Y20 Z0.3 F1500.0 E30 ; Draw the second line
G92 E0 ; Reset Extruder
G1 Z2.0 F3000 ; Move Z Axis up little to prevent scratching of Heat Bed
G1 X5 Y20 Z0.3 F5000.0 ; Move over to prevent blob squish
G92 E0
G92 E0
G1 F2700 E-5
;LAYER_COUNT:64
;LAYER:0
M107
G0 F6000 X70.211 Y102.191 Z0.2
;TYPE:SKIRT
G1 F2700 E0
G1 F1200 X70.998 Y101.681 E0.03119
G1 X71.826 Y101.24 E0.06239
G1 X72.688 Y100.871 E0.09358
G1 X73.579 Y100.577 E0.12479
G1 X74.491 Y100.359 E0.15597
G1 X75.418 Y100.221 E0.18715
G1 X76.272 Y100.163 E0.21562
G1 X76.592 Y100.154 E0.22626
G1 X76.901 Y100.15 E0.23654
G1 X149.775 Y100.15 E2.66034
G1 X150.634 Y100.161 E2.68891
G1 X151.57 Y100.214 E2.72009
G1 X152.498 Y100.347 E2.75128
G1 X153.412 Y100.559 E2.78248
G1 X154.305 Y100.847 E2.81369
G1 X155.169 Y101.211 E2.84487
G1 X156 Y101.647 E2.87609
G1 X156.79 Y102.152 E2.90727
G1 X157.534 Y102.722 E2.93844
G1 X157.935 Y103.075 E2.95621
G1 X158.064 Y103.194 E2.96205
G1 X158.309 Y103.426 E2.97327
G1 X158.646 Y103.758 E2.98901
G1 X163.841 Y108.956 E3.23343
G1 X164.359 Y109.489 E3.25815
G1 X164.984 Y110.188 E3.28934
G1 X165.726 Y111.209 E3.33132
G1 X165.85 Y111.402 E3.33895
G1 X166.322 Y112.212 E3.37013
G1 X166.725 Y113.059 E3.40133
G1 X167.053 Y113.938 E3.43253
G1 X167.311 Y114.863 E3.46447
G1 X167.343 Y115.001 E3.46919
G1 X167.515 Y115.923 E3.50038
G1 X167.609 Y116.856 E3.53157
G1 X167.623 Y117.794 E3.56277
G1 X167.594 Y118.334 E3.58076
G1 X167.578 Y118.541 E3.58766
G1 X167.466 Y119.472 E3.61885
G1 X167.275 Y120.39 E3.65004
G1 X167.007 Y121.289 E3.68124
G1 X166.663 Y122.161 E3.71242
G1 X166.363 Y122.781 E3.73533
G1 X166.279 Y122.942 E3.74136
G1 X165.811 Y123.754 E3.77254
G1 X165.274 Y124.524 E3.80376
G1 X164.967 Y124.909 E3.82014
G1 X164.804 Y125.104 E3.82859
G1 X164.407 Y125.553 E3.84853
G1 X164.268 Y125.702 E3.8553
G1 X164.004 Y125.975 E3.86793
G1 X158.755 Y131.225 E4.11485
G1 X158.248 Y131.719 E4.1384
G1 X157.548 Y132.344 E4.16961
G1 X156.799 Y132.907 E4.20077
G1 X156.004 Y133.405 E4.23198
G1 X155.169 Y133.833 E4.26318
G1 X154.301 Y134.188 E4.29438
G1 X153.406 Y134.468 E4.32557
G1 X152.491 Y134.671 E4.35674
G1 X151.561 Y134.795 E4.38794
G1 X150.953 Y134.833 E4.40821
G1 X150.561 Y134.844 E4.42125
G1 X150.018 Y134.85 E4.43931
G1 X77.136 Y134.849 E6.86338
G1 X76.438 Y134.84 E6.88659
G1 X75.502 Y134.788 E6.91777
G1 X74.573 Y134.656 E6.94898
G1 X73.659 Y134.446 E6.98017
G1 X72.766 Y134.159 E7.01137
G1 X71.901 Y133.796 E7.04257
G1 X71.07 Y133.362 E7.07375
G1 X70.279 Y132.858 E7.10495
G1 X69.534 Y132.288 E7.13615
G1 X68.84 Y131.657 E7.16735
G1 X68.203 Y130.97 E7.19851
G1 X67.626 Y130.23 E7.22972
G1 X67.114 Y129.444 E7.26092
G1 X66.671 Y128.617 E7.29212
G1 X66.3 Y127.756 E7.3233
G1 X66.004 Y126.866 E7.3545
G1 X65.785 Y125.954 E7.38569
G1 X65.644 Y125.027 E7.41688
G1 X65.584 Y124.138 E7.44652
G1 X65.575 Y123.805 E7.4576
G1 X65.571 Y123.508 E7.46747
G1 X65.572 Y111.659 E7.86157
G1 X65.582 Y110.994 E7.88369
G1 X65.636 Y110.057 E7.91491
G1 X65.77 Y109.129 E7.9461
G1 X65.982 Y108.215 E7.9773
G1 X66.271 Y107.323 E8.00849
G1 X66.636 Y106.459 E8.03969
G1 X67.072 Y105.629 E8.07087
G1 X67.578 Y104.839 E8.10207
G1 X68.149 Y104.095 E8.13326
G1 X68.781 Y103.402 E8.16446
G1 X69.47 Y102.766 E8.19565
G1 X70.211 Y102.191 E8.22684
G0 F6000 X70.595 Y102.411
G1 F1200 X71.377 Y101.924 E8.25748
G1 X72.198 Y101.508 E8.28809
G1 X73.052 Y101.164 E8.31872
G1 X73.932 Y100.895 E8.34932
G1 X74.833 Y100.704 E8.37996
G1 X75.747 Y100.592 E8.41058
G1 X76.283 Y100.563 E8.42844
G1 X76.603 Y100.554 E8.43908
G1 X76.901 Y100.55 E8.449
G1 X149.775 Y100.55 E10.8728
G1 X150.628 Y100.561 E10.90117
G1 X151.547 Y100.614 E10.93179
G1 X152.458 Y100.747 E10.96241
G1 X153.354 Y100.958 E10.99302
G1 X154.229 Y101.246 E11.02366
G1 X155.075 Y101.609 E11.05428
G1 X155.886 Y102.044 E11.08489
G1 X156.657 Y102.548 E11.11553
G1 X157.664 Y103.369 E11.15874
G1 X157.793 Y103.488 E11.16458
G1 X158.028 Y103.712 E11.17538
G1 X158.363 Y104.04 E11.19097
G1 X163.555 Y109.234 E11.43523
G1 X164.073 Y109.767 E11.45995
G1 X164.685 Y110.455 E11.49058
G1 X165.389 Y111.425 E11.53044
G1 X165.513 Y111.618 E11.53807
G1 X165.977 Y112.414 E11.56872
G1 X166.369 Y113.246 E11.59931
G1 X166.688 Y114.11 E11.62994
G1 X166.921 Y114.954 E11.65906
G1 X166.953 Y115.092 E11.66377
G1 X167.122 Y115.997 E11.69439
G1 X167.211 Y116.913 E11.725
G1 X167.221 Y117.833 E11.7556
G1 X167.195 Y118.303 E11.77126
G1 X167.179 Y118.51 E11.77817
G1 X167.069 Y119.424 E11.80879
G1 X166.879 Y120.325 E11.83941
G1 X166.612 Y121.206 E11.87003
G1 X166.269 Y122.06 E11.90064
G1 X166.009 Y122.596 E11.92045
G1 X165.925 Y122.757 E11.92649
G1 X165.464 Y123.554 E11.95712
G1 X164.66 Y124.652 E12.00238
G1 X164.497 Y124.847 E12.01083
G1 X164.115 Y125.28 E12.03004
G1 X163.976 Y125.429 E12.03682
G1 X163.721 Y125.693 E12.04902
G1 X158.475 Y130.938 E12.29576
G1 X157.968 Y131.432 E12.3193
G1 X157.282 Y132.045 E12.3499
G1 X156.544 Y132.597 E12.38055
G1 X155.762 Y133.082 E12.41116
G1 X154.941 Y133.498 E12.44177
G1 X154.086 Y133.84 E12.4724
G1 X153.205 Y134.108 E12.50302
G1 X152.304 Y134.297 E12.53364
G1 X150.939 Y134.434 E12.57927
G1 X150.557 Y134.444 E12.59198
G1 X150.018 Y134.45 E12.60991
G1 X77.141 Y134.449 E15.03381
G1 X76.443 Y134.44 E15.05703
G1 X75.524 Y134.388 E15.08764
G1 X74.613 Y134.257 E15.11825
G1 X73.717 Y134.047 E15.14886
G1 X72.842 Y133.76 E15.17949
G1 X71.995 Y133.398 E15.21013
G1 X71.183 Y132.964 E15.24075
G1 X70.412 Y132.462 E15.27135
G1 X69.687 Y131.894 E15.30198
G1 X69.014 Y131.265 E15.33262
G1 X68.399 Y130.581 E15.36321
G1 X67.845 Y129.846 E15.39383
G1 X67.357 Y129.065 E15.42446
G1 X66.938 Y128.245 E15.45508
G1 X66.592 Y127.392 E15.4857
G1 X66.322 Y126.512 E15.51632
G1 X66.129 Y125.611 E15.54696
G1 X66.015 Y124.698 E15.57757
G1 X65.984 Y124.127 E15.59659
G1 X65.975 Y123.794 E15.60767
G1 X65.971 Y123.508 E15.61718
G1 X65.972 Y111.665 E16.01108
G1 X65.982 Y111 E16.0332
G1 X66.036 Y110.081 E16.06382
G1 X66.169 Y109.17 E16.09444
G1 X66.381 Y108.274 E16.12506
G1 X66.67 Y107.399 E16.15571
G1 X67.034 Y106.554 E16.18631
G1 X67.469 Y105.743 E16.21692
G1 X67.974 Y104.972 E16.24758
G1 X68.543 Y104.249 E16.27818
G1 X69.173 Y103.577 E16.30881
G1 X69.859 Y102.963 E16.33944
G1 X70.595 Y102.411 E16.37004
G0 F6000 X70.978 Y102.635
G1 F1200 X71.754 Y102.173 E16.40007
G1 X72.568 Y101.782 E16.43011
G1 X73.413 Y101.463 E16.46015
G1 X74.283 Y101.221 E16.49018
G1 X75.171 Y101.057 E16.52022
G1 X76.294 Y100.963 E16.5577
G1 X76.614 Y100.954 E16.56835
G1 X76.901 Y100.95 E16.57789
G1 X149.775 Y100.95 E19.00169
G1 X150.622 Y100.961 E19.02987
G1 X151.524 Y101.014 E19.05992
G1 X152.417 Y101.146 E19.08994
G1 X153.295 Y101.357 E19.11998
G1 X154.151 Y101.645 E19.15002
G1 X154.979 Y102.007 E19.18007
G1 X155.771 Y102.441 E19.21011
G1 X156.521 Y102.944 E19.24015
G1 X157.393 Y103.663 E19.27774
G1 X157.522 Y103.782 E19.28357
G1 X157.748 Y103.997 E19.29395
G1 X158.08 Y104.323 E19.30942
G1 X163.268 Y109.513 E19.5535
G1 X163.786 Y110.046 E19.57822
G1 X164.386 Y110.721 E19.60826
G1 X165.052 Y111.642 E19.64606
G1 X165.176 Y111.835 E19.65369
G1 X165.631 Y112.615 E19.68372
G1 X166.014 Y113.433 E19.71377
G1 X166.323 Y114.281 E19.74378
G1 X166.531 Y115.044 E19.77009
G1 X166.563 Y115.182 E19.7748
G1 X166.728 Y116.07 E19.80484
G1 X166.814 Y116.969 E19.83488
G1 X166.797 Y118.272 E19.87822
G1 X166.781 Y118.479 E19.88512
G1 X166.671 Y119.376 E19.91518
G1 X166.483 Y120.259 E19.94521
G1 X166.217 Y121.122 E19.97525
G1 X165.876 Y121.958 E20.00527
G1 X165.654 Y122.411 E20.02205
G1 X165.57 Y122.572 E20.02809
G1 X165.117 Y123.354 E20.05815
G1 X164.353 Y124.396 E20.10113
G1 X164.19 Y124.591 E20.10958
G1 X163.822 Y125.007 E20.12805
G1 X163.683 Y125.156 E20.13483
G1 X163.438 Y125.41 E20.14657
G1 X158.196 Y130.652 E20.39314
G1 X157.689 Y131.146 E20.41668
G1 X157.015 Y131.747 E20.44671
G1 X156.291 Y132.286 E20.47674
G1 X155.521 Y132.758 E20.50677
G1 X154.713 Y133.161 E20.53681
G1 X153.872 Y133.491 E20.56685
G1 X153.005 Y133.745 E20.5969
G1 X152.12 Y133.922 E20.62692
G1 X150.925 Y134.034 E20.66684
G1 X150.552 Y134.044 E20.67925
G1 X150.018 Y134.05 E20.69701
G1 X77.146 Y134.049 E23.12075
G1 X76.448 Y134.04 E23.14396
G1 X75.547 Y133.989 E23.17398
G1 X74.653 Y133.857 E23.20404
G1 X73.775 Y133.648 E23.23405
G1 X72.918 Y133.361 E23.26411
G1 X72.091 Y133 E23.29413
G1 X71.298 Y132.567 E23.32418
G1 X70.547 Y132.066 E23.3542
G1 X69.843 Y131.5 E23.38425
G1 X69.192 Y130.874 E23.41429
G1 X68.599 Y130.193 E23.44432
G1 X68.069 Y129.462 E23.47435
G1 X67.605 Y128.687 E23.50439
G1 X67.211 Y127.874 E23.53444
G1 X66.891 Y127.03 E23.56446
G1 X66.647 Y126.16 E23.59452
G1 X66.481 Y125.272 E23.62456
G1 X66.384 Y124.117 E23.66312
G1 X66.375 Y123.784 E23.67419
G1 X66.371 Y123.508 E23.68338
G1 X66.372 Y111.671 E24.07708
G1 X66.382 Y111.006 E24.0992
G1 X66.436 Y110.104 E24.12925
G1 X66.569 Y109.211 E24.15928
G1 X66.78 Y108.333 E24.18931
G1 X67.069 Y107.477 E24.21936
G1 X67.432 Y106.65 E24.2494
G1 X67.866 Y105.859 E24.27941
G1 X68.369 Y105.108 E24.30947
G1 X68.937 Y104.406 E24.33951
G1 X69.564 Y103.756 E24.36955
G1 X70.246 Y103.164 E24.39958
G1 X70.978 Y102.635 E24.42962
G1 F2700 E19.42962
;MESH:Point Pumping Rubber.stl
G0 F6000 X85.155 Y115.916
G0 X85.084 Y114.461
G0 X104.697 Y114.854
G0 X105.203 Y115
G0 X105.675 Y115.246
G0 X106.091 Y115.578
G0 X106.433 Y115.987
G0 X106.687 Y116.454
G0 X106.845 Y116.963
G0 X106.9 Y117.491
G0 X106.847 Y118.028
G0 X106.694 Y118.532
G0 X106.437 Y119.008
G0 X106.101 Y119.411
G0 X105.868 Y119.6
G0 X104.729 Y120.304
;TYPE:WALL-INNER
G1 F2700 E24.42962
G1 F1200 X105.277 Y120.143 E24.44862
G1 X105.777 Y119.882 E24.46738
G1 X106.214 Y119.526 E24.48613
G1 X106.571 Y119.098 E24.50466
G1 X106.843 Y118.595 E24.52368
G1 X107.005 Y118.06 E24.54227
G1 X107.061 Y117.491 E24.56129
G1 X107.003 Y116.931 E24.58002
G1 X106.836 Y116.391 E24.59882
G1 X106.566 Y115.896 E24.61757
G1 X106.204 Y115.463 E24.63634
G1 X105.763 Y115.11 E24.65513
G1 X105.263 Y114.851 E24.67386
G1 X104.727 Y114.696 E24.69242
G1 X104.198 Y114.652 E24.71007
G1 X85.094 Y114.652 E25.34547
G1 X84.568 Y114.704 E25.36305
G1 X84.026 Y114.87 E25.38191
G1 X83.534 Y115.134 E25.40048
G1 X83.104 Y115.489 E25.41902
G1 X82.754 Y115.917 E25.43741
G1 X82.488 Y116.415 E25.45619
G1 X82.329 Y116.944 E25.47456
G1 X82.273 Y117.509 E25.49345
G1 X82.331 Y118.064 E25.51201
G1 X82.494 Y118.597 E25.53054
G1 X82.759 Y119.09 E25.54916
G1 X83.114 Y119.52 E25.56771
G1 X83.541 Y119.871 E25.58609
G1 X84.041 Y120.136 E25.60491
G1 X84.568 Y120.295 E25.62322
G1 X85.094 Y120.348 E25.6408
G1 X104.206 Y120.348 E26.27647
G1 X104.729 Y120.304 E26.29393
G0 F6000 X104.655 Y119.909
;TYPE:WALL-OUTER
G1 F1200 X105.127 Y119.77 E26.31029
G1 X105.556 Y119.546 E26.32639
G1 X105.932 Y119.24 E26.34251
G1 X106.238 Y118.873 E26.35841
G1 X106.472 Y118.44 E26.37478
G1 X106.611 Y117.982 E26.3907
G1 X106.659 Y117.492 E26.40707
G1 X106.609 Y117.011 E26.42316
G1 X106.466 Y116.547 E26.43931
G1 X106.234 Y116.122 E26.45541
G1 X105.923 Y115.75 E26.47154
G1 X105.544 Y115.447 E26.48768
G1 X105.114 Y115.224 E26.50379
G1 X104.654 Y115.091 E26.51971
G1 X104.182 Y115.052 E26.53547
G1 X85.114 Y115.052 E27.16967
G1 X84.647 Y115.098 E27.18528
G1 X84.181 Y115.241 E27.20149
G1 X83.758 Y115.468 E27.21746
G1 X83.389 Y115.773 E27.23338
G1 X83.088 Y116.14 E27.24917
G1 X82.86 Y116.568 E27.2653
G1 X82.723 Y117.022 E27.28107
G1 X82.675 Y117.508 E27.29731
G1 X82.725 Y117.984 E27.31323
G1 X82.865 Y118.443 E27.32919
G1 X83.092 Y118.866 E27.34516
G1 X83.398 Y119.235 E27.3611
G1 X83.764 Y119.536 E27.37686
G1 X84.194 Y119.764 E27.39305
G1 X84.647 Y119.901 E27.40879
G1 X85.114 Y119.948 E27.4244
G1 X104.189 Y119.948 E28.05884
G1 X104.655 Y119.909 E28.07439
G0 F6000 X104.735 Y120.341
G1 F2700 E23.07439
G0 F6000 X106.348 Y119.662
G0 X105.322 Y118.622
G0 X126.525 Y118.62
G0 X125.493 Y119.654
G0 X127.083 Y120.296
;TYPE:WALL-INNER
G1 F2700 E28.07439
G1 F1200 X127.609 Y120.348 E28.09197
G1 X146.662 Y120.348 E28.72568
G1 X147.179 Y120.303 E28.74294
G1 X147.723 Y120.144 E28.76179
G1 X148.218 Y119.885 E28.78037
G1 X148.651 Y119.537 E28.79885
G1 X149.009 Y119.115 E28.81725
G1 X149.281 Y118.619 E28.83607
G1 X149.449 Y118.085 E28.85469
G1 X149.51 Y117.529 E28.87329
G1 X149.462 Y116.98 E28.89162
G1 X149.304 Y116.436 E28.91046
G1 X149.045 Y115.941 E28.92904
G1 X148.696 Y115.507 E28.94757
G1 X148.275 Y115.151 E28.9659
G1 X147.778 Y114.879 E28.98475
G1 X147.253 Y114.711 E29.00308
G1 X146.722 Y114.652 E29.02085
G1 X127.609 Y114.652 E29.65655
G1 X127.082 Y114.704 E29.67417
G1 X126.541 Y114.87 E29.69299
G1 X126.049 Y115.134 E29.71156
G1 X125.618 Y115.489 E29.73013
G1 X125.269 Y115.917 E29.7485
G1 X125.003 Y116.415 E29.76728
G1 X124.843 Y116.944 E29.78566
G1 X124.788 Y117.509 E29.80454
G1 X124.845 Y118.064 E29.8231
G1 X125.009 Y118.598 E29.84167
G1 X125.273 Y119.09 E29.86025
G1 X125.628 Y119.519 E29.87877
G1 X126.055 Y119.87 E29.89715
G1 X126.555 Y120.137 E29.916
G1 X127.083 Y120.296 E29.93434
G0 F6000 X127.161 Y119.902
;TYPE:WALL-OUTER
G1 F1200 X127.629 Y119.948 E29.94998
G1 X146.645 Y119.948 E30.58246
G1 X147.105 Y119.908 E30.59782
G1 X147.573 Y119.771 E30.61404
G1 X147.998 Y119.549 E30.62998
G1 X148.371 Y119.249 E30.6459
G1 X148.678 Y118.887 E30.66169
G1 X148.911 Y118.461 E30.67784
G1 X149.056 Y118.002 E30.69385
G1 X149.108 Y117.525 E30.70981
G1 X149.067 Y117.054 E30.72553
G1 X148.931 Y116.586 E30.74174
G1 X148.709 Y116.161 E30.75769
G1 X148.408 Y115.788 E30.77363
G1 X148.047 Y115.482 E30.78937
G1 X147.62 Y115.248 E30.80557
G1 X147.169 Y115.104 E30.82132
G1 X146.7 Y115.052 E30.83701
G1 X127.629 Y115.052 E31.47131
G1 X127.161 Y115.098 E31.48695
G1 X126.696 Y115.241 E31.50314
G1 X126.273 Y115.468 E31.5191
G1 X125.903 Y115.773 E31.53505
G1 X125.603 Y116.14 E31.55082
G1 X125.374 Y116.569 E31.56699
G1 X125.237 Y117.022 E31.58273
G1 X125.19 Y117.508 E31.59897
G1 X125.239 Y117.984 E31.61489
G1 X125.38 Y118.443 E31.63086
G1 X125.607 Y118.866 E31.64682
G1 X125.912 Y119.235 E31.66275
G1 X126.278 Y119.536 E31.67851
G1 X126.708 Y119.765 E31.69471
G1 X127.161 Y119.902 E31.71045
G0 F6000 X127.076 Y120.333
G1 F2700 E26.71045
G0 F6000 X146.671 Y120.539
G0 X146.671 Y123.04
G0 X150.326 Y123.25
;TYPE:WALL-INNER
G1 F2700 E31.71045
G1 F1200 X77.171 Y123.25 E34.1436
G1 X77.171 Y111.75 E34.52609
G1 X150.234 Y111.75 E36.95617
G1 X155.995 Y117.513 E37.2272
G1 X156.006 Y117.569 E37.2291
G1 X150.326 Y123.25 E37.49629
G0 F6000 X150.492 Y123.65
;TYPE:WALL-OUTER
G1 F1200 X76.771 Y123.65 E39.94826
G1 X76.771 Y111.35 E40.35736
G1 X150.4 Y111.35 E42.80627
G1 X156.313 Y117.265 E43.08445
G1 X156.433 Y117.465 E43.09221
G1 X156.411 Y117.692 E43.09979
G1 X156.313 Y117.828 E43.10537
G1 X150.492 Y123.65 E43.37919
G0 F6000 X150.324 Y123.244
G0 X150.166 Y122.86
;TYPE:SKIN
G1 F1200 X77.561 Y122.86 E45.79405
G1 X77.561 Y112.14 E46.15059
G1 X150.074 Y112.14 E48.56239
G1 X155.479 Y117.546 E48.81664
G1 X150.166 Y122.86 E49.06658
G1 F2700 E44.06658
G0 F6000 X150.361 Y123.058
G0 X148.28 Y123.04
G0 X147.795 Y120.322
G0 X148.28 Y119.978
G0 X148.432 Y120.213
G1 F2700 E49.06658
G1 F1200 X148.924 Y119.818 E49.08756
G1 X149.332 Y119.337 E49.10854
G1 X149.642 Y118.773 E49.12994
G1 X149.833 Y118.165 E49.15114
G1 X149.902 Y117.533 E49.17229
G1 X149.848 Y116.908 E49.19315
G1 X149.667 Y116.29 E49.21457
G1 X149.373 Y115.726 E49.23572
G1 X148.977 Y115.234 E49.25673
G1 X148.497 Y114.828 E49.27764
G1 X147.932 Y114.519 E49.29906
G1 X147.335 Y114.327 E49.31992
G1 X146.743 Y114.262 E49.33972
G1 X127.59 Y114.262 E49.97676
G1 X127.004 Y114.32 E49.99634
G1 X126.391 Y114.509 E50.01768
G1 X125.831 Y114.808 E50.03879
G1 X125.341 Y115.212 E50.05991
G1 X124.943 Y115.7 E50.08086
