;FLAVOR:Marlin
;TIME:9834
;Filament used: 6.13911m
;Layer height: 0.2
;MINX:65.544
;MINY:84.672
;MINZ:0.2
;MAXX:165.882
;MAXY:150.322
;MAXZ:12.6
;Generated with Cura_SteamEngine 4.10.0
M140 S50
M105
M190 S50
M104 S220
M105
M109 S220
M82 ;absolute extrusion mode
; Ender 3 Custom Start G-code
G92 E0 ; Reset Extruder
G28 ; Home all axes
G1 Z2.0 F3000 ; Move Z Axis up little to prevent scratching of Heat Bed
G1 X0.1 Y20 Z0.3 F5000.0 ; Move to start position
G1 X0.1 Y200.0 Z0.3 F1500.0 E15 ; Draw the first line
G1 X0.4 Y200.0 Z0.3 F5000.0 ; Move to side a little
G1 X0.4 Y20 Z0.3 F1500.0 E30 ; Draw the second line
G92 E0 ; Reset Extruder
G1 Z2.0 F3000 ; Move Z Axis up little to prevent scratching of Heat Bed
G1 X5 Y20 Z0.3 F5000.0 ; Move over to prevent blob squish
G92 E0
G92 E0
G1 F2700 E-5
;LAYER_COUNT:64
;LAYER:0
M107
G0 F6000 X70.168 Y102.193 Z0.2
;TYPE:SKIRT
G1 F2700 E0
G1 F1200 X70.955 Y101.681 E0.03123
G1 X71.781 Y101.239 E0.06239
G1 X72.643 Y100.868 E0.0936
G1 X73.533 Y100.573 E0.12478
G1 X74.445 Y100.354 E0.15598
G1 X75.372 Y100.214 E0.18716
G1 X76.245 Y100.154 E0.21627
G1 X76.566 Y100.145 E0.22695
G1 X76.874 Y100.141 E0.23719
G1 X92.115 Y100.141 E0.74411
G1 X94.723 Y100.104 E0.83086
G1 X97.244 Y99.997 E0.91479
G1 X99.739 Y99.82 E0.99798
G1 X102.239 Y99.572 E1.08154
G1 X104.732 Y99.253 E1.16513
G1 X107.225 Y98.862 E1.24906
G1 X109.715 Y98.399 E1.3333
G1 X112.179 Y97.869 E1.41713
G1 X114.581 Y97.28 E1.49938
G1 X117.037 Y96.604 E1.58411
G1 X119.447 Y95.866 E1.66794
G1 X121.839 Y95.059 E1.7519
G1 X124.179 Y94.196 E1.83486
G1 X126.535 Y93.25 E1.9193
G1 X128.833 Y92.25 E2.00265
G1 X131.114 Y91.181 E2.08644
G1 X133.384 Y90.038 E2.17097
G1 X135.582 Y88.851 E2.25405
G1 X137.749 Y87.602 E2.33724
G1 X139.72 Y86.387 E2.41425
G1 X139.988 Y86.227 E2.42464
G1 X140.813 Y85.781 E2.45583
G1 X141.673 Y85.407 E2.48702
G1 X142.562 Y85.108 E2.51822
G1 X143.473 Y84.885 E2.54941
G1 X144.4 Y84.741 E2.58061
G1 X145.484 Y84.673 E2.61674
G1 X145.561 Y84.672 E2.6193
G1 X146.722 Y84.718 E2.65794
G1 X147.174 Y84.76 E2.67304
G1 X148.169 Y84.899 E2.70646
G1 X148.486 Y84.958 E2.71718
G1 X149.607 Y85.228 E2.75553
G1 X149.967 Y85.335 E2.76802
G1 X151.083 Y85.733 E2.80743
G1 X151.348 Y85.844 E2.81699
G1 X151.748 Y86.021 E2.83154
G1 X152.253 Y86.266 E2.8502
G1 X152.44 Y86.363 E2.85721
G1 X152.885 Y86.607 E2.87409
G1 X153.101 Y86.732 E2.88239
G1 X153.536 Y86.998 E2.89935
G1 X153.796 Y87.165 E2.90963
G1 X154.09 Y87.361 E2.92138
G1 X154.196 Y87.434 E2.92566
G1 X154.498 Y87.649 E2.93799
G1 X154.667 Y87.774 E2.94498
G1 X154.998 Y88.028 E2.95886
G1 X155.203 Y88.192 E2.96759
G1 X155.49 Y88.43 E2.97999
G1 X155.748 Y88.655 E2.99138
G1 X155.916 Y88.805 E2.99887
G1 X156.146 Y89.016 E3.00925
G1 X156.475 Y89.327 E3.02431
G1 X156.799 Y89.646 E3.03943
G1 X157.023 Y89.876 E3.05011
G1 X157.36 Y90.238 E3.06656
G1 X157.538 Y90.438 E3.07546
G1 X157.752 Y90.686 E3.08636
G1 X158.109 Y91.112 E3.10485
G1 X158.308 Y91.356 E3.11532
G1 X158.406 Y91.48 E3.12057
G1 X158.617 Y91.756 E3.13213
G1 X159.073 Y92.372 E3.15762
G1 X159.303 Y92.695 E3.17081
G1 X159.582 Y93.105 E3.1873
G1 X159.779 Y93.405 E3.19924
G1 X159.97 Y93.706 E3.2111
G1 X160.253 Y94.169 E3.22915
G1 X160.394 Y94.407 E3.23835
G1 X160.686 Y94.917 E3.25789
G1 X160.842 Y95.198 E3.26858
G1 X160.997 Y95.487 E3.27949
G1 X161.39 Y96.25 E3.30804
G1 X161.607 Y96.688 E3.32429
G1 X161.727 Y96.939 E3.33355
G1 X161.97 Y97.466 E3.35285
G1 X162.252 Y98.105 E3.37608
G1 X162.443 Y98.567 E3.39271
G1 X162.9 Y99.745 E3.43473
G1 X163.031 Y100.1 E3.44732
G1 X163.373 Y101.08 E3.48184
G1 X163.483 Y101.414 E3.49354
G1 X163.73 Y102.202 E3.521
G1 X163.818 Y102.497 E3.53124
G1 X164.112 Y103.536 E3.56716
G1 X164.192 Y103.833 E3.57739
G1 X164.4 Y104.655 E3.60559
G1 X164.464 Y104.924 E3.61478
G1 X164.656 Y105.772 E3.6437
G1 X164.725 Y106.097 E3.65475
G1 X164.916 Y107.077 E3.68796
G1 X164.967 Y107.358 E3.69746
G1 X165.257 Y109.084 E3.75567
G1 X165.305 Y109.395 E3.76614
G1 X165.432 Y110.31 E3.79686
G1 X165.468 Y110.605 E3.80675
G1 X165.587 Y111.692 E3.84312
G1 X165.699 Y112.888 E3.88307
G1 X165.725 Y113.215 E3.89398
G1 X165.786 Y114.193 E3.92657
G1 X165.84 Y115.263 E3.96221
G1 X165.852 Y115.587 E3.97299
G1 X165.875 Y116.74 E4.01135
G1 X165.882 Y117.675 E4.04245
G1 X165.88 Y117.976 E4.05246
G1 X165.858 Y119.08 E4.08918
G1 X165.819 Y120.224 E4.12726
G1 X165.808 Y120.47 E4.13545
G1 X165.774 Y121.041 E4.15447
G1 X165.651 Y122.666 E4.20867
G1 X165.615 Y123.052 E4.22157
G1 X165.448 Y124.553 E4.2718
G1 X165.4 Y124.924 E4.28424
G1 X165.196 Y126.323 E4.33126
G1 X165.126 Y126.748 E4.34559
G1 X164.807 Y128.463 E4.40361
G1 X164.737 Y128.807 E4.41529
G1 X164.469 Y130.029 E4.4569
G1 X164.364 Y130.464 E4.47178
G1 X163.976 Y131.943 E4.52264
G1 X163.877 Y132.295 E4.5348
G1 X163.614 Y133.177 E4.56541
G1 X163.451 Y133.68 E4.583
G1 X162.936 Y135.146 E4.63468
G1 X162.775 Y135.576 E4.64995
G1 X162.303 Y136.759 E4.69231
G1 X162.159 Y137.102 E4.70468
G1 X161.834 Y137.839 E4.73147
G1 X161.679 Y138.165 E4.74348
G1 X161.29 Y138.954 E4.77274
G1 X161.156 Y139.217 E4.78256
G1 X161.028 Y139.46 E4.79169
G1 X160.906 Y139.685 E4.8002
G1 X160.622 Y140.195 E4.81962
G1 X160.463 Y140.472 E4.83024
G1 X160.139 Y141.016 E4.8513
G1 X159.958 Y141.309 E4.86276
G1 X159.599 Y141.871 E4.88494
G1 X159.29 Y142.329 E4.90331
G1 X158.976 Y142.77 E4.92132
G1 X158.766 Y143.055 E4.93309
G1 X158.44 Y143.483 E4.95099
G1 X158.108 Y143.898 E4.96866
G1 X157.775 Y144.294 E4.98587
G1 X157.424 Y144.691 E5.0035
G1 X157.146 Y144.991 E5.0171
G1 X156.906 Y145.242 E5.02865
G1 X156.673 Y145.478 E5.03968
G1 X156.2 Y145.929 E5.06142
G1 X155.664 Y146.411 E5.08539
G1 X155.113 Y146.875 E5.10935
G1 X154.784 Y147.134 E5.12328
G1 X154.279 Y147.509 E5.1442
G1 X154.08 Y147.648 E5.15227
G1 X153.601 Y147.964 E5.17136
G1 X153.439 Y148.065 E5.17771
G1 X152.767 Y148.452 E5.2035
G1 X152.21 Y148.747 E5.22447
G1 X151.105 Y149.256 E5.26493
G1 X150.895 Y149.339 E5.27244
G1 X150.413 Y149.517 E5.28953
G1 X150.147 Y149.608 E5.29888
G1 X149.361 Y149.844 E5.32618
G1 X149.15 Y149.899 E5.33343
G1 X148.299 Y150.085 E5.3624
G1 X148.057 Y150.128 E5.37058
G1 X147.047 Y150.26 E5.40445
G1 X146.747 Y150.285 E5.41447
G1 X145.678 Y150.322 E5.45004
G1 X145.465 Y150.319 E5.45713
G1 X144.529 Y150.266 E5.48831
G1 X143.6 Y150.133 E5.51952
G1 X142.687 Y149.922 E5.55069
G1 X141.794 Y149.633 E5.58191
G1 X140.93 Y149.27 E5.61308
G1 X139.882 Y148.705 E5.65268
G1 X137.52 Y147.261 E5.74476
G1 X135.329 Y146.005 E5.82875
G1 X133.133 Y144.826 E5.91165
G1 X130.878 Y143.699 E5.9955
G1 X128.581 Y142.629 E6.07978
G1 X126.266 Y141.63 E6.16364
G1 X123.946 Y140.706 E6.2467
G1 X121.577 Y139.839 E6.3306
G1 X119.201 Y139.044 E6.41394
G1 X116.781 Y138.311 E6.49804
G1 X114.342 Y137.647 E6.58211
G1 X111.863 Y137.046 E6.66695
G1 X109.462 Y136.537 E6.74858
G1 X106.956 Y136.078 E6.83332
G1 X104.477 Y135.696 E6.91675
G1 X101.982 Y135.385 E7.00037
G1 X99.485 Y135.143 E7.08381
G1 X96.938 Y134.97 E7.16872
G1 X94.449 Y134.871 E7.25157
G1 X92.11 Y134.841 E7.32937
G1 X77.078 Y134.84 E7.82934
G1 X76.38 Y134.829 E7.85256
G1 X75.443 Y134.774 E7.88378
G1 X74.515 Y134.64 E7.91496
G1 X73.602 Y134.427 E7.94614
G1 X72.71 Y134.137 E7.97734
G1 X71.846 Y133.772 E8.00854
G1 X71.016 Y133.335 E8.03973
G1 X70.227 Y132.829 E8.07091
G1 X69.483 Y132.257 E8.10212
G1 X68.791 Y131.624 E8.13332
G1 X68.155 Y130.935 E8.1645
G1 X67.58 Y130.193 E8.19572
G1 X67.071 Y129.406 E8.2269
G1 X66.63 Y128.578 E8.2581
G1 X66.262 Y127.716 E8.28927
G1 X65.969 Y126.825 E8.32047
G1 X65.752 Y125.912 E8.35168
G1 X65.614 Y124.985 E8.38285
G1 X65.557 Y124.129 E8.41139
G1 X65.548 Y123.798 E8.4224
G1 X65.544 Y123.499 E8.43235
G1 X65.545 Y111.675 E8.82561
G1 X65.554 Y111.003 E8.84797
G1 X65.607 Y110.066 E8.87918
G1 X65.739 Y109.138 E8.91036
G1 X65.949 Y108.224 E8.94155
G1 X66.237 Y107.331 E8.97276
G1 X66.6 Y106.466 E9.00396
G1 X67.035 Y105.636 E9.03512
G1 X67.539 Y104.845 E9.06632
G1 X68.109 Y104.1 E9.09752
G1 X68.74 Y103.406 E9.12872
G1 X69.429 Y102.769 E9.15993
G1 X70.168 Y102.193 E9.19109
G0 F6000 X70.553 Y102.412
G1 F1200 X71.334 Y101.924 E9.22172
G1 X72.154 Y101.506 E9.25233
G1 X73.007 Y101.161 E9.28294
G1 X73.888 Y100.891 E9.31358
G1 X74.788 Y100.698 E9.3442
G1 X75.701 Y100.584 E9.3748
G1 X76.256 Y100.554 E9.39329
G1 X76.577 Y100.545 E9.40397
G1 X76.874 Y100.541 E9.41385
G1 X92.121 Y100.541 E9.92096
G1 X94.746 Y100.504 E10.00828
G1 X97.254 Y100.397 E10.09177
G1 X99.774 Y100.219 E10.1758
G1 X102.289 Y99.97 E10.25986
G1 X104.778 Y99.651 E10.34332
G1 X107.33 Y99.25 E10.42924
G1 X109.761 Y98.798 E10.51148
G1 X112.253 Y98.262 E10.59626
G1 X114.71 Y97.66 E10.6804
G1 X117.155 Y96.987 E10.76474
G1 X119.555 Y96.252 E10.84823
G1 X121.969 Y95.438 E10.93296
G1 X124.319 Y94.571 E11.01627
G1 X126.707 Y93.612 E11.10186
G1 X128.984 Y92.621 E11.18445
G1 X131.313 Y91.529 E11.27001
G1 X133.548 Y90.404 E11.35323
G1 X135.766 Y89.206 E11.43708
G1 X137.953 Y87.946 E11.52102
G1 X139.925 Y86.731 E11.59806
G1 X140.193 Y86.571 E11.60844
G1 X141.004 Y86.133 E11.6391
G1 X141.849 Y85.768 E11.66972
G1 X142.722 Y85.478 E11.70031
G1 X143.618 Y85.264 E11.73095
G1 X144.529 Y85.129 E11.76158
G1 X145.489 Y85.073 E11.79357
G1 X145.566 Y85.072 E11.79613
G1 X146.685 Y85.116 E11.83337
G1 X147.137 Y85.158 E11.84847
G1 X148.096 Y85.292 E11.88068
G1 X148.413 Y85.351 E11.8914
G1 X149.493 Y85.611 E11.92835
G1 X149.853 Y85.718 E11.94084
G1 X150.928 Y86.102 E11.97881
G1 X151.193 Y86.213 E11.98836
G1 X151.582 Y86.385 E12.00251
G1 X152.069 Y86.622 E12.02053
G1 X152.256 Y86.719 E12.02753
G1 X152.684 Y86.954 E12.04377
G1 X152.9 Y87.079 E12.05207
G1 X153.32 Y87.334 E12.06841
G1 X153.58 Y87.501 E12.07869
G1 X153.969 Y87.763 E12.09429
G1 X154.26 Y87.971 E12.10619
G1 X154.429 Y88.096 E12.11318
G1 X154.748 Y88.341 E12.12656
G1 X154.953 Y88.505 E12.13529
G1 X155.229 Y88.734 E12.14722
G1 X155.482 Y88.953 E12.15835
G1 X155.65 Y89.103 E12.16584
G1 X155.872 Y89.307 E12.17587
G1 X156.201 Y89.618 E12.19092
G1 X156.513 Y89.925 E12.20548
G1 X156.737 Y90.155 E12.21616
G1 X157.061 Y90.504 E12.232
G1 X157.239 Y90.704 E12.2409
G1 X157.445 Y90.943 E12.2514
G1 X157.802 Y91.369 E12.26989
G1 X157.994 Y91.604 E12.27998
G1 X158.092 Y91.728 E12.28524
G1 X158.296 Y91.994 E12.29638
G1 X158.752 Y92.61 E12.32188
G1 X158.974 Y92.922 E12.33461
G1 X159.129 Y93.148 E12.34373
G1 X159.444 Y93.625 E12.36274
G1 X159.628 Y93.915 E12.37416
G1 X159.911 Y94.378 E12.39221
G1 X160.048 Y94.607 E12.40109
G1 X160.337 Y95.111 E12.42041
G1 X160.493 Y95.392 E12.4311
G1 X160.642 Y95.671 E12.44162
G1 X161.031 Y96.427 E12.4699
G1 X161.248 Y96.865 E12.48615
G1 X161.364 Y97.107 E12.49508
G1 X161.604 Y97.627 E12.51413
G1 X161.886 Y98.266 E12.53736
G1 X162.07 Y98.712 E12.55341
G1 X162.527 Y99.89 E12.59543
G1 X162.653 Y100.231 E12.60752
G1 X162.995 Y101.211 E12.64205
G1 X163.102 Y101.534 E12.65336
G1 X163.349 Y102.322 E12.68083
G1 X163.434 Y102.606 E12.69069
G1 X163.728 Y103.645 E12.7266
G1 X163.804 Y103.931 E12.73645
G1 X164.012 Y104.753 E12.76465
G1 X164.074 Y105.012 E12.77351
G1 X164.266 Y105.86 E12.80242
G1 X164.332 Y106.173 E12.81306
G1 X164.523 Y107.153 E12.84627
G1 X164.572 Y107.425 E12.85546
G1 X164.862 Y109.151 E12.91368
G1 X164.908 Y109.45 E12.92374
G1 X165.035 Y110.365 E12.95446
G1 X165.071 Y110.649 E12.96398
G1 X165.189 Y111.735 E13.00032
G1 X165.301 Y112.925 E13.04007
G1 X165.326 Y113.24 E13.05058
G1 X165.387 Y114.213 E13.08301
G1 X165.441 Y115.283 E13.11864
G1 X165.452 Y115.596 E13.12906
G1 X165.475 Y116.743 E13.16721
G1 X165.482 Y117.678 E13.19831
G1 X165.48 Y117.968 E13.20796
G1 X165.454 Y119.228 E13.24988
G1 X165.42 Y120.21 E13.28256
G1 X165.409 Y120.447 E13.29045
G1 X165.375 Y121.011 E13.30924
G1 X165.252 Y122.636 E13.36344
G1 X165.217 Y123.008 E13.37587
G1 X165.05 Y124.509 E13.4261
G1 X165.004 Y124.867 E13.43811
G1 X164.8 Y126.266 E13.48513
G1 X164.732 Y126.674 E13.49889
G1 X164.413 Y128.389 E13.55691
G1 X164.346 Y128.722 E13.5682
G1 X164.078 Y129.944 E13.60981
G1 X163.977 Y130.363 E13.62415
G1 X163.589 Y131.842 E13.67501
G1 X163.494 Y132.181 E13.68672
G1 X163.231 Y133.063 E13.71733
G1 X163.074 Y133.547 E13.73425
G1 X162.559 Y135.013 E13.78593
G1 X162.403 Y135.428 E13.80068
G1 X161.931 Y136.611 E13.84304
G1 X161.793 Y136.941 E13.85494
G1 X161.471 Y137.671 E13.88147
G1 X161.32 Y137.988 E13.89315
G1 X160.931 Y138.777 E13.92241
G1 X160.802 Y139.03 E13.93186
G1 X160.557 Y139.49 E13.94919
G1 X160.273 Y140 E13.96861
G1 X160.119 Y140.267 E13.97886
G1 X159.795 Y140.811 E13.99992
G1 X159.621 Y141.093 E14.01094
G1 X159.262 Y141.655 E14.03312
G1 X158.964 Y142.097 E14.05085
G1 X158.65 Y142.538 E14.06886
G1 X158.447 Y142.813 E14.08022
G1 X158.121 Y143.241 E14.09812
G1 X157.802 Y143.64 E14.11511
G1 X157.469 Y144.036 E14.13232
G1 X157.131 Y144.419 E14.14931
G1 X156.853 Y144.719 E14.16291
G1 X156.621 Y144.961 E14.17406
G1 X156.388 Y145.197 E14.18509
G1 X155.933 Y145.632 E14.20603
G1 X155.397 Y146.114 E14.23
G1 X154.866 Y146.561 E14.25309
G1 X154.537 Y146.82 E14.26702
G1 X154.05 Y147.181 E14.28718
G1 X153.851 Y147.32 E14.29525
G1 X153.389 Y147.625 E14.31367
G1 X153.227 Y147.726 E14.32001
G1 X152.58 Y148.098 E14.34484
G1 X152.023 Y148.393 E14.3658
G1 X150.958 Y148.884 E14.40481
G1 X150.748 Y148.967 E14.41232
G1 X150.283 Y149.138 E14.4288
G1 X150.017 Y149.229 E14.43815
G1 X149.26 Y149.457 E14.46444
G1 X149.049 Y149.512 E14.47169
G1 X148.229 Y149.692 E14.49962
G1 X147.987 Y149.735 E14.50779
G1 X147.013 Y149.861 E14.54046
G1 X146.713 Y149.886 E14.55047
G1 X145.684 Y149.922 E14.58471
G1 X145.471 Y149.919 E14.5918
G1 X144.552 Y149.866 E14.62242
G1 X143.641 Y149.734 E14.65303
G1 X142.744 Y149.522 E14.68369
G1 X141.87 Y149.234 E14.7143
G1 X141.024 Y148.872 E14.7449
G1 X140.091 Y148.364 E14.78024
G1 X137.722 Y146.916 E14.87258
G1 X135.538 Y145.663 E14.95633
G1 X133.294 Y144.46 E15.04101
G1 X131.047 Y143.336 E15.12458
G1 X128.759 Y142.27 E15.20853
G1 X126.436 Y141.268 E15.29267
G1 X124.064 Y140.323 E15.3776
G1 X121.725 Y139.467 E15.46044
G1 X119.306 Y138.658 E15.54528
G1 X116.897 Y137.928 E15.629
G1 X114.436 Y137.258 E15.71383
G1 X111.967 Y136.659 E15.79833
G1 X109.511 Y136.139 E15.88183
G1 X107.052 Y135.688 E15.96498
G1 X104.52 Y135.299 E16.05018
G1 X102.033 Y134.988 E16.13354
G1 X99.514 Y134.744 E16.21772
G1 X96.98 Y134.572 E16.30219
G1 X94.433 Y134.471 E16.38697
G1 X92.115 Y134.441 E16.46408
G1 X77.084 Y134.44 E16.96401
G1 X76.386 Y134.429 E16.98723
G1 X75.467 Y134.374 E17.01785
G1 X74.556 Y134.24 E17.04848
G1 X73.66 Y134.028 E17.0791
G1 X72.786 Y133.738 E17.10973
G1 X71.941 Y133.374 E17.14033
G1 X71.13 Y132.938 E17.17095
G1 X70.36 Y132.433 E17.20158
G1 X69.637 Y131.863 E17.2322
G1 X68.966 Y131.233 E17.26282
G1 X68.352 Y130.546 E17.29346
G1 X67.801 Y129.809 E17.32407
G1 X67.315 Y129.027 E17.35469
G1 X66.899 Y128.206 E17.3853
G1 X66.555 Y127.352 E17.41592
G1 X66.287 Y126.471 E17.44655
G1 X66.097 Y125.57 E17.47718
G1 X65.985 Y124.657 E17.50777
G1 X65.957 Y124.118 E17.52572
G1 X65.948 Y123.787 E17.53674
G1 X65.944 Y123.499 E17.54632
G1 X65.945 Y111.68 E17.93942
G1 X65.954 Y111.008 E17.96177
G1 X66.006 Y110.089 E17.99239
G1 X66.138 Y109.178 E18.023
G1 X66.349 Y108.281 E18.05365
G1 X66.636 Y107.407 E18.08425
G1 X66.998 Y106.56 E18.11488
G1 X67.432 Y105.749 E18.14548
G1 X67.936 Y104.978 E18.17611
G1 X68.504 Y104.253 E18.20675
G1 X69.132 Y103.581 E18.23734
G1 X69.817 Y102.965 E18.26798
G1 X70.553 Y102.412 E18.2986
G0 F6000 X70.936 Y102.636
G1 F1200 X71.711 Y102.172 E18.32864
G1 X72.525 Y101.779 E18.35871
G1 X73.369 Y101.46 E18.38872
G1 X74.239 Y101.216 E18.41877
G1 X75.127 Y101.05 E18.44881
G1 X76.267 Y100.954 E18.48687
G1 X76.588 Y100.945 E18.49755
G1 X76.874 Y100.941 E18.50706
G1 X92.127 Y100.941 E19.01438
G1 X94.733 Y100.904 E19.10106
G1 X97.298 Y100.795 E19.18645
G1 X99.805 Y100.617 E19.27004
G1 X102.346 Y100.366 E19.35497
G1 X104.854 Y100.045 E19.43907
G1 X107.359 Y99.651 E19.52341
G1 X109.846 Y99.189 E19.60754
G1 X112.36 Y98.648 E19.69307
G1 X114.806 Y98.049 E19.77683
G1 X117.25 Y97.376 E19.86114
G1 X119.685 Y96.631 E19.94584
G1 X122.087 Y95.82 E20.03016
G1 X124.5 Y94.93 E20.1157
G1 X126.807 Y94.004 E20.19838
G1 X129.178 Y92.972 E20.28439
G1 X131.484 Y91.891 E20.36909
G1 X133.726 Y90.762 E20.45258
